venkat1924/Math-Modelling/Validation_results/cnn_validation_results.csv
run_id,target_r,predicted_r,error_r,target_p1,predicted_p1,error_p1,target_p2,predicted_p2,error_p2,target_d1,predicted_d1,error_d1,target_b,predicted_b,error_b,target_c1,predicted_c1,error_c1,target_a,predicted_a,error_a,target_m,predicted_m,error_m,target_h1,predicted_h1,error_h1,target_d2,predicted_d2,error_d2,target_d3,predicted_d3,error_d3,target_lambda1,predicted_lambda1,error_lambda1,target_q,predicted_q,error_q
13678,2.0,0.20822571,-1.7917743,0.0,0.17693856,0.17693856,0.3,0.21241848,-0.08758153,0.05,0.049881216,-0.00011878461,0.05,0.008637853,-0.041362148,0.1,0.19091113,0.09091113,1.0,0.8489251,-0.15107489,0.1,0.026107132,-0.07389287,0.2,0.26868588,0.068685874,0.1,0.09398107,-0.006018929,0.05,0.04713266,-0.002867341,0.5,0.9381767,0.4381767,1.0,0.9443898,-0.05561018
7192,1.05,1.846217,0.7962171,0.0,0.103749014,0.103749014,0.3,0.11035017,-0.18964985,0.05,0.06335582,0.013355818,0.01,0.01199696,0.0019969605,0.1,0.11721708,0.017217077,0.5,0.7784211,0.2784211,0.0,0.052265324,0.052265324,0.3,0.20727369,-0.09272632,0.05,0.063954294,0.013954293,0.05,0.047543947,-0.002456054,1.0,0.49277017,-0.5072298,1.0,0.52170026,-0.47829974
291,0.1,1.2114928,1.1114928,0.0,0.4081285,0.4081285,0.1,0.09235986,-0.0076401383,0.05,0.07162291,0.021622907,0.05,0.04901346,-0.0009865426,0.1,0.09438964,-0.0056103617,0.5,0.9130234,0.4130234,0.1,0.07161332,-0.028386682,0.2,0.30359274,0.10359274,0.05,0.04852138,-0.0014786199,0.02,0.048655458,0.028655458,1.0,0.48851562,-0.5114844,0.5,0.4915035,-0.008496493
11332,1.05,1.1753696,0.12536967,0.4,0.17412753,-0.22587247,0.3,0.11079807,-0.18920195,0.05,0.0704182,0.0204182,0.01,0.049964715,0.039964713,0.1,0.09446551,-0.0055344924,1.0,0.48173916,-0.51826084,0.0,0.062340826,0.062340826,0.2,0.2986422,0.098642185,0.05,0.050468802,0.0004688017,0.02,0.049083337,0.029083338,1.0,0.97737706,-0.022622943,1.0,0.9897736,-0.0102264285
18431,2.0,0.2033863,-1.7966137,0.4,0.15341046,-0.24658954,0.3,0.22003111,-0.0799689,0.1,0.051862575,-0.048137426,0.05,0.038165838,-0.011834163,0.2,0.09868073,-0.101319276,1.0,0.51563126,-0.48436874,0.1,0.041820746,-0.058179256,0.3,0.19931985,-0.10068016,0.1,0.04932324,-0.050676763,0.05,0.020534946,-0.029465055,1.0,0.50424325,-0.49575675,0.5,0.94565517,0.44565517
7299,1.05,1.0985937,0.04859376,0.0,0.18087776,0.18087776,0.3,0.28583553,-0.014164478,0.05,0.05658277,0.0065827705,0.01,0.046523217,0.036523215,0.2,0.17780024,-0.022199765,0.5,0.9628869,0.46288693,0.0,0.036596995,0.036596995,0.2,0.20206265,0.0020626485,0.05,0.09359961,0.04359961,0.02,0.019093763,-0.00090623647,1.0,0.9632166,-0.036783397,0.5,0.49891156,-0.0010884404
12093,1.05,0.106915824,-0.9430841,0.4,0.22471714,-0.17528287,0.3,0.19916968,-0.10083033,0.1,0.05081122,-0.04918878,0.05,0.042012766,-0.007987235,0.1,0.19035965,0.09035965,0.5,0.49206242,-0.00793758,0.1,0.054189585,-0.045810416,0.3,0.28718576,-0.012814254,0.1,0.09715271,-0.0028472915,0.05,0.020728452,-0.029271549,0.5,0.5121735,0.012173474,0.5,0.9645308,0.46453083
3754,0.1,1.9993402,1.8993402,0.2,0.34052426,0.14052425,0.3,0.08936948,-0.21063054,0.1,0.07732187,-0.02267813,0.01,0.048215684,0.038215682,0.2,0.1987549,-0.0012450963,0.5,0.49337286,-0.0066271424,0.1,0.048405074,-0.051594928,0.2,0.30034134,0.100341335,0.1,0.09951271,-0.00048729032,0.02,0.050446376,0.030446377,0.5,0.51348424,0.01348424,1.0,0.9987548,-0.0012452006
8782,1.05,0.9686024,-0.08139753,0.2,0.10046977,-0.099530235,0.1,0.27513108,0.17513108,0.1,0.07653576,-0.02346424,0.01,0.047726396,0.037726395,0.1,0.19254978,0.09254978,1.0,0.9599602,-0.040039778,0.0,0.053323805,0.053323805,0.2,0.2761063,0.076106295,0.1,0.0490711,-0.050928902,0.05,0.020861529,-0.029138472,0.5,0.4988528,-0.0011472106,1.0,0.54982066,-0.45017934
17131,2.0,0.085121065,-1.914879,0.4,0.20356593,-0.19643408,0.1,0.21458237,0.11458237,0.1,0.097026825,-0.0029731765,0.01,0.050410185,0.040410183,0.2,0.105792426,-0.09420758,1.0,0.560504,-0.43949598,0.1,0.05259478,-0.04740522,0.2,0.28727767,0.087277666,0.1,0.09712635,-0.0028736517,0.02,0.04669511,0.02669511,1.0,0.9517066,-0.04829341,0.5,0.6063302,0.106330216
327,0.1,1.8130361,1.7130361,0.0,0.07497742,0.07497742,0.1,0.08865568,-0.011344321,0.05,0.05970936,0.009709358,0.05,0.048920244,-0.0010797568,0.1,0.09916667,-0.00083333254,1.0,1.0034113,0.003411293,0.0,0.037777208,0.037777208,0.2,0.207589,0.0075889975,0.05,0.0489344,-0.0010656007,0.05,0.023021607,-0.026978394,1.0,0.9569803,-0.043019712,0.5,0.963055,0.463055
12367,2.0,0.1124189,-1.8875811,0.0,0.15586157,0.15586157,0.1,0.1809243,0.080924295,0.05,0.05097515,0.0009751506,0.01,0.009582384,-0.00041761622,0.1,0.10565011,0.0056501105,1.0,0.48227924,-0.51772076,0.0,0.043898165,0.043898165,0.2,0.1958391,-0.004160896,0.1,0.04809571,-0.05190429,0.05,0.019508472,-0.030491529,1.0,0.49513942,-0.5048606,0.5,0.96086204,0.46086204
410,0.1,1.083725,0.98372495,0.0,0.14819492,0.14819492,0.1,0.10053409,0.0005340874,0.05,0.07290511,0.022905108,0.05,0.009147256,-0.040852744,0.2,0.18331145,-0.016688555,0.5,0.99500525,0.49500525,0.0,0.05720072,0.05720072,0.3,0.30220112,0.0022011101,0.1,0.049718548,-0.050281454,0.02,0.048722494,0.028722495,0.5,0.50032043,0.00032043457,1.0,0.51523423,-0.48476577
9085,1.05,1.094768,0.044768095,0.2,0.29400727,0.09400727,0.1,0.09541609,-0.00458391,0.1,0.09714683,-0.00285317,0.05,0.01143363,-0.03856637,0.1,0.1018314,0.0018313974,1.0,0.9982222,-0.0017778277,0.1,0.046344906,-0.053655095,0.3,0.2980673,-0.0019327104,0.1,0.095221,-0.0047790036,0.05,0.046629578,-0.0033704229,0.5,0.4784739,-0.021526098,0.5,0.9765729,0.47657287
12229,1.05,1.0068525,-0.043147445,0.4,0.32543287,-0.07456714,0.3,0.28938112,-0.010618895,0.1,0.09566777,-0.0043322295,0.05,0.009608422,-0.04039158,0.2,0.19277039,-0.0072296113,1.0,0.98135644,-0.018643558,0.0,0.03845234,0.03845234,0.2,0.299592,0.099591985,0.05,0.04928834,-0.00071166083,0.05,0.020859197,-0.029140804,0.5,0.98991394,0.48991394,0.5,0.5034387,0.0034387112
14668,2.0,0.9268443,-1.0731556,0.2,0.26014212,0.060142115,0.1,0.30281585,0.20281586,0.05,0.04613466,-0.0038653426,0.05,0.047720727,-0.0022792742,0.1,0.09857609,-0.0014239103,1.0,0.5340128,-0.4659872,0.0,0.032823313,0.032823313,0.2,0.29415268,0.094152674,0.1,0.050072618,-0.049927384,0.02,0.048054524,0.028054524,1.0,0.95976794,-0.040232062,1.0,0.49048662,-0.5095134
7754,1.05,0.2550962,-0.79490376,0.0,0.128999,0.128999,0.3,0.23730716,-0.06269285,0.1,0.049056225,-0.050943777,0.01,0.029008737,0.019008737,0.1,0.13541861,0.035418607,1.0,0.9755867,-0.024413288,0.0,0.04145833,0.04145833,0.2,0.28439984,0.084399834,0.1,0.050016455,-0.049983546,0.02,0.019811502,-0.00018849783,0.5,0.49985033,-0.00014966726,1.0,0.51636636,-0.48363364
10260,1.05,1.9603636,0.9103637,0.4,0.0642713,-0.3357287,0.1,0.29139197,0.19139197,0.05,0.05678165,0.006781649,0.01,0.04748183,0.03748183,0.1,0.09902026,-0.0009797439,0.5,0.97702646,0.47702646,0.0,0.028378362,0.028378362,0.3,0.29994038,-5.9634447e-05,0.05,0.095072314,0.045072313,0.02,0.020542976,0.00054297596,1.0,0.48290145,-0.51709855,1.0,0.9987248,-0.0012751818
5231,0.1,0.06096223,-0.03903777,0.4,0.20747764,-0.19252236,0.3,0.22820117,-0.071798846,0.05,0.04928039,-0.0007196106,0.01,0.046713427,0.03671343,0.1,0.19720638,0.09720638,1.0,1.0058177,0.0058176517,0.1,0.056148183,-0.04385182,0.2,0.28235948,0.08235948,0.1,0.048918895,-0.051081106,0.05,0.020530388,-0.029469613,1.0,0.98531544,-0.014684558,0.5,0.97608644,0.47608644
15160,2.0,0.23294784,-1.7670522,0.2,0.19539441,-0.0046055913,0.1,0.20139885,0.10139885,0.1,0.048778664,-0.051221337,0.05,0.008989746,-0.041010253,0.1,0.19266063,0.09266063,0.5,0.49094945,-0.009050548,0.1,0.04332478,-0.05667522,0.3,0.20015246,-0.099847555,0.05,0.094388016,0.044388015,0.05,0.04533645,-0.0046635494,1.0,0.50237536,-0.49762464,1.0,0.9577763,-0.042223692
10520,1.05,0.0840452,-0.9659548,0.4,0.19112268,-0.20887733,0.1,0.18720345,0.08720345,0.05,0.09762712,0.047627117,0.05,0.050526198,0.00052619725,0.1,0.10184018,0.0018401816,0.5,0.9567929,0.4567929,0.0,0.0443249,0.0443249,0.3,0.2957803,-0.004219711,0.05,0.09761404,0.04761404,0.05,0.048620842,-0.0013791583,1.0,0.5101347,-0.4898653,1.0,0.50290436,-0.49709564
2797,0.1,1.0554528,0.9554528,0.2,0.19029205,-0.0097079575,0.1,0.28324953,0.18324953,0.1,0.07018899,-0.02981101,0.01,0.0475352,0.037535198,0.2,0.1967266,-0.0032733977,1.0,0.96807116,-0.031928837,0.1,0.034739256,-0.065260746,0.2,0.2995083,0.0995083,0.1,0.09543115,-0.0045688525,0.05,0.02118984,-0.02881016,0.5,0.49449337,-0.0055066347,0.5,0.9615251,0.46152508
7199,1.05,0.018838963,-1.031161,0.0,0.20020907,0.20020907,0.3,0.2059635,-0.094036505,0.05,0.097071126,0.047071125,0.01,0.048835926,0.038835928,0.1,0.18880987,0.08880987,0.5,1.0206351,0.5206351,0.0,0.051562954,0.051562954,0.3,0.20357366,-0.09642635,0.1,0.09735576,-0.0026442409,0.05,0.018400574,-0.031599425,1.0,0.96896684,-0.031033158,0.5,0.48682716,-0.013172835
17583,2.0,1.1856006,-0.81439936,0.4,0.2952062,-0.10479382,0.3,0.15923403,-0.14076598,0.05,0.060661323,0.010661323,0.01,0.048116196,0.038116194,0.2,0.12655984,-0.073440164,0.5,0.96726984,0.46726984,0.1,0.048927344,-0.051072657,0.2,0.2016314,0.001631394,0.1,0.09467042,-0.005329579,0.05,0.018358784,-0.031641215,1.0,0.9727803,-0.027219713,0.5,0.50276756,0.0027675629
7077,1.05,1.897742,0.8477421,0.0,0.17705952,0.17705952,0.1,0.29062524,0.19062525,0.1,0.0932935,-0.0067064986,0.05,0.010592815,-0.039407186,0.2,0.19991367,-8.633733e-05,0.5,0.7774675,0.2774675,0.1,0.060025632,-0.03997437,0.2,0.20020753,0.00020752847,0.05,0.051250257,0.0012502559,0.05,0.01995156,-0.030048441,0.5,0.5060574,0.0060573816,0.5,0.980584,0.48058403
17564,2.0,1.1000601,-0.8999399,0.4,0.025782108,-0.3742179,0.3,0.09197776,-0.20802225,0.05,0.06020809,0.010208089,0.01,0.008756774,-0.0012432262,0.2,0.18209162,-0.01790838,0.5,0.496188,-0.0038119853,0.0,0.050793458,0.050793458,0.3,0.29946944,-0.00053057075,0.1,0.098335765,-0.0016642362,0.02,0.048501957,0.028501958,1.0,0.97556746,-0.02443254,1.0,0.9864378,-0.013562202
3430,0.1,1.1884321,1.0884321,0.2,0.14866307,-0.05133693,0.3,0.09767866,-0.20232135,0.05,0.07048674,0.020486739,0.05,0.04666298,-0.003337022,0.1,0.15996769,0.05996769,1.0,0.7816038,-0.21839619,0.1,0.022777148,-0.077222854,0.2,0.20393206,0.003932059,0.05,0.05078519,0.0007851906,0.05,0.04992249,-7.7512115e-05,0.5,0.50202155,0.0020215511,1.0,0.54346114,-0.45653886
7102,1.05,1.1487626,0.09876263,0.0,0.33141643,0.33141643,0.1,0.10373758,0.0037375763,0.1,0.08590414,-0.014095865,0.05,0.047157645,-0.0028423555,0.2,0.16558808,-0.034411922,0.5,0.9382851,0.4382851,0.1,0.013821699,-0.0861783,0.3,0.20510745,-0.09489256,0.1,0.050826352,-0.04917365,0.05,0.049815577,-0.00018442422,0.5,0.5473518,0.047351778,1.0,0.521852,-0.47814798
8656,1.05,-0.0036581988,-1.0536581,0.2,0.22587638,0.025876373,0.1,0.22509702,0.125097,0.05,0.046683274,-0.0033167265,0.05,0.010942011,-0.03905799,0.2,0.10603181,-0.09396819,1.0,0.5546151,-0.44538492,0.0,0.043590195,0.043590195,0.2,0.29112658,0.091126576,0.1,0.09318277,-0.006817229,0.05,0.044530775,-0.0054692253,1.0,0.9434919,-0.056508124,1.0,0.4699321,-0.5300679
7669,1.05,1.022162,-0.027837992,0.0,0.17958076,0.17958076,0.3,0.29451215,-0.0054878592,0.05,0.061160933,0.0111609325,0.05,0.008821857,-0.041178145,0.2,0.10009929,-0.099900715,1.0,1.0264018,0.026401758,0.1,0.05906905,-0.040930953,0.3,0.29329538,-0.0067046285,0.05,0.05046488,0.00046487898,0.05,0.021072607,-0.028927393,0.5,0.50086856,0.0008685589,0.5,0.97525346,0.47525346
2147,0.1,0.13607483,0.036074825,0.2,0.21680193,0.016801924,0.1,0.2247431,0.1247431,0.05,0.09790982,0.047909822,0.01,0.035934124,0.025934124,0.1,0.19341269,0.09341269,1.0,0.77824837,-0.22175163,0.1,0.039336123,-0.06066388,0.2,0.19733584,-0.0026641637,0.05,0.05070179,0.0007017888,0.02,0.020103697,0.00010369718,1.0,0.52422476,-0.47577524,0.5,0.8105049,0.3105049
14338,2.0,1.94553,-0.054469943,0.2,0.104437634,-0.09556237,0.1,0.29788968,0.19788969,0.05,0.06302358,0.013023581,0.01,0.008314815,-0.0016851844,0.1,0.1006826,0.00068259984,0.5,0.43992272,-0.06007728,0.0,0.038235307,0.038235307,0.2,0.20072486,0.0007248521,0.05,0.048201762,-0.0017982386,0.02,0.020085584,8.558482e-05,0.5,0.97730786,0.47730786,1.0,0.9854079,-0.014592111
2657,0.1,1.577513,1.477513,0.2,0.10034464,-0.09965536,0.1,0.15630414,0.056304134,0.1,0.060373735,-0.039626267,0.01,0.012258448,0.002258448,0.1,0.15204291,0.05204291,1.0,0.938255,-0.061744988,0.1,-0.010745871,-0.11074587,0.2,0.20511417,0.005114168,0.05,0.09259882,0.042598817,0.02,0.020262957,0.00026295707,0.5,0.50430226,0.0043022633,0.5,0.50969565,0.009695649
9474,1.05,1.2638764,0.21387649,0.2,0.2483913,0.048391297,0.3,0.12486559,-0.17513442,0.05,0.06719859,0.017198589,0.05,0.0445894,-0.0054106005,0.1,0.10870947,0.008709468,0.5,0.61757064,0.11757064,0.0,0.04305141,0.04305141,0.2,0.2065372,0.006537199,0.05,0.09465067,0.04465067,0.02,0.028312815,0.008312816,0.5,0.53237724,0.032377243,1.0,0.53662354,-0.46337646
971,0.1,1.1334432,1.0334432,0.0,0.05776465,0.05776465,0.1,0.11388872,0.013888717,0.1,0.06262293,-0.037377074,0.05,0.011802604,-0.0381974,0.2,0.11904778,-0.08095222,1.0,0.5022826,-0.49771738,0.0,0.019626666,0.019626666,0.2,0.29633987,0.09633987,0.1,0.09569588,-0.0043041185,0.02,0.018867739,-0.001132261,1.0,0.9627037,-0.037296295,0.5,0.47815174,-0.021848261
5047,0.1,0.02932518,-0.07067482,0.4,0.17038591,-0.2296141,0.1,0.21095873,0.11095873,0.1,0.048860755,-0.051139247,0.05,0.0332457,-0.0167543,0.2,0.09862082,-0.101379186,0.5,0.9377339,0.4377339,0.1,0.031795442,-0.06820456,0.3,0.29290384,-0.0070961714,0.05,0.09331679,0.043316793,0.05,0.045775846,-0.004224155,1.0,0.4691411,-0.5308589,0.5,0.9316449,0.43164492
13454,2.0,0.04730513,-1.9526949,0.0,0.22064658,0.22064658,0.3,0.2099162,-0.09008381,0.05,0.05126816,0.0012681596,0.01,0.009869521,-0.00013047922,0.2,0.10555784,-0.09444217,0.5,0.9542513,0.4542513,0.0,0.038019523,0.038019523,0.2,0.2903169,0.09031691,0.1,0.09557823,-0.0044217706,0.05,0.04706778,-0.0029322207,0.5,0.95152867,0.45152867,1.0,0.980172,-0.019828022
323,0.1,1.8548876,1.7548876,0.0,0.20909724,0.20909724,0.1,0.2990764,0.19907641,0.05,0.078234755,0.028234754,0.05,0.0110708885,-0.038929112,0.1,0.14187104,0.041871034,1.0,0.91111815,-0.08888185,0.0,0.04060001,0.04060001,0.2,0.30347455,0.10347454,0.05,0.04933533,-0.00066467,0.02,0.02070567,0.00070567057,1.0,0.96748143,-0.032518566,0.5,0.4952159,-0.004784107
7686,1.05,0.11616871,-0.9338312,0.0,0.18687001,0.18687001,0.3,0.20682666,-0.093173355,0.1,0.049341943,-0.05065806,0.01,0.010085352,8.535199e-05,0.1,0.10086703,0.0008670315,0.5,0.48990494,-0.01009506,0.0,0.0481581,0.0481581,0.2,0.29001963,0.09001963,0.05,0.09432802,0.044328023,0.05,0.045787167,-0.004212834,0.5,0.49497432,-0.005025685,1.0,0.9503061,-0.049693882
12323,2.0,1.7969803,-0.20301974,0.0,0.064862475,0.064862475,0.1,0.09668451,-0.0033154935,0.05,0.06119033,0.011190329,0.01,0.049324285,0.039324284,0.1,0.20115805,0.101158045,0.5,1.0019281,0.5019281,0.1,0.03929296,-0.06070704,0.2,0.29737458,0.09737457,0.05,0.09816374,0.048163738,0.02,0.04651542,0.02651542,1.0,0.9698543,-0.030145705,0.5,0.9832864,0.48328638
5199,0.1,1.0441543,0.94415426,0.4,0.054888718,-0.34511128,0.3,0.1683933,-0.13160671,0.05,0.073789194,0.023789193,0.01,0.010147069,0.00014706887,0.1,0.13177228,0.03177228,1.0,0.7912473,-0.20875269,0.0,0.007753336,0.007753336,0.2,0.20086014,0.0008601397,0.1,0.095292814,-0.0047071874,0.05,0.047739565,-0.0022604354,1.0,0.95677567,-0.043224335,0.5,0.4960851,-0.0039148927
3182,0.1,0.13461241,0.03461241,0.2,0.20121486,0.0012148619,0.3,0.22694421,-0.073055804,0.05,0.09764583,0.047645826,0.01,0.011770511,0.0017705113,0.1,0.12245574,0.022455737,1.0,0.71088314,-0.28911686,0.1,0.04690757,-0.05309243,0.2,0.25875673,0.058756724,0.1,0.09805519,-0.0019448102,0.05,0.020885956,-0.029114045,0.5,0.9630198,0.4630198,1.0,0.522797,-0.477203
10960,1.05,1.9314097,0.88140976,0.4,0.35185117,-0.04814884,0.1,0.10198394,0.0019839406,0.1,0.069088295,-0.030911706,0.01,0.009223641,-0.0007763589,0.2,0.1790982,-0.0209018,1.0,0.95269847,-0.04730153,0.0,0.06704745,0.06704745,0.2,0.30374524,0.10374524,0.1,0.098246254,-0.0017537475,0.05,0.047936123,-0.0020638779,1.0,0.98734504,-0.01265496,1.0,0.5218136,-0.47818643
3652,0.1,0.24931167,0.14931166,0.2,0.2020407,0.0020406991,0.3,0.23741706,-0.062582955,0.1,0.048571926,-0.051428076,0.01,0.009976577,-2.3422763e-05,0.1,0.19372873,0.09372873,1.0,0.5271574,-0.47284257,0.0,0.03244655,0.03244655,0.2,0.19919994,-0.00080005825,0.05,0.09519241,0.04519241,0.02,0.02089055,0.00089055113,1.0,0.48072803,-0.51927197,1.0,0.48827022,-0.5117298
11759,1.05,0.9850831,-0.06491685,0.4,0.2242072,-0.17579281,0.3,0.09586388,-0.20413613,0.05,0.08755256,0.03755256,0.05,0.043646287,-0.0063537136,0.2,0.14645405,-0.05354595,1.0,0.9100325,-0.08996749,0.1,0.025461847,-0.07453816,0.2,0.20104934,0.0010493398,0.1,0.09587083,-0.0041291714,0.05,0.048138823,-0.0018611774,1.0,0.95802164,-0.04197836,0.5,0.48501962,-0.014980376
4772,0.1,0.14064488,0.040644877,0.4,0.17017345,-0.22982655,0.1,0.21135743,0.11135743,0.1,0.09438949,-0.0056105107,0.01,0.010429578,0.00042957813,0.2,0.19152191,-0.00847809,0.5,0.95398474,0.45398474,0.1,0.050146997,-0.049853005,0.2,0.20903827,0.0090382695,0.05,0.09584393,0.045843933,0.02,0.047037564,0.027037565,1.0,0.52367514,-0.47632486,1.0,0.53857756,-0.46142244
3074,0.1,1.8829975,1.7829975,0.2,0.29410434,0.094104335,0.3,0.102055795,-0.19794422,0.05,0.068078175,0.018078174,0.01,0.045550164,0.035550162,0.1,0.11153458,0.011534579,0.5,0.65164566,0.15164566,0.0,0.0534288,0.0534288,0.2,0.20406397,0.004063964,0.05,0.095326975,0.045326974,0.02,0.018707959,-0.0012920406,0.5,0.9530589,0.4530589,1.0,0.5178842,-0.4821158
10612,1.05,1.818072,0.768072,0.4,0.030995542,-0.36900446,0.1,0.094903715,-0.0050962865,0.05,0.08879742,0.03879742,0.05,0.009453385,-0.040546615,0.1,0.110606864,0.010606863,1.0,0.82813734,-0.17186266,0.1,0.047640722,-0.05235928,0.3,0.20169668,-0.09830333,0.05,0.09614055,0.046140548,0.02,0.046752743,0.026752744,1.0,0.9680169,-0.031983078,1.0,0.50586987,-0.49413013
12818,2.0,1.7553881,-0.24461186,0.0,0.31929547,0.31929547,0.1,0.30267772,0.20267773,0.1,0.042209823,-0.05779018,0.01,0.04656708,0.036567077,0.1,0.114933506,0.014933504,0.5,0.9515419,0.4515419,0.0,0.05483512,0.05483512,0.3,0.30865476,0.008654743,0.05,0.09690078,0.046900783,0.02,0.01695007,-0.0030499287,0.5,0.9810652,0.4810652,1.0,0.4977743,-0.5022257
12409,2.0,1.1889544,-0.81104565,0.0,0.3760453,0.3760453,0.1,0.095412575,-0.004587427,0.05,0.09419283,0.044192832,0.01,0.049033374,0.039033376,0.1,0.19190909,0.09190909,1.0,1.0121741,0.0121741295,0.1,0.04814782,-0.05185218,0.3,0.29709563,-0.0029043853,0.1,0.048925404,-0.051074598,0.02,0.01854849,-0.0014515091,0.5,1.0023631,0.5023631,0.5,0.51273096,0.012730956
2752,0.1,0.023253713,-0.076746285,0.2,0.21455619,0.014556184,0.1,0.24784732,0.14784732,0.1,0.09754005,-0.0024599507,0.01,0.051141605,0.041141607,0.2,0.20072909,0.000729084,0.5,0.9940769,0.4940769,0.1,0.054460656,-0.045539346,0.3,0.2141074,-0.08589262,0.1,0.05017253,-0.04982747,0.05,0.045702502,-0.0042974986,1.0,0.9808103,-0.019189715,1.0,0.5363429,-0.46365708
4719,0.1,1.8681246,1.7681246,0.4,0.101442575,-0.29855743,0.1,0.107843004,0.007843003,0.1,0.069073886,-0.030926116,0.01,0.048268195,0.038268194,0.1,0.14384854,0.043848537,1.0,0.47724038,-0.5227596,0.1,0.028663967,-0.07133603,0.2,0.30128324,0.10128324,0.1,0.05001413,-0.04998587,0.05,0.02064363,-0.029356372,1.0,0.9753385,-0.024661481,0.5,0.4931523,-0.0068477094
14489,2.0,0.13130705,-1.868693,0.2,0.1639827,-0.0360173,0.1,0.15031745,0.050317444,0.05,0.054249167,0.0042491667,0.01,0.011336974,0.0013369741,0.2,0.17807934,-0.021920666,0.5,0.8872429,0.3872429,0.0,0.066034086,0.066034086,0.3,0.21348946,-0.086510554,0.1,0.07033542,-0.029664584,0.02,0.03843668,0.018436681,0.5,0.48643595,-0.01356405,0.5,0.5103152,0.01031518
16388,2.0,0.14399078,-1.8560092,0.4,0.19613992,-0.20386009,0.1,0.20986629,0.109866284,0.05,0.05018609,0.00018608943,0.01,0.044875957,0.03487596,0.1,0.19022338,0.09022338,0.5,0.52780455,0.027804554,0.0,0.04307688,0.04307688,0.2,0.20095903,0.00095902383,0.05,0.09493595,0.044935953,0.02,0.046304565,0.026304565,1.0,0.5140257,-0.4859743,1.0,0.9492754,-0.050724626
15074,2.0,1.0696554,-0.9303446,0.2,0.19103375,-0.008966252,0.1,0.26975536,0.16975537,0.1,0.08396138,-0.016038619,0.01,0.04695943,0.036959432,0.2,0.18695194,-0.013048068,1.0,0.5466809,-0.45331907,0.1,0.06973298,-0.030267023,0.2,0.29574537,0.09574537,0.05,0.04756247,-0.002437532,0.02,0.04865534,0.028655339,0.5,0.50953424,0.00953424,1.0,0.5076465,-0.4923535
5922,0.1,1.8890382,1.7890382,0.4,0.20430818,-0.19569182,0.3,0.3009189,0.000918895,0.1,0.078766674,-0.021233328,0.05,0.010832217,-0.039167784,0.1,0.1872839,0.0872839,0.5,0.48329246,-0.01670754,0.1,0.021395821,-0.07860418,0.2,0.2109414,0.010941401,0.05,0.05380897,0.0038089678,0.02,0.020835312,0.00083531253,0.5,0.96226496,0.46226496,1.0,0.5374989,-0.4625011
8100,1.05,1.9003168,0.8503169,0.0,0.005793169,0.005793169,0.3,0.09396839,-0.20603162,0.1,0.0719861,-0.0280139,0.05,0.0485118,-0.0014882013,0.2,0.18468836,-0.0153116435,0.5,1.0265875,0.5265875,0.1,0.043500178,-0.056499824,0.2,0.30521673,0.10521673,0.05,0.04906214,-0.00093786046,0.02,0.020904107,0.00090410747,1.0,0.95952946,-0.04047054,1.0,0.9615523,-0.038447678
14082,2.0,1.7660731,-0.23392689,0.0,0.15689129,0.15689129,0.3,0.3085572,0.0085572,0.1,0.045976214,-0.054023787,0.05,0.04512686,-0.0048731416,0.1,0.115206204,0.015206203,0.5,0.8907683,0.3907683,0.0,0.030020941,0.030020941,0.2,0.30326626,0.103266254,0.05,0.09356733,0.043567326,0.02,0.019954905,-4.509464e-05,0.5,0.48561782,-0.014382184,1.0,0.50310373,-0.49689627
5602,0.1,1.1420712,1.0420712,0.4,0.39251733,-0.0074826777,0.3,0.10500513,-0.19499488,0.05,0.07864338,0.02864338,0.05,0.04674527,-0.0032547303,0.2,0.14884967,-0.051150337,1.0,0.98544747,-0.014552534,0.1,0.015840763,-0.08415924,0.2,0.30167043,0.10167043,0.05,0.097359896,0.047359895,0.02,0.049383827,0.029383827,0.5,0.51989377,0.019893765,1.0,0.49849316,-0.5015068
14214,2.0,0.15373154,-1.8462684,0.0,0.22051767,0.22051767,0.3,0.24733193,-0.05266808,0.1,0.046771985,-0.053228017,0.05,0.047316194,-0.0026838072,0.2,0.09959285,-0.10040715,0.5,0.92903197,0.42903197,0.0,0.054246485,0.054246485,0.2,0.20519213,0.005192131,0.05,0.09358899,0.043588992,0.05,0.040226717,-0.009773284,0.5,0.9617218,0.46172178,1.0,0.5291733,-0.4708267
14280,2.0,1.0972252,-0.9027748,0.0,0.1408848,0.1408848,0.3,0.29326412,-0.006735891,0.1,0.05250693,-0.04749307,0.05,0.010949514,-0.039050486,0.2,0.10695906,-0.09304094,1.0,0.8354074,-0.16459262,0.0,0.03574178,0.03574178,0.2,0.20577605,0.0057760477,0.05,0.049122874,-0.00087712705,0.05,0.04969007,-0.00030992925,1.0,0.96031505,-0.03968495,1.0,0.97754294,-0.022457063
2741,0.1,1.0113525,0.9113525,0.2,0.34071153,0.14071153,0.1,0.29104558,0.19104558,0.1,0.08618318,-0.013816819,0.01,0.047843847,0.037843846,0.2,0.118387595,-0.08161241,0.5,0.49553514,-0.0044648647,0.1,0.06539644,-0.03460356,0.3,0.29614976,-0.0038502514,0.05,0.09652691,0.046526913,0.05,0.047284167,-0.0027158335,0.5,0.4910898,-0.008910209,0.5,0.9582944,0.4582944
14129,2.0,0.17630549,-1.8236945,0.0,0.15448381,0.15448381,0.3,0.1801614,-0.11983861,0.1,0.09707631,-0.0029236898,0.05,0.009384606,-0.040615395,0.1,0.09964714,-0.0003528595,0.5,0.4934281,-0.006571889,0.1,0.038915023,-0.06108498,0.3,0.29519436,-0.0048056543,0.05,0.09691714,0.046917137,0.02,0.020935994,0.0009359941,0.5,0.5150365,0.015036523,0.5,0.9726061,0.47260612
737,0.1,1.1411713,1.0411713,0.0,0.19290257,0.19290257,0.1,0.11300833,0.013008326,0.1,0.065993786,-0.034006216,0.01,0.010897829,0.0008978294,0.2,0.11287633,-0.08712367,1.0,0.58245677,-0.41754323,0.1,0.025459994,-0.074540004,0.2,0.20163834,0.001638338,0.05,0.049783085,-0.0002169162,0.02,0.04938842,0.02938842,0.5,0.49217892,-0.007821083,0.5,0.5116905,0.011690497
18189,2.0,0.085929066,-1.914071,0.4,0.23066051,-0.1693395,0.3,0.1904341,-0.10956591,0.1,0.05048765,-0.049512353,0.05,0.008277444,-0.04172256,0.1,0.19989125,0.09989125,0.5,0.48583087,-0.014169127,0.0,0.06690599,0.06690599,0.2,0.30081603,0.10081603,0.1,0.101114705,0.0011147037,0.05,0.021715308,-0.028284693,0.5,0.51993793,0.019937932,0.5,1.0119839,0.5119839
2459,0.1,0.10171012,0.0017101169,0.2,0.21044329,0.010443285,0.1,0.21379651,0.11379651,0.05,0.049298607,-0.00070139393,0.05,0.009427487,-0.040572513,0.2,0.10025801,-0.099741995,0.5,0.49969184,-0.000308156,0.0,0.052498065,0.052498065,0.3,0.29032296,-0.0096770525,0.1,0.09468282,-0.0053171813,0.02,0.046025723,0.026025724,1.0,0.49698937,-0.50301063,0.5,0.9516001,0.45160007
9246,1.05,0.0944721,-0.95552784,0.2,0.24795023,0.047950223,0.3,0.21065606,-0.08934395,0.05,0.04779734,-0.0022026598,0.01,0.00979175,-0.00020824932,0.1,0.09085469,-0.009145312,0.5,0.4933713,-0.006628692,0.0,0.03353241,0.03353241,0.3,0.20823428,-0.09176573,0.1,0.09775849,-0.0022415146,0.05,0.016136507,-0.033863492,0.5,0.97219545,0.47219545,1.0,0.974226,-0.025774002
9869,1.05,1.9027487,0.85274875,0.2,0.034203522,-0.16579649,0.3,0.10476522,-0.19523479,0.1,0.07481937,-0.02518063,0.01,0.009930972,-6.902777e-05,0.2,0.18755887,-0.0124411285,0.5,0.942614,0.44261402,0.0,0.04957083,0.04957083,0.2,0.20354624,0.003546238,0.1,0.09734259,-0.0026574135,0.05,0.046821192,-0.0031788088,0.5,0.51405025,0.014050245,0.5,0.9861877,0.4861877
9539,1.05,1.8796687,0.82966876,0.2,0.08737101,-0.112629,0.3,0.30434164,0.004341632,0.05,0.052142162,0.0021421611,0.05,0.009677869,-0.040322132,0.1,0.09519628,-0.0048037246,1.0,0.47942376,-0.52057624,0.0,0.038116828,0.038116828,0.2,0.30090803,0.100908026,0.05,0.049341828,-0.0006581731,0.02,0.049785115,0.029785115,1.0,0.9748329,-0.025167108,0.5,0.49935848,-0.0006415248
12637,2.0,1.8414301,-0.15856993,0.0,0.35228658,0.35228658,0.1,0.11781838,0.017818376,0.05,0.0768548,0.026854802,0.05,0.04651021,-0.0034897923,0.1,0.10469453,0.004694529,1.0,0.5974629,-0.4025371,0.0,0.07104111,0.07104111,0.3,0.20704563,-0.09295438,0.1,0.049827836,-0.050172165,0.05,0.045639217,-0.004360784,0.5,0.514655,0.014654994,0.5,0.964301,0.464301
9053,1.05,0.9121575,-0.13784248,0.2,0.24866238,0.04866238,0.1,0.26907462,0.16907462,0.1,0.086825445,-0.013174556,0.05,0.046195887,-0.0038041137,0.1,0.19265312,0.09265312,1.0,0.96918523,-0.030814767,0.0,0.04816257,0.04816257,0.3,0.29676828,-0.003231734,0.1,0.049594056,-0.050405946,0.05,0.02185969,-0.02814031,0.5,0.9425168,0.4425168,0.5,0.9440714,0.4440714
17543,2.0,0.21264032,-1.7873597,0.4,0.16721778,-0.23278223,0.3,0.16288315,-0.13711686,0.05,0.09290282,0.042902816,0.01,0.040393304,0.030393304,0.2,0.10197623,-0.09802377,0.5,0.89453983,0.39453983,0.0,0.04276859,0.04276859,0.2,0.21353628,0.013536274,0.05,0.050536662,0.0005366616,0.05,0.048132848,-0.0018671528,1.0,0.96218807,-0.037811935,0.5,0.93824244,0.43824244
5624,0.1,0.0407021,-0.0592979,0.4,0.18771502,-0.21228498,0.3,0.17972359,-0.12027642,0.05,0.050317593,0.00031759217,0.05,0.008175261,-0.04182474,0.2,0.096145906,-0.1038541,1.0,1.041517,0.04151702,0.1,0.026637375,-0.073362626,0.3,0.19446298,-0.10553703,0.05,0.049121,-0.0008790009,0.05,0.019285232,-0.030714769,1.0,0.4927745,-0.5072255,1.0,0.9687242,-0.03127581
3103,0.1,0.1270757,0.0270757,0.2,0.2950319,0.0950319,0.3,0.2444479,-0.05555211,0.05,0.044999667,-0.0050003342,0.01,0.008862309,-0.0011376906,0.1,0.18482742,0.084827416,0.5,0.7032625,0.20326251,0.0,0.047646508,0.047646508,0.3,0.19840817,-0.10159184,0.1,0.09303142,-0.00696858,0.05,0.01996702,-0.030032981,1.0,0.9724315,-0.02756852,0.5,0.64358145,0.14358145
6864,1.05,1.8921406,0.8421407,0.0,0.09220958,0.09220958,0.1,0.08847422,-0.01152578,0.1,0.08015698,-0.01984302,0.01,0.04823426,0.038234264,0.2,0.1988204,-0.0011796057,1.0,0.9840832,-0.015916824,0.0,0.099251404,0.099251404,0.2,0.20661367,0.006613672,0.1,0.057064664,-0.042935338,0.05,0.044699546,-0.005300455,1.0,0.955484,-0.044516027,1.0,0.95391977,-0.04608023
12538,2.0,0.002021088,-1.9979789,0.0,0.2138565,0.2138565,0.1,0.25428483,0.15428483,0.05,0.09603909,0.046039086,0.01,0.052343253,0.04234325,0.2,0.19945529,-0.00054471195,1.0,0.66109914,-0.33890086,0.1,0.052694988,-0.047305014,0.3,0.20191318,-0.098086834,0.1,0.097847246,-0.0021527559,0.02,0.047435224,0.027435225,0.5,0.9782965,0.47829652,1.0,0.51048666,-0.48951334
12877,2.0,1.8061395,-0.19386053,0.0,0.012584317,0.012584317,0.1,0.29575467,0.19575468,0.1,0.081140034,-0.018859968,0.01,0.010995243,0.000995243,0.1,0.116088286,0.016088285,1.0,0.8011737,-0.19882631,0.0,0.0665128,0.0665128,0.2,0.20499456,0.0049945563,0.1,0.050294716,-0.049705286,0.05,0.047968276,-0.002031725,0.5,0.96452284,0.46452284,0.5,0.52425665,0.024256647
12919,2.0,1.7546699,-0.2453301,0.0,0.2359323,0.2359323,0.1,0.105796106,0.0057961047,0.1,0.045195993,-0.05480401,0.01,0.009845676,-0.00015432388,0.1,0.11189173,0.01189173,1.0,0.8400216,-0.15997839,0.1,0.033931486,-0.066068515,0.3,0.20162158,-0.098378435,0.05,0.09674778,0.046747778,0.05,0.046348885,-0.003651116,1.0,0.5065676,-0.4934324,0.5,0.97143316,0.47143316
6631,1.05,1.9344312,0.88443124,0.0,0.039420422,0.039420422,0.1,0.28652117,0.18652117,0.05,0.08548072,0.03548072,0.05,0.009155241,-0.04084476,0.2,0.097831644,-0.10216836,1.0,0.5175176,-0.48248237,0.1,0.053916253,-0.04608375,0.2,0.29959714,0.09959714,0.05,0.09684231,0.04684231,0.05,0.047309443,-0.0026905574,1.0,0.9637894,-0.036210597,0.5,0.97479874,0.47479874
6308,1.05,1.8853364,0.83533645,0.0,0.04229504,0.04229504,0.1,0.28772283,0.18772283,0.05,0.07475324,0.024753239,0.01,0.047596034,0.037596032,0.2,0.105415344,-0.09458466,0.5,0.62627745,0.12627745,0.1,0.057189364,-0.042810638,0.2,0.29886186,0.09886186,0.05,0.048629127,-0.0013708733,0.02,0.020497993,0.0004979931,1.0,0.48552042,-0.5144796,1.0,0.9671508,-0.032849193
10248,1.05,0.1053629,-0.94463706,0.4,0.19465151,-0.20534849,0.1,0.20422702,0.104227014,0.05,0.09792062,0.04792062,0.01,0.012609985,0.002609985,0.1,0.10121079,0.0012107864,0.5,0.9633677,0.4633677,0.0,0.057940476,0.057940476,0.2,0.2023262,0.0023261905,0.05,0.049199328,-0.0008006729,0.05,0.049225662,-0.00077433884,1.0,0.9641611,-0.035838902,1.0,0.50789255,-0.49210745
9513,1.05,2.083349,1.033349,0.2,0.4336956,0.23369561,0.3,0.30423516,0.0042351484,0.05,0.068138294,0.018138293,0.05,0.009902713,-0.04009729,0.1,0.12668672,0.02668672,0.5,0.50473875,0.004738748,0.1,0.0058714645,-0.094128534,0.2,0.2926341,0.0926341,0.1,0.09835826,-0.0016417429,0.02,0.04792111,0.02792111,0.5,0.5228771,0.022877097,0.5,0.5075527,0.0075526834
8878,1.05,1.4328548,0.38285482,0.2,0.25879198,0.05879198,0.1,0.20443024,0.104430236,0.1,0.07462995,-0.025370054,0.01,0.046572924,0.036572926,0.2,0.184189,-0.015810996,0.5,0.52533674,0.025336742,0.1,-0.009048444,-0.10904845,0.2,0.19704925,-0.0029507577,0.1,0.050179165,-0.049820837,0.05,0.0496114,-0.00038859993,0.5,0.9707944,0.47079438,1.0,0.959468,-0.040531993
12800,2.0,1.0123534,-0.9876466,0.0,0.26406702,0.26406702,0.1,0.28516802,0.18516803,0.05,0.08605087,0.036050867,0.05,0.011824817,-0.038175184,0.2,0.18510719,-0.014892817,1.0,0.98828447,-0.011715531,0.1,0.048813563,-0.05118644,0.3,0.29472622,-0.005273789,0.1,0.09654203,-0.003457971,0.05,0.018648613,-0.031351388,1.0,0.9648067,-0.035193324,1.0,0.5044105,-0.4955895
7811,1.05,1.9315957,0.88159573,0.0,0.36492223,0.36492223,0.3,0.29477856,-0.0052214563,0.1,0.093099475,-0.0069005266,0.01,0.04911596,0.039115958,0.2,0.19684339,-0.0031566173,0.5,0.9399147,0.4399147,0.0,0.07599445,0.07599445,0.2,0.3036094,0.1036094,0.05,0.04717326,-0.002826739,0.02,0.050799478,0.030799478,1.0,0.5010793,-0.49892068,0.5,0.99368024,0.49368024
9237,1.05,1.9306179,0.880618,0.2,0.2699614,0.069961384,0.3,0.080151744,-0.21984828,0.05,0.060129512,0.010129511,0.01,0.048760965,0.038760968,0.1,0.09518094,-0.004819058,0.5,0.9983463,0.49834633,0.0,0.031166231,0.031166231,0.3,0.2937948,-0.006205201,0.05,0.06224984,0.012249839,0.05,0.043781474,-0.0062185265,0.5,0.46466744,-0.03533256,0.5,1.0071514,0.50715137
11794,1.05,0.021333013,-1.028667,0.4,0.18347023,-0.21652977,0.3,0.19767524,-0.10232477,0.1,0.04625217,-0.053747833,0.01,0.020826824,0.010826824,0.1,0.09975981,-0.00024019182,0.5,0.5079126,0.007912576,0.0,0.05188158,0.05188158,0.3,0.29546964,-0.0045303702,0.05,0.04835964,-0.0016403608,0.02,0.018574549,-0.0014254507,0.5,0.9887468,0.48874682,1.0,0.9904019,-0.009598076
15293,2.0,1.9046282,-0.09537184,0.2,0.034351487,-0.16564852,0.1,0.2921894,0.1921894,0.1,0.07015801,-0.02984199,0.05,0.009512598,-0.0404874,0.2,0.2037642,0.0037641972,0.5,1.0003393,0.50033927,0.1,0.052390747,-0.047609255,0.3,0.2005413,-0.09945871,0.1,0.048840206,-0.051159795,0.05,0.05001382,1.3820827e-05,0.5,0.99100137,0.49100137,0.5,0.9944244,0.4944244
2280,0.1,1.8271955,1.7271955,0.2,0.09962573,-0.100374274,0.1,0.29802617,0.19802618,0.05,0.05457463,0.0045746304,0.01,0.009228926,-0.0007710736,0.2,0.11803845,-0.08196155,1.0,0.93280554,-0.06719446,0.1,0.03526675,-0.06473325,0.2,0.29726008,0.09726007,0.05,0.09441842,0.04441842,0.05,0.044105265,-0.0058947355,1.0,0.49445832,-0.5055417,1.0,0.51256335,-0.48743665
5029,0.1,1.0050509,0.9050509,0.4,0.23895697,-0.16104303,0.1,0.28038225,0.18038225,0.1,0.086420394,-0.013579607,0.05,0.013633424,-0.036366574,0.2,0.100052156,-0.09994785,0.5,0.96703005,0.46703005,0.1,0.068215236,-0.031784765,0.2,0.291506,0.09150599,0.05,0.096029975,0.046029974,0.05,0.021059858,-0.028940143,0.5,0.94900775,0.44900775,0.5,0.95165825,0.45165825
17098,2.0,0.33790863,-1.6620914,0.4,0.2208244,-0.1791756,0.1,0.10173402,0.0017340183,0.1,0.050694536,-0.049305465,0.01,0.01509668,0.0050966805,0.2,0.106750965,-0.09324904,1.0,0.92825663,-0.07174337,0.0,0.07535405,0.07535405,0.2,0.26822317,0.06822316,0.1,0.05222988,-0.04777012,0.02,0.03034826,0.01034826,0.5,0.89607245,0.39607245,1.0,0.50540024,-0.49459976
14674,2.0,0.13580623,-1.8641938,0.2,0.19963555,-0.0003644526,0.1,0.20128459,0.101284586,0.05,0.052110128,0.0021101274,0.05,0.01494042,-0.03505958,0.1,0.1914392,0.091439195,1.0,0.49552298,-0.504477,0.0,0.031013409,0.031013409,0.3,0.29896644,-0.0010335743,0.05,0.09749532,0.047495317,0.02,0.022856643,0.0028566439,0.5,0.50982296,0.009822965,1.0,0.9762391,-0.023760915
10650,1.05,0.110158704,-0.9398413,0.4,0.21066132,-0.18933868,0.1,0.17073356,0.070733555,0.05,0.09837039,0.048370387,0.05,0.048443154,-0.0015568472,0.2,0.103107415,-0.09689259,0.5,0.5181346,0.018134594,0.0,0.043122817,0.043122817,0.3,0.19143029,-0.10856973,0.1,0.05196508,-0.04803492,0.02,0.0458774,0.025877401,0.5,0.5023166,0.0023165941,1.0,1.008744,0.008744001
6146,1.05,0.07776258,-0.97223735,0.0,0.2201035,0.2201035,0.1,0.21759617,0.11759617,0.05,0.1009558,0.0509558,0.01,0.04559011,0.035590112,0.1,0.1950396,0.0950396,0.5,0.4979505,-0.0020495057,0.0,0.046544034,0.046544034,0.2,0.20332636,0.0033263564,0.05,0.04689105,-0.0031089522,0.02,0.05052688,0.03052688,0.5,0.96265596,0.46265596,1.0,0.9775547,-0.022445321
16889,2.0,0.3073334,-1.6926665,0.4,0.23848781,-0.1615122,0.1,0.1555195,0.0555195,0.05,0.055493377,0.0054933764,0.05,0.04574934,-0.0042506605,0.2,0.16357687,-0.03642313,1.0,0.92100143,-0.078998566,0.1,0.06026407,-0.039735932,0.3,0.20370838,-0.09629163,0.1,0.09291313,-0.007086873,0.02,0.0447661,0.024766099,0.5,0.9467082,0.4467082,0.5,0.5085596,0.008559585
6897,1.05,2.0160704,0.9660704,0.0,0.2277313,0.2277313,0.1,0.30571976,0.20571977,0.1,0.06779665,-0.032203354,0.01,0.009994857,-5.1427633e-06,0.2,0.09671636,-0.10328364,1.0,0.4606993,-0.5393007,0.1,0.04436154,-0.055638462,0.3,0.30135754,0.0013575256,0.05,0.098595165,0.048595164,0.02,0.0479418,0.0279418,0.5,0.9701908,0.47019082,0.5,0.9881815,0.48818147
2609,0.1,2.0074668,1.9074668,0.2,0.38653335,0.18653335,0.1,0.30812007,0.20812008,0.1,0.06878463,-0.03121537,0.01,0.047181655,0.037181653,0.1,0.10224958,0.0022495762,0.5,0.5364512,0.03645122,0.1,0.05620976,-0.04379024,0.3,0.2969807,-0.003019303,0.05,0.04898659,-0.0010134093,0.02,0.020993808,0.0009938087,0.5,0.47912753,-0.020872474,0.5,0.9856118,0.4856118
2994,0.1,1.9676647,1.8676647,0.2,0.09088836,-0.109111644,0.1,0.08838467,-0.0116153285,0.1,0.09567155,-0.004328452,0.05,0.049371913,-0.00062808767,0.2,0.09722059,-0.10277941,0.5,0.56310797,0.06310797,0.1,0.06449397,-0.035506032,0.3,0.19943179,-0.10056822,0.05,0.09607038,0.04607038,0.02,0.017142553,-0.0028574467,0.5,0.50232583,0.0023258328,1.0,0.99469304,-0.005306959
352,0.1,1.167475,1.067475,0.0,0.37365562,0.37365562,0.1,0.101768695,0.0017686933,0.05,0.059170872,0.009170871,0.05,0.047196683,-0.0028033182,0.1,0.12953357,0.029533572,1.0,0.87309146,-0.12690854,0.0,0.0005586952,0.0005586952,0.3,0.20519885,-0.09480116,0.1,0.050125856,-0.049874146,0.05,0.05095561,0.00095560774,1.0,0.51524955,-0.48475045,1.0,0.5094194,-0.49058062
5269,0.1,1.7507508,1.6507508,0.4,0.06916654,-0.33083346,0.3,0.17831855,-0.12168147,0.05,0.0641819,0.014181901,0.01,0.0114489915,0.0014489917,0.2,0.12980609,-0.07019392,0.5,0.5457148,0.045714796,0.0,0.013296241,0.013296241,0.3,0.20423841,-0.0957616,0.05,0.09342264,0.043422636,0.05,0.020410094,-0.029589906,0.5,0.9358857,0.43588573,0.5,0.514495,0.014495015
13278,2.0,1.1637824,-0.83621764,0.0,0.29446262,0.29446262,0.1,0.30909595,0.20909595,0.1,0.06550558,-0.034494422,0.05,0.01060236,-0.039397642,0.2,0.1047117,-0.09528831,1.0,1.0260501,0.02605009,0.0,0.060497038,0.060497038,0.3,0.30008346,8.34465e-05,0.1,0.050697345,-0.049302656,0.05,0.049021352,-0.0009786487,0.5,0.4964832,-0.0035167933,1.0,0.49689674,-0.50310326
9620,1.05,0.7130424,-0.33695757,0.2,0.28705984,0.08705984,0.3,0.29468825,-0.0053117573,0.05,0.06306045,0.013060447,0.05,0.047434684,-0.0025653169,0.2,0.10713142,-0.09286858,0.5,0.9862866,0.48628658,0.0,0.048735213,0.048735213,0.3,0.19997378,-0.100026235,0.05,0.047843598,-0.002156403,0.02,0.019032542,-0.0009674579,1.0,0.47695804,-0.52304196,1.0,0.51204807,-0.48795193
2137,0.1,1.0570986,0.9570986,0.2,0.3701919,0.1701919,0.1,0.32747528,0.22747529,0.05,0.07089812,0.020898122,0.01,0.008920672,-0.0010793274,0.1,0.09600236,-0.003997639,1.0,0.9836453,-0.01635468,0.0,0.038638398,0.038638398,0.3,0.30147898,0.00147897,0.1,0.050581314,-0.049418688,0.02,0.020668246,0.0006682463,0.5,0.5011748,0.0011748075,0.5,0.49827313,-0.0017268658
17256,2.0,0.08000683,-1.9199932,0.4,0.22080283,-0.17919718,0.1,0.21185522,0.11185522,0.1,0.09694077,-0.0030592307,0.05,0.039764922,-0.010235079,0.1,0.1881167,0.0881167,1.0,0.50314945,-0.49685055,0.1,0.038950697,-0.061049305,0.2,0.29140857,0.091408566,0.05,0.09611467,0.046114672,0.05,0.046002667,-0.0039973333,1.0,0.95830566,-0.041694343,1.0,0.9504882,-0.04951179
8497,1.05,0.9124205,-0.13757944,0.2,0.23639545,0.036395445,0.1,0.29774153,0.19774154,0.05,0.06666888,0.016668882,0.05,0.009591557,-0.040408444,0.1,0.15575328,0.055753283,0.5,1.0016088,0.50160885,0.1,0.039974943,-0.06002506,0.3,0.29890412,-0.001095891,0.05,0.049968224,-3.1776726e-05,0.02,0.020613477,0.0006134771,0.5,0.97665584,0.47665584,0.5,0.50243676,0.002436757
14378,2.0,1.1140553,-0.8859447,0.2,0.17857026,-0.021429747,0.1,0.1040588,0.0040588006,0.05,0.058982432,0.008982431,0.01,0.010587463,0.0005874634,0.1,0.10496093,0.004960932,0.5,0.94952226,0.44952226,0.1,0.050945412,-0.04905459,0.2,0.201865,0.0018649995,0.1,0.09639699,-0.0036030114,0.02,0.04631298,0.02631298,0.5,0.96473414,0.46473414,1.0,0.96049446,-0.03950554
12718,2.0,1.7791377,-0.22086227,0.0,0.22421114,0.22421114,0.1,0.10689318,0.0068931803,0.05,0.093057804,0.043057803,0.05,0.009184961,-0.04081504,0.2,0.104530394,-0.09546961,0.5,0.47395185,-0.026048154,0.1,0.05740138,-0.04259862,0.2,0.19986054,-0.00013945997,0.1,0.05021,-0.049790002,0.05,0.022016836,-0.027983164,0.5,0.9690815,0.46908152,1.0,0.9684346,-0.031565428
8675,1.05,0.14716095,-0.902839,0.2,0.18265752,-0.017342478,0.1,0.1898371,0.0898371,0.05,0.095588684,0.045588683,0.05,0.04934127,-0.0006587319,0.2,0.10120237,-0.098797634,1.0,0.90377295,-0.09622705,0.1,0.04198869,-0.058011312,0.2,0.26347885,0.06347884,0.05,0.09736372,0.047363717,0.02,0.020297568,0.00029756874,1.0,0.50973904,-0.49026096,0.5,0.54826677,0.04826677
8538,1.05,0.07553514,-0.97446483,0.2,0.18402563,-0.015974373,0.1,0.1897324,0.0897324,0.05,0.09724596,0.04724596,0.05,0.014750916,-0.035249084,0.1,0.19506624,0.09506624,1.0,0.49678892,-0.5032111,0.0,0.04266299,0.04266299,0.3,0.20639777,-0.09360224,0.1,0.098835066,-0.0011649355,0.02,0.047773562,0.027773563,0.5,0.5100275,0.010027528,1.0,0.97289276,-0.027107239
11153,1.05,1.1325322,0.08253229,0.4,0.034887057,-0.36511296,0.1,0.28095406,0.18095407,0.1,0.07642184,-0.02357816,0.05,0.011038975,-0.038961027,0.2,0.1820028,-0.017997205,0.5,0.5011927,0.001192689,0.0,0.049459957,0.049459957,0.3,0.29600462,-0.0039953887,0.05,0.049385775,-0.00061422586,0.02,0.048310433,0.028310433,0.5,0.51723814,0.01723814,0.5,0.9595854,0.45958543
425,0.1,0.08898576,-0.011014238,0.0,0.2128777,0.2128777,0.1,0.22819853,0.12819853,0.05,0.09551953,0.045519527,0.05,0.049553767,-0.0004462339,0.2,0.1937271,-0.006272897,0.5,0.6120509,0.11205089,0.1,0.053878922,-0.04612108,0.2,0.20272462,0.0027246177,0.1,0.097290754,-0.0027092472,0.02,0.019440502,-0.0005594976,0.5,0.9683517,0.46835172,0.5,0.5853759,0.085375905
15215,2.0,1.8748363,-0.12516367,0.2,0.07840497,-0.12159503,0.1,0.28583527,0.18583527,0.1,0.055137765,-0.044862237,0.05,0.010059566,-0.039940435,0.1,0.10172887,0.00172887,1.0,0.98334295,-0.016657054,0.1,0.041634165,-0.058365837,0.2,0.2970302,0.09703021,0.1,0.049094804,-0.050905198,0.05,0.02003367,-0.02996633,1.0,0.97218424,-0.02781576,0.5,0.9718218,0.47182178
9239,1.05,-0.0567059,-1.1067059,0.2,0.22698459,0.026984587,0.3,0.19022791,-0.1097721,0.05,0.048487972,-0.0015120283,0.01,0.012225271,0.0022252714,0.1,0.10111809,0.0011180863,0.5,0.98309755,0.48309755,0.0,0.049920738,0.049920738,0.3,0.29148242,-0.008517593,0.05,0.04868013,-0.0013198704,0.05,0.01935428,-0.03064572,1.0,0.97176695,-0.028233051,0.5,0.97411263,0.47411263
6109,0.1,0.19349648,0.09349648,0.4,0.15159039,-0.24840961,0.3,0.16165051,-0.1383495,0.1,0.09485645,-0.005143553,0.05,0.024242358,-0.025757642,0.2,0.10261798,-0.097382024,1.0,0.96761274,-0.032387257,0.0,0.054079376,0.054079376,0.3,0.19886665,-0.10113336,0.1,0.049626667,-0.050373334,0.05,0.047973827,-0.0020261742,0.5,0.49543706,-0.004562944,0.5,0.50245553,0.0024555326
274,0.1,1.9224087,1.8224087,0.0,0.3878604,0.3878604,0.1,0.10530544,0.0053054392,0.05,0.073508225,0.023508225,0.05,0.04734474,-0.0026552603,0.1,0.1368608,0.0368608,0.5,0.8190017,0.31900167,0.0,0.05716107,0.05716107,0.3,0.30876473,0.008764714,0.05,0.0966652,0.046665203,0.02,0.017200151,-0.002799848,0.5,0.5022783,0.002278328,1.0,0.5012353,-0.4987647
10330,1.05,0.090882055,-0.9591179,0.4,0.19271305,-0.20728695,0.1,0.20522131,0.10522131,0.05,0.08895712,0.038957123,0.01,0.043151494,0.033151492,0.1,0.10388259,0.003882587,1.0,0.49388587,-0.5061141,0.0,0.04386184,0.04386184,0.3,0.2913414,-0.008658618,0.1,0.049202483,-0.05079752,0.02,0.020912861,0.0009128619,0.5,0.48303124,-0.016968757,1.0,0.9359578,-0.06404221
15075,2.0,0.041265767,-1.9587343,0.2,0.22870675,0.028706744,0.1,0.117266655,0.017266653,0.1,0.047648657,-0.052351344,0.01,0.010853212,0.00085321255,0.2,0.09684561,-0.10315439,1.0,0.6197335,-0.3802665,0.1,0.06063851,-0.03936149,0.2,0.1977977,-0.0022023022,0.05,0.060433216,0.010433216,0.02,0.035643604,0.015643604,1.0,0.9877856,-0.012214422,0.5,0.4890091,-0.010990888
5996,0.1,-0.0019914026,-0.10199141,0.4,0.16744371,-0.2325563,0.3,0.14271814,-0.15728188,0.1,0.10082688,0.00082688034,0.05,0.006480478,-0.043519523,0.1,0.097787835,-0.0022121668,1.0,0.4805339,-0.5194661,0.1,0.045506157,-0.054493845,0.2,0.2960114,0.096011385,0.1,0.09886354,-0.0011364594,0.02,0.019617956,-0.00038204342,1.0,0.98925185,-0.010748148,1.0,0.9950811,-0.0049188733
17744,2.0,0.8905886,-1.1094115,0.4,0.21309379,-0.18690622,0.3,0.28686425,-0.013135761,0.05,0.06629324,0.016293239,0.05,0.0093528805,-0.04064712,0.1,0.1952802,0.09528019,1.0,0.53839433,-0.46160567,0.0,0.04547909,0.04547909,0.2,0.29256585,0.09256585,0.1,0.04984839,-0.050151613,0.05,0.021215057,-0.028784944,1.0,0.5131826,-0.48681742,1.0,0.4834111,-0.5165889
1711,0.1,0.15521657,0.055216573,0.0,0.17353062,0.17353062,0.3,0.14747332,-0.15252669,0.1,0.09878019,-0.001219809,0.01,0.009970139,-2.9860996e-05,0.2,0.10311635,-0.096883655,0.5,0.81373876,0.31373876,0.1,0.050088573,-0.04991143,0.2,0.28384414,0.08384414,0.1,0.05322048,-0.04677952,0.05,0.0367754,-0.013224602,1.0,0.9951703,-0.0048297048,0.5,0.59637,0.09636998
3116,0.1,1.8821793,1.7821792,0.2,0.23382755,0.033827543,0.3,0.2895089,-0.010491103,0.05,0.08347441,0.03347441,0.01,0.009903583,-9.641703e-05,0.1,0.10569005,0.0056900457,0.5,0.8626521,0.36265212,0.1,0.05634887,-0.04365113,0.2,0.20411031,0.0041103065,0.1,0.053591948,-0.046408053,0.02,0.048430175,0.028430175,1.0,0.4905184,-0.5094816,1.0,0.9681049,-0.0318951
17012,2.0,0.18505032,-1.8149496,0.4,0.21141636,-0.18858364,0.1,0.20628794,0.106287934,0.1,0.0984499,-0.0015501007,0.01,0.044128906,0.034128904,0.1,0.10026326,0.00026325881,1.0,0.8435544,-0.15644562,0.1,0.04073857,-0.05926143,0.3,0.20186615,-0.09813386,0.05,0.049533647,-0.0004663542,0.02,0.02002775,2.7749687e-05,1.0,0.5113344,-0.48866558,1.0,0.7325117,-0.2674883
16813,2.0,1.9536213,-0.04637873,0.4,0.053288393,-0.3467116,0.1,0.09524982,-0.0047501847,0.05,0.063989714,0.013989713,0.05,0.049786452,-0.00021354854,0.2,0.09955778,-0.10044222,0.5,1.0051185,0.5051185,0.1,0.086624235,-0.013375767,0.2,0.30026132,0.100261316,0.1,0.098375686,-0.001624316,0.05,0.018130137,-0.031869866,0.5,0.96468097,0.46468097,0.5,0.9814522,0.48145223
16998,2.0,1.769421,-0.23057902,0.4,0.06554981,-0.3344502,0.1,0.17078815,0.07078815,0.1,0.061149467,-0.038850535,0.01,0.010820352,0.00082035176,0.1,0.16137688,0.061376877,1.0,0.9053266,-0.094673395,0.1,0.043891393,-0.05610861,0.2,0.20396078,0.0039607733,0.05,0.09695573,0.04695573,0.05,0.04802924,-0.0019707605,0.5,0.5075416,0.007541597,1.0,0.538112,-0.46188802
1420,0.1,1.1323439,1.0323439,0.0,0.3891552,0.3891552,0.3,0.10261103,-0.19738898,0.05,0.09023447,0.040234473,0.05,0.008387149,-0.041612852,0.2,0.20039666,0.000396654,0.5,0.89184415,0.39184415,0.0,0.059999734,0.059999734,0.2,0.20234646,0.002346456,0.1,0.098261945,-0.0017380565,0.02,0.04846126,0.028461259,1.0,0.96242034,-0.037579656,1.0,0.9660951,-0.03390491
4900,0.1,0.06802196,-0.03197804,0.4,0.16281609,-0.23718391,0.1,0.19048262,0.090482615,0.1,0.09691788,-0.003082119,0.05,0.0077298884,-0.042270113,0.1,0.19476779,0.09476779,0.5,0.49208662,-0.007913381,0.1,0.042779937,-0.057220064,0.2,0.20287836,0.002878353,0.05,0.098952495,0.048952494,0.02,0.048057735,0.028057735,1.0,0.5080479,-0.49195212,1.0,0.979743,-0.020256996
8117,1.05,1.8213141,0.77131414,0.0,0.3099458,0.3099458,0.3,0.29381362,-0.006186396,0.1,0.061050642,-0.03894936,0.05,0.012789181,-0.03721082,0.2,0.11507906,-0.08492094,0.5,0.6183257,0.11832571,0.1,0.04296825,-0.05703175,0.3,0.1994807,-0.100519314,0.05,0.04964242,-0.00035757944,0.05,0.048992302,-0.0010076985,0.5,0.4990064,-0.0009936094,0.5,0.51180136,0.011801362
6351,1.05,-0.108091645,-1.1580915,0.0,0.22679536,0.22679536,0.1,0.19347644,0.09347644,0.05,0.046671152,-0.0033288486,0.01,0.041877866,0.031877868,0.2,0.094127364,-0.10587264,1.0,0.45932397,-0.540676,0.0,0.060554236,0.060554236,0.2,0.30264542,0.10264541,0.1,0.097686805,-0.0023131967,0.05,0.049679313,-0.0003206879,1.0,0.48373795,-0.51626205,0.5,0.45839882,-0.04160118
2406,0.1,0.9903151,0.89031506,0.2,0.03875686,-0.16124314,0.1,0.11592154,0.01592154,0.05,0.08735388,0.037353877,0.05,0.010322714,-0.039677285,0.1,0.10233649,0.0023364872,1.0,0.48873666,-0.5112634,0.1,0.03929595,-0.060704052,0.2,0.30129063,0.10129063,0.05,0.05174758,0.0017475784,0.05,0.0485384,-0.001461599,0.5,0.51181877,0.011818767,1.0,0.97690535,-0.023094654
17557,2.0,0.09721938,-1.9027807,0.4,0.16691281,-0.2330872,0.3,0.18044728,-0.11955273,0.05,0.09427319,0.044273186,0.01,0.04689487,0.036894873,0.2,0.12645853,-0.07354148,0.5,0.955075,0.45507503,0.0,0.05092759,0.05092759,0.3,0.20155084,-0.09844917,0.05,0.094353095,0.044353094,0.05,0.04488059,-0.0051194094,0.5,0.9449301,0.44493008,0.5,0.9352495,0.4352495
5972,0.1,1.8329362,1.7329361,0.4,0.07122466,-0.32877535,0.3,0.10461911,-0.1953809,0.1,0.06974031,-0.030259691,0.05,0.011221946,-0.038778055,0.1,0.099135086,-0.00086491555,1.0,0.87908477,-0.120915234,0.0,0.026641797,0.026641797,0.3,0.20233959,-0.09766042,0.05,0.05594765,0.0059476495,0.02,0.047477797,0.027477797,1.0,0.9751918,-0.024808228,1.0,0.9859498,-0.014050186
9265,1.05,0.15288378,-0.8971162,0.2,0.1740707,-0.025929302,0.3,0.23104252,-0.06895749,0.05,0.047383122,-0.0026168786,0.01,0.026323967,0.016323967,0.1,0.10112025,0.001120247,0.5,0.5544602,0.054460227,0.1,0.05414583,-0.04585417,0.3,0.20443079,-0.09556922,0.05,0.048716426,-0.0012835748,0.02,0.020277254,0.00027725473,0.5,0.9568433,0.45684332,0.5,0.9446224,0.4446224
4623,0.1,0.12865916,0.028659157,0.4,0.22258005,-0.17741996,0.1,0.20869042,0.10869042,0.1,0.05227364,-0.047726363,0.01,0.048407067,0.038407065,0.1,0.19993967,0.09993967,0.5,0.99191874,0.49191874,0.0,0.037115354,0.037115354,0.2,0.20469213,0.0046921223,0.1,0.04638713,-0.053612873,0.05,0.048195824,-0.0018041767,1.0,0.96418834,-0.035811663,0.5,0.9672892,0.4672892
17798,2.0,0.17487645,-1.8251235,0.4,0.2306309,-0.1693691,0.3,0.17246813,-0.12753189,0.05,0.051018603,0.0010186024,0.05,0.011316764,-0.038683236,0.2,0.19130488,-0.008695126,0.5,0.98682034,0.48682034,0.0,0.033404905,0.033404905,0.2,0.20355245,0.0035524517,0.05,0.09761826,0.04761826,0.05,0.047873605,-0.0021263957,0.5,0.9427924,0.44279242,1.0,0.5191376,-0.48086238
9193,1.05,0.98098385,-0.0690161,0.2,0.17590773,-0.024092272,0.1,0.10204897,0.0020489693,0.1,0.072181426,-0.027818576,0.05,0.011362953,-0.03863705,0.2,0.102594234,-0.09740577,1.0,0.9590912,-0.040908813,0.1,0.053227615,-0.046772387,0.2,0.30134824,0.101348236,0.1,0.05091522,-0.049084783,0.02,0.048288815,0.028288815,0.5,0.96685857,0.46685857,0.5,0.5248182,0.024818182
8914,1.05,0.13679707,-0.9132029,0.2,0.17347243,-0.026527569,0.1,0.22966012,0.12966013,0.1,0.047769006,-0.052230995,0.01,0.044777412,0.03477741,0.2,0.09892063,-0.101079375,1.0,0.97647166,-0.023528337,0.0,0.03671281,0.03671281,0.3,0.19363946,-0.106360555,0.05,0.04902962,-0.00097038224,0.02,0.019860735,-0.00013926439,0.5,0.9708983,0.47089827,1.0,0.9764675,-0.02353251
10616,1.05,1.9670801,0.91708016,0.4,0.35069454,-0.04930547,0.1,0.30540332,0.20540333,0.05,0.08158278,0.031582776,0.05,0.008660408,-0.04133959,0.1,0.17029151,0.07029151,1.0,0.47775856,-0.5222415,0.1,0.035760343,-0.06423966,0.3,0.2946862,-0.0053138137,0.05,0.09842694,0.048426937,0.05,0.048793394,-0.0012066066,1.0,0.47811866,-0.52188134,1.0,0.9899697,-0.010030329
13204,2.0,0.9800656,-1.0199344,0.0,0.21464834,0.21464834,0.1,0.09771368,-0.0022863224,0.1,0.091307856,-0.008692145,0.05,0.04787942,-0.0021205805,0.2,0.10211764,-0.09788236,0.5,0.95233357,0.45233357,0.0,0.065195955,0.065195955,0.3,0.19969974,-0.10030027,0.05,0.049214978,-0.000785023,0.02,0.04770342,0.02770342,1.0,0.95345455,-0.046545446,1.0,0.9649213,-0.035078704
6070,0.1,1.0719597,0.9719597,0.4,0.16751145,-0.23248856,0.3,0.27104586,-0.028954148,0.1,0.06306891,-0.03693109,0.05,0.011793056,-0.038206946,0.2,0.17711483,-0.022885174,0.5,0.79800457,0.29800457,0.1,0.040180493,-0.05981951,0.3,0.20329079,-0.09670922,0.05,0.09574638,0.045746382,0.05,0.045685496,-0.0043145046,0.5,0.52034545,0.02034545,1.0,0.50939214,-0.49060786
14854,2.0,0.04040703,-1.9595929,0.2,0.14365113,-0.056348875,0.1,0.118980944,0.018980943,0.1,0.05051332,-0.04948668,0.01,0.042114876,0.03211488,0.1,0.099652424,-0.00034757704,0.5,0.9562546,0.4562546,0.0,0.03383375,0.03383375,0.2,0.29729792,0.09729792,0.05,0.09254037,0.042540368,0.05,0.019187536,-0.030812465,0.5,0.45601106,-0.043988943,1.0,0.9272033,-0.0727967
5863,0.1,0.9358306,0.83583057,0.4,0.17865483,-0.22134517,0.3,0.2931825,-0.0068175197,0.1,0.053152006,-0.046847995,0.01,0.00877386,-0.0012261402,0.2,0.19737664,-0.0026233643,1.0,0.50199574,-0.49800426,0.1,0.049057387,-0.050942615,0.2,0.29372635,0.09372635,0.05,0.048947416,-0.0010525845,0.05,0.019983772,-0.030016229,1.0,0.5229132,-0.47708678,0.5,0.9726266,0.47262663
17373,2.0,0.979638,-1.020362,0.4,0.27571085,-0.124289155,0.1,0.28104928,0.18104929,0.1,0.06819397,-0.03180603,0.05,0.047699943,-0.0023000576,0.2,0.19726615,-0.0027338564,1.0,0.9889221,-0.011077881,0.0,0.038915984,0.038915984,0.3,0.298727,-0.0012730062,0.1,0.04898471,-0.05101529,0.05,0.020169524,-0.029830476,0.5,0.9461516,0.4461516,0.5,0.957585,0.45758498
4446,0.1,0.13660231,0.03660231,0.4,0.1884917,-0.2115083,0.1,0.19319157,0.09319157,0.05,0.07353191,0.02353191,0.05,0.03234745,-0.017652553,0.1,0.19156173,0.09156173,1.0,0.50795436,-0.49204564,0.0,0.04085777,0.04085777,0.3,0.2896639,-0.010336101,0.1,0.04952345,-0.05047655,0.05,0.020866957,-0.029133044,0.5,0.5136797,0.013679683,1.0,0.954719,-0.045280993
3785,0.1,0.13424286,0.03424286,0.2,0.19994275,-5.725026e-05,0.3,0.21308789,-0.086912125,0.1,0.096373126,-0.0036268756,0.01,0.009617107,-0.0003828928,0.2,0.123484194,-0.07651581,1.0,0.9689642,-0.03103578,0.0,0.045988835,0.045988835,0.2,0.21610142,0.01610142,0.1,0.09647697,-0.0035230294,0.02,0.020754632,0.00075463206,0.5,0.96032065,0.46032065,0.5,0.942624,0.44262397
8142,1.05,1.9033743,0.85337436,0.0,0.21472934,0.21472934,0.3,0.09435052,-0.2056495,0.1,0.08185292,-0.018147081,0.05,0.046896145,-0.003103856,0.2,0.101763174,-0.09823683,1.0,0.9379889,-0.062011123,0.0,0.09526868,0.09526868,0.2,0.29311892,0.09311892,0.1,0.09742864,-0.0025713593,0.05,0.04763871,-0.0023612902,0.5,0.9491042,0.4491042,1.0,0.9609339,-0.039066076
16858,2.0,1.2083111,-0.7916889,0.4,0.09465595,-0.30534405,0.1,0.10181302,0.0018130168,0.05,0.0742548,0.024254803,0.05,0.010238545,-0.039761454,0.2,0.17297545,-0.027024552,1.0,0.5176529,-0.48234707,0.0,0.05739993,0.05739993,0.3,0.20203476,-0.097965255,0.1,0.04933878,-0.05066122,0.02,0.049750626,0.029750627,0.5,0.9521761,0.4521761,1.0,0.94612104,-0.053878963
3976,0.1,2.0121017,1.9121016,0.2,0.41164184,0.21164183,0.3,0.28633952,-0.0136604905,0.1,0.073560074,-0.026439928,0.05,0.009494302,-0.0405057,0.2,0.19819108,-0.0018089265,0.5,0.49651578,-0.0034842193,0.0,0.045779876,0.045779876,0.2,0.2000165,1.6495585e-05,0.05,0.05050543,0.00050542876,0.05,0.04919696,-0.0008030422,1.0,0.52930015,-0.47069985,1.0,0.98880476,-0.011195242
10108,1.05,0.08775837,-0.9622416,0.2,0.22772689,0.027726889,0.3,0.20512386,-0.094876155,0.1,0.09804774,-0.0019522607,0.05,0.039875317,-0.010124683,0.1,0.19190875,0.091908745,1.0,0.48910615,-0.5108938,0.1,0.041294087,-0.058705915,0.3,0.3013383,0.0013382733,0.1,0.095906675,-0.0040933266,0.02,0.022153776,0.0021537766,1.0,0.96520054,-0.034799457,1.0,0.96128035,-0.038719654
13438,2.0,1.0399944,-0.96000564,0.0,0.23427443,0.23427443,0.3,0.099090524,-0.2009095,0.05,0.07468054,0.024680536,0.01,0.04789011,0.037890114,0.1,0.10173459,0.001734592,1.0,0.97105145,-0.028948545,0.1,0.015654683,-0.08434532,0.3,0.29289138,-0.0071086287,0.1,0.09315369,-0.0068463087,0.05,0.02043083,-0.029569171,0.5,0.94853485,0.44853485,1.0,0.95575,-0.04425001
10202,1.05,0.19768901,-0.85231096,0.2,0.145012,-0.054987997,0.3,0.23418164,-0.06581837,0.1,0.051896006,-0.048103996,0.05,0.047130976,-0.0028690249,0.2,0.10121125,-0.09878875,1.0,0.84130263,-0.15869737,0.0,0.027791316,0.027791316,0.3,0.23532577,-0.06467424,0.1,0.08657921,-0.01342079,0.02,0.02954921,0.00954921,0.5,0.9464273,0.4464273,1.0,0.50881475,-0.49118525
9567,1.05,1.1061034,0.056103468,0.2,0.32476267,0.12476267,0.3,0.28777477,-0.0122252405,0.05,0.09314742,0.04314742,0.05,0.014912466,-0.035087533,0.1,0.18912001,0.08912001,1.0,0.49596468,-0.50403535,0.0,0.046653837,0.046653837,0.3,0.2958333,-0.0041667223,0.1,0.04916521,-0.05083479,0.05,0.05027017,0.00027016923,1.0,0.50956255,-0.49043745,0.5,0.51375365,0.013753653
9098,1.05,1.9086963,0.85869634,0.2,0.08817841,-0.11182159,0.1,0.29507318,0.19507319,0.1,0.067610405,-0.032389596,0.05,0.047815885,-0.0021841154,0.2,0.10444051,-0.09555949,0.5,0.5255445,0.025544524,0.0,0.063688785,0.063688785,0.2,0.2969793,0.096979305,0.1,0.050444275,-0.049555726,0.02,0.020359544,0.00035954453,0.5,0.5086782,0.008678198,1.0,0.4916791,-0.5083209
12482,2.0,0.20187975,-1.7981203,0.0,0.13241556,0.13241556,0.1,0.17087707,0.07087707,0.05,0.05500705,0.005007051,0.01,0.008799411,-0.0012005884,0.2,0.10167452,-0.09832548,1.0,0.4742384,-0.5257616,0.0,0.038687743,0.038687743,0.2,0.28864753,0.08864753,0.05,0.09637916,0.04637916,0.02,0.0212848,0.0012848005,0.5,0.5197843,0.019784272,1.0,0.9738823,-0.026117682
1145,0.1,1.8506417,1.7506417,0.0,0.36480305,0.36480305,0.3,0.10415169,-0.19584832,0.05,0.08106776,0.031067763,0.01,0.011153929,0.0011539292,0.1,0.19284782,0.09284782,1.0,0.5591252,-0.44087481,0.1,0.04837462,-0.051625382,0.3,0.29312286,-0.006877154,0.1,0.099270776,-0.0007292256,0.02,0.021085322,0.0010853224,0.5,0.52923834,0.029238343,0.5,0.97257817,0.47257817
14365,2.0,0.9073349,-1.0926651,0.2,0.29233336,0.09233336,0.1,0.080544315,-0.019455686,0.05,0.07578948,0.02578948,0.01,0.051736698,0.0417367,0.1,0.09573717,-0.004262835,0.5,1.0390201,0.53902006,0.0,0.07470499,0.07470499,0.3,0.2979117,-0.0020883083,0.1,0.04937889,-0.05062111,0.05,0.05204745,0.0020474494,0.5,1.0051596,0.5051596,0.5,1.0244513,0.52445126
7075,1.05,0.99431425,-0.0556857,0.0,0.31899256,0.31899256,0.1,0.10170706,0.0017070621,0.1,0.07052664,-0.029473364,0.05,0.012064446,-0.037935555,0.2,0.17733788,-0.022662118,0.5,0.97189903,0.47189903,0.1,0.029969793,-0.07003021,0.2,0.20770614,0.0077061355,0.05,0.04883101,-0.0011689924,0.02,0.021082781,0.0010827817,1.0,0.5174466,-0.48255342,0.5,0.51327705,0.013277054
12851,2.0,0.9118362,-1.0881639,0.0,0.24399117,0.24399117,0.1,0.27938977,0.17938977,0.1,0.08636745,-0.013632551,0.01,0.04633815,0.03633815,0.1,0.19217555,0.09217555,0.5,0.5041665,0.004166484,0.1,0.05737557,-0.042624433,0.3,0.20273308,-0.09726693,0.05,0.092100255,0.042100254,0.02,0.020693865,0.0006938651,1.0,0.9347641,-0.06523591,0.5,0.92872953,0.42872953
3942,0.1,0.05393234,-0.046067663,0.2,0.18639308,-0.013606921,0.3,0.20689894,-0.09310107,0.1,0.09569703,-0.004302971,0.05,0.048233308,-0.0017666928,0.1,0.19276543,0.09276543,1.0,0.99406075,-0.005939245,0.1,0.056386434,-0.043613568,0.2,0.20615245,0.006152451,0.05,0.051229097,0.0012290962,0.05,0.046614554,-0.003385447,0.5,0.9678638,0.4678638,1.0,0.51505035,-0.48494965
14979,2.0,1.7606915,-0.23930848,0.2,0.060724754,-0.13927525,0.1,0.10168884,0.001688838,0.1,0.054887176,-0.045112826,0.01,0.047811273,0.03781127,0.2,0.10134856,-0.09865145,0.5,0.9713987,0.4713987,0.0,0.070077755,0.070077755,0.2,0.21017842,0.010178417,0.05,0.09436832,0.044368323,0.02,0.044943962,0.024943963,1.0,0.944204,-0.055796027,0.5,0.93005466,0.43005466
15239,2.0,0.16644432,-1.8335557,0.2,0.18815465,-0.01184535,0.1,0.16629109,0.06629109,0.1,0.049187128,-0.050812874,0.05,0.008909857,-0.041090146,0.2,0.096854836,-0.10314517,0.5,0.48609242,-0.013907582,0.0,0.034294408,0.034294408,0.2,0.20675275,0.0067527443,0.05,0.09656761,0.046567608,0.05,0.018913029,-0.031086972,1.0,0.49219942,-0.5078006,0.5,0.95612234,0.45612234
14939,2.0,1.977964,-0.022035956,0.2,0.025818214,-0.17418179,0.1,0.29190296,0.19190297,0.1,0.06480783,-0.03519217,0.01,0.009606303,-0.00039369706,0.1,0.1699725,0.06997249,1.0,0.9703897,-0.029610276,0.0,0.0498527,0.0498527,0.3,0.30263683,0.00263682,0.1,0.0496083,-0.0503917,0.02,0.050211437,0.030211437,1.0,0.5164367,-0.4835633,0.5,0.98188126,0.48188126
5551,0.1,0.18415798,0.08415798,0.4,0.16340768,-0.23659232,0.3,0.10908338,-0.19091663,0.05,0.048589505,-0.0014104955,0.05,0.009476561,-0.04052344,0.2,0.0974682,-0.102531806,0.5,0.5431676,0.04316759,0.1,0.03715419,-0.06284581,0.2,0.2386493,0.03864929,0.1,0.048846174,-0.051153827,0.05,0.017982112,-0.032017887,1.0,0.4850548,-0.5149452,0.5,0.46215892,-0.03784108
5342,0.1,0.17549485,0.07549485,0.4,0.19474703,-0.20525298,0.3,0.2002895,-0.09971051,0.05,0.056839712,0.006839711,0.01,0.019303579,0.009303579,0.2,0.19410309,-0.005896911,1.0,0.5042219,-0.49577808,0.0,0.04361635,0.04361635,0.3,0.29145482,-0.00854519,0.1,0.050734222,-0.04926578,0.05,0.021197073,-0.028802928,0.5,0.5212852,0.021285176,1.0,0.9768932,-0.023106813
706,0.1,1.06208,0.96208,0.0,0.11864273,0.11864273,0.1,0.102470204,0.0024702027,0.1,0.06666321,-0.03333679,0.01,0.012063425,0.0020634253,0.2,0.19142349,-0.008576512,1.0,0.94929385,-0.05070615,0.0,0.06808023,0.06808023,0.2,0.20376004,0.0037600398,0.05,0.051149003,0.0011490025,0.02,0.04809128,0.028091282,0.5,0.9770214,0.4770214,1.0,0.49462253,-0.5053775
13671,2.0,0.07393295,-1.926067,0.0,0.20016643,0.20016643,0.3,0.23517768,-0.06482233,0.05,0.04783742,-0.0021625794,0.05,0.009367018,-0.04063298,0.1,0.09628283,-0.0037171692,1.0,1.0186557,0.018655658,0.1,0.030698424,-0.069301575,0.2,0.19554335,-0.004456654,0.05,0.049630746,-0.0003692545,0.05,0.020267792,-0.029732209,1.0,0.5004026,-0.49959737,0.5,0.94512725,0.44512725
2299,0.1,0.031856265,-0.06814374,0.2,0.09938212,-0.100617886,0.1,0.2242162,0.12421619,0.05,0.049122836,-0.0008771643,0.01,0.047041465,0.037041463,0.2,0.0963629,-0.1036371,1.0,0.6635248,-0.3364752,0.1,0.04767757,-0.052322432,0.3,0.2797949,-0.02020511,0.1,0.097473785,-0.0025262162,0.02,0.048087817,0.028087817,1.0,0.6090763,-0.39092368,0.5,0.50224334,0.00224334
3844,0.1,1.0814475,0.98144746,0.2,0.16363445,-0.036365554,0.3,0.09446427,-0.20553574,0.1,0.06354568,-0.03645432,0.05,0.048408624,-0.001591377,0.1,0.1807948,0.080794804,0.5,0.9884367,0.4884367,0.0,0.04093652,0.04093652,0.2,0.30127686,0.10127686,0.05,0.09497039,0.04497039,0.02,0.017524503,-0.0024754964,1.0,0.49306542,-0.5069346,1.0,0.49064052,-0.5093595
4857,0.1,0.14060019,0.040600188,0.4,0.21066472,-0.18933529,0.1,0.21726832,0.11726832,0.1,0.09602431,-0.0039756894,0.01,0.04896184,0.038961843,0.2,0.19626312,-0.0037368834,1.0,0.9940469,-0.0059530735,0.1,0.053264417,-0.046735585,0.3,0.20245844,-0.09754157,0.1,0.09680623,-0.0031937733,0.02,0.018992865,-0.0010071341,0.5,0.51396006,0.013960063,0.5,0.53108096,0.031080961
4105,0.1,0.08118507,-0.018814929,0.4,0.19114517,-0.20885484,0.1,0.2225002,0.1225002,0.05,0.09704603,0.04704603,0.01,0.013135302,0.003135302,0.1,0.19590321,0.09590321,0.5,0.492283,-0.0077170134,0.0,0.046933558,0.046933558,0.2,0.20685233,0.006852329,0.1,0.047538683,-0.05246132,0.02,0.019933486,-6.6513196e-05,0.5,0.97120935,0.47120935,0.5,0.49082083,-0.009179175
16834,2.0,1.8870616,-0.112938404,0.4,0.255148,-0.14485201,0.1,0.29016608,0.19016609,0.05,0.068193845,0.018193845,0.05,0.010281766,-0.039718233,0.2,0.09905212,-0.10094789,1.0,1.0000699,6.9856644e-05,0.0,0.04549723,0.04549723,0.2,0.29797396,0.09797396,0.05,0.049163483,-0.00083651766,0.02,0.019693995,-0.00030600466,0.5,0.98025304,0.48025304,1.0,0.98894334,-0.011056662
17260,2.0,1.9910144,-0.008985639,0.4,0.4197573,0.0197573,0.1,0.094725944,-0.0052740574,0.1,0.0852002,-0.0147998035,0.05,0.049067017,-0.00093298405,0.1,0.19127676,0.09127676,1.0,0.50250673,-0.49749327,0.1,0.044695877,-0.055304125,0.2,0.3028687,0.10286869,0.1,0.100345686,0.0003456846,0.02,0.019930685,-6.9314614e-05,1.0,1.0060186,0.0060186386,1.0,1.0020231,0.0020231009
14063,2.0,0.115337774,-1.8846623,0.0,0.19880696,0.19880696,0.3,0.2280736,-0.071926415,0.1,0.097139895,-0.0028601065,0.01,0.050843477,0.04084348,0.2,0.101725474,-0.09827453,1.0,0.89670694,-0.10329306,0.1,0.053104162,-0.04689584,0.2,0.28614062,0.08614062,0.1,0.09612119,-0.0038788095,0.05,0.046602536,-0.0033974648,1.0,0.95676476,-0.043235242,0.5,0.96988046,0.46988046
13968,2.0,1.0877204,-0.9122796,0.0,0.045819353,0.045819353,0.3,0.09894547,-0.20105454,0.1,0.057764284,-0.042235717,0.01,0.04876525,0.03876525,0.2,0.19395883,-0.006041169,0.5,0.5195946,0.01959461,0.0,0.05473876,0.05473876,0.2,0.30087274,0.10087274,0.1,0.045322105,-0.054677896,0.05,0.049164854,-0.00083514675,1.0,0.48640192,-0.5135981,1.0,0.9714724,-0.028527617
6409,1.05,0.09700273,-0.9529972,0.0,0.21301961,0.21301961,0.1,0.23429342,0.1342934,0.05,0.09583638,0.045836378,0.05,0.03664666,-0.01335334,0.1,0.1939996,0.0939996,0.5,0.9930849,0.4930849,0.0,0.043007888,0.043007888,0.2,0.19675444,-0.0032455623,0.1,0.047947086,-0.052052915,0.02,0.019216832,-0.0007831678,0.5,0.98104805,0.48104805,0.5,0.96576035,0.46576035
15149,2.0,0.14192057,-1.8580794,0.2,0.20586565,0.0058656484,0.1,0.19264023,0.09264023,0.1,0.051124178,-0.048875824,0.05,0.030651782,-0.019348219,0.1,0.19080135,0.09080135,0.5,0.49681053,-0.0031894743,0.1,0.032776445,-0.06722356,0.2,0.29828098,0.09828098,0.1,0.0958847,-0.0041152984,0.05,0.021847863,-0.028152138,0.5,0.50021785,0.00021785498,0.5,0.95807314,0.45807314
15461,2.0,0.9968397,-1.0031602,0.2,0.28246912,0.08246912,0.3,0.29472637,-0.00527364,0.05,0.07157807,0.02157807,0.01,0.012830314,0.0028303144,0.1,0.15117368,0.05117368,1.0,0.55345607,-0.44654393,0.1,0.027370501,-0.0726295,0.2,0.2982187,0.098218694,0.05,0.09907886,0.049078856,0.05,0.048301924,-0.0016980767,0.5,0.9694282,0.46942818,0.5,0.4986716,-0.0013284087
1769,0.1,1.2284092,1.1284091,0.0,0.14016387,0.14016387,0.3,0.28023586,-0.019764155,0.1,0.06555421,-0.034445792,0.01,0.048394147,0.038394146,0.2,0.1695735,-0.030426502,1.0,0.55627614,-0.44372386,0.1,0.021166533,-0.07883347,0.2,0.29740354,0.09740354,0.1,0.09893014,-0.0010698587,0.02,0.04825509,0.02825509,0.5,0.5003845,0.00038450956,0.5,0.5084598,0.008459806
8951,1.05,0.07698326,-0.9730167,0.2,0.21008809,0.010088086,0.1,0.25515896,0.15515897,0.1,0.04718317,-0.05281683,0.01,0.04736616,0.03736616,0.2,0.20025924,0.0002592355,1.0,1.0000979,9.787083e-05,0.1,0.03878052,-0.06121948,0.3,0.2922585,-0.007741511,0.05,0.046743967,-0.003256034,0.05,0.019309172,-0.030690828,1.0,0.4920503,-0.5079497,0.5,0.5063738,0.0063738227
8426,1.05,0.83377254,-0.21622741,0.2,0.08014734,-0.11985266,0.1,0.30723032,0.20723033,0.05,0.04097814,-0.00902186,0.01,0.047606487,0.037606485,0.2,0.19938293,-0.000617072,1.0,0.6020522,-0.3979478,0.1,0.047096927,-0.052903075,0.2,0.29848412,0.098484114,0.1,0.09290723,-0.007092774,0.02,0.020143164,0.00014316477,0.5,0.48504,-0.014959991,1.0,0.46071324,-0.53928673
16080,2.0,0.037313525,-1.9626864,0.2,0.20741045,0.007410452,0.3,0.20733818,-0.09266183,0.1,0.09762998,-0.0023700222,0.01,0.013623021,0.0036230208,0.2,0.20007655,7.6547265e-05,1.0,0.48464188,-0.5153581,0.0,0.044441946,0.044441946,0.2,0.3009937,0.10099371,0.1,0.098176494,-0.0018235072,0.05,0.04801873,-0.0019812696,1.0,0.96619266,-0.033807337,1.0,0.48737755,-0.5126225
7223,1.05,0.16207634,-0.8879236,0.0,0.20857842,0.20857842,0.3,0.1785146,-0.12148541,0.05,0.047158368,-0.0028416328,0.01,0.010170812,0.00017081201,0.1,0.1014868,0.0014868006,0.5,0.947482,0.447482,0.1,0.021878826,-0.07812118,0.3,0.19970798,-0.10029203,0.05,0.088967994,0.038967993,0.05,0.017681086,-0.032318912,1.0,0.93070716,-0.06929284,0.5,0.89182436,0.39182436
9877,1.05,1.9491435,0.8991436,0.2,0.36612192,0.16612191,0.3,0.10375544,-0.19624457,0.1,0.073562175,-0.026437826,0.01,0.009601961,-0.0003980389,0.2,0.1922849,-0.007715106,0.5,0.5124076,0.012407601,0.0,0.036558293,0.036558293,0.3,0.29755494,-0.002445072,0.05,0.049080018,-0.0009199828,0.05,0.020148829,-0.029851172,0.5,0.5147772,0.0147771835,0.5,1.0032853,0.5032853
4227,0.1,0.9458411,0.84584105,0.4,0.31294528,-0.08705473,0.1,0.10003776,3.7759542e-05,0.05,0.08335729,0.03335729,0.01,0.04928153,0.039281532,0.2,0.186706,-0.013293996,0.5,0.49975488,-0.0002451241,0.0,0.02670979,0.02670979,0.2,0.29833683,0.09833683,0.05,0.09686686,0.04686686,0.02,0.019959832,-4.0167943e-05,1.0,0.51414174,-0.48585826,0.5,0.98439205,0.48439205
17796,2.0,0.102486946,-1.897513,0.4,0.2052526,-0.1947474,0.3,0.22184357,-0.07815644,0.05,0.09964419,0.04964419,0.05,0.048939705,-0.0010602959,0.2,0.19325754,-0.0067424625,0.5,0.48641387,-0.013586134,0.0,0.04576055,0.04576055,0.2,0.19718151,-0.002818495,0.05,0.09706397,0.047063973,0.02,0.046903975,0.026903976,1.0,0.9599803,-0.04001969,1.0,0.96103346,-0.038966537
5529,0.1,0.08705212,-0.01294788,0.4,0.20433769,-0.19566232,0.3,0.19871399,-0.101286024,0.05,0.096879795,0.046879794,0.05,0.05131145,0.0013114475,0.2,0.100063756,-0.09993625,0.5,0.72001106,0.22001106,0.0,0.048292715,0.048292715,0.3,0.26199526,-0.038004756,0.1,0.09784478,-0.002155222,0.02,0.019777376,-0.00022262335,0.5,0.98143834,0.48143834,0.5,0.5001647,0.00016468763
16593,2.0,2.0313373,0.03133726,0.4,0.35824698,-0.041753024,0.1,0.30425128,0.20425129,0.05,0.07831403,0.028314028,0.01,0.04734808,0.037348077,0.2,0.105559684,-0.09444032,1.0,0.5265885,-0.4734115,0.0,0.0327198,0.0327198,0.3,0.3022928,0.002292782,0.05,0.095869735,0.045869734,0.02,0.0208155,0.0008154996,0.5,0.50012517,0.00012516975,0.5,0.4990742,-0.00092580914
937,0.1,0.080470644,-0.019529358,0.0,0.17141055,0.17141055,0.1,0.16727401,0.06727401,0.1,0.05163593,-0.048364073,0.05,0.044763707,-0.005236294,0.2,0.10802617,-0.091973834,0.5,0.835259,0.33525902,0.1,0.07257087,-0.027429134,0.2,0.25121254,0.051212534,0.1,0.08277244,-0.01722756,0.02,0.03067827,0.010678271,0.5,0.9145838,0.4145838,0.5,0.5149458,0.014945805
5542,0.1,0.9647624,0.86476237,0.4,0.2782306,-0.1217694,0.3,0.103120506,-0.1968795,0.05,0.071066305,0.021066304,0.05,0.04780896,-0.0021910407,0.2,0.18640201,-0.013597995,0.5,0.49717465,-0.0028253496,0.1,0.03831767,-0.061682332,0.2,0.2955135,0.09551351,0.05,0.095594145,0.045594145,0.05,0.021900404,-0.028099597,0.5,0.9606627,0.46066272,1.0,0.95527107,-0.044728935
8399,1.05,1.0023713,-0.04762864,0.2,0.29167682,0.09167682,0.1,0.2950363,0.19503629,0.05,0.06893518,0.018935177,0.01,0.047598194,0.037598193,0.2,0.1089227,-0.091077305,1.0,0.5714061,-0.42859387,0.0,0.06080507,0.06080507,0.2,0.20074885,0.00074884295,0.1,0.04896201,-0.051037993,0.05,0.02042402,-0.029575981,1.0,0.49654058,-0.50345945,0.5,0.50341475,0.00341475
16044,2.0,1.0182414,-0.9817586,0.2,0.24487922,0.044879213,0.3,0.27902266,-0.020977348,0.1,0.081763126,-0.018236876,0.01,0.045210447,0.035210446,0.2,0.1034857,-0.0965143,0.5,0.9384546,0.43845463,0.1,0.07617127,-0.02382873,0.2,0.2929189,0.09291889,0.1,0.0952066,-0.004793398,0.02,0.046880994,0.026880994,1.0,0.93688405,-0.063115954,1.0,0.92645216,-0.07354784
9858,1.05,0.96577454,-0.084225416,0.2,0.23806961,0.038069606,0.3,0.31346545,0.013465434,0.1,0.06786863,-0.032131374,0.01,0.009798731,-0.00020126905,0.2,0.098667026,-0.10133298,0.5,0.9807397,0.4807397,0.0,0.040511936,0.040511936,0.2,0.3005713,0.10057129,0.05,0.049482077,-0.0005179234,0.02,0.020038204,3.8204715e-05,0.5,0.50598264,0.0059826374,1.0,0.5039282,-0.49607182
252,0.1,0.89644253,0.7964425,0.0,0.22406921,0.22406921,0.1,0.26774713,0.16774714,0.05,0.06427117,0.014271166,0.01,0.011695406,0.0016954066,0.2,0.17719369,-0.022806317,1.0,0.7782876,-0.22171241,0.1,0.04524542,-0.05475458,0.3,0.29273388,-0.007266134,0.1,0.0931823,-0.0068176985,0.02,0.04440287,0.024402872,1.0,0.50088036,-0.49911964,1.0,0.5113919,-0.48860812
12182,1.05,0.012622962,-1.037377,0.4,0.20723614,-0.19276386,0.3,0.2190324,-0.080967605,0.1,0.098678194,-0.0013218075,0.05,0.023843661,-0.02615634,0.2,0.20332423,0.0033242255,0.5,1.0493559,0.54935586,0.0,0.046798725,0.046798725,0.3,0.299646,-0.0003540218,0.05,0.04970364,-0.00029636174,0.05,0.019964565,-0.030035436,0.5,1.0001981,0.5001981,1.0,0.9948411,-0.005158901
3573,0.1,1.9233713,1.8233713,0.2,0.060496904,-0.13950309,0.3,0.089271545,-0.21072847,0.05,0.06374673,0.013746727,0.05,0.05048321,0.0004832074,0.2,0.18602717,-0.013972834,1.0,0.48178062,-0.51821935,0.1,0.04334337,-0.056656633,0.3,0.30150527,0.0015052557,0.05,0.09898773,0.048987728,0.05,0.05047453,0.00047452748,0.5,0.50994337,0.009943366,0.5,1.0098226,0.5098226
12434,2.0,1.914703,-0.08529699,0.0,0.22944269,0.22944269,0.1,0.28960678,0.18960679,0.05,0.06016005,0.010160048,0.01,0.009566117,-0.0004338827,0.2,0.14913692,-0.050863087,0.5,0.7737292,0.2737292,0.0,0.036487006,0.036487006,0.3,0.2962185,-0.0037814975,0.05,0.09606536,0.046065357,0.02,0.020266734,0.0002667345,0.5,0.9634966,0.46349663,1.0,0.9775272,-0.022472799
11126,1.05,1.8270923,0.77709234,0.4,0.27871305,-0.12128696,0.1,0.09475009,-0.00524991,0.1,0.06968799,-0.03031201,0.05,0.047546577,-0.002453424,0.1,0.19053139,0.09053139,1.0,1.0003191,0.00031912327,0.1,0.029631436,-0.070368566,0.3,0.20297913,-0.09702088,0.05,0.04951523,-0.00048477203,0.05,0.04911046,-0.0008895397,0.5,0.4949556,-0.0050444007,1.0,0.9767989,-0.023201108
15958,2.0,1.1214731,-0.8785269,0.2,0.12770998,-0.07229002,0.3,0.27837053,-0.021629483,0.1,0.08166806,-0.018331945,0.01,0.04682263,0.036822632,0.1,0.19479276,0.09479276,1.0,0.5044774,-0.49552262,0.0,0.046671286,0.046671286,0.3,0.29604515,-0.0039548576,0.05,0.048840873,-0.0011591278,0.05,0.01965142,-0.03034858,0.5,0.48829156,-0.011708438,1.0,0.9714527,-0.028547287
5901,0.1,1.8428205,1.7428205,0.4,0.06313269,-0.33686733,0.3,0.14219366,-0.15780635,0.1,0.06466271,-0.03533729,0.05,0.046384584,-0.0036154166,0.1,0.102195546,0.0021955445,0.5,0.5455079,0.045507908,0.0,0.03703246,0.03703246,0.2,0.20074849,0.0007484853,0.1,0.09634012,-0.0036598817,0.05,0.048400246,-0.0015997551,0.5,0.5237353,0.023735285,0.5,0.48186767,-0.018132329
4280,0.1,0.062089734,-0.037910268,0.4,0.17449251,-0.2255075,0.1,0.20071949,0.10071949,0.05,0.04961682,-0.00038317963,0.01,0.009492494,-0.0005075056,0.2,0.19076085,-0.009239152,0.5,0.519585,0.019585013,0.1,0.040851757,-0.059148245,0.3,0.29488108,-0.0051189363,0.05,0.047310468,-0.002689533,0.05,0.04897886,-0.0010211393,1.0,0.94878834,-0.051211655,1.0,0.47110346,-0.5288966
5039,0.1,0.119439825,0.019439824,0.4,0.17040345,-0.22959656,0.1,0.19595683,0.095956825,0.1,0.09734,-0.0026599988,0.05,0.03851615,-0.011483852,0.2,0.1700594,-0.029940605,0.5,0.98722327,0.48722327,0.1,0.049563404,-0.050436597,0.2,0.21414764,0.014147639,0.1,0.049490187,-0.050509814,0.05,0.019677544,-0.030322457,1.0,0.97646916,-0.02353084,0.5,0.5020699,0.0020698905
7810,1.05,1.9051098,0.8551098,0.0,0.35696673,0.35696673,0.3,0.10503728,-0.19496274,0.1,0.086047344,-0.013952658,0.01,0.010190964,0.00019096397,0.2,0.17974095,-0.020259053,0.5,0.55328447,0.053284466,0.0,0.017328978,0.017328978,0.2,0.20180549,0.0018054843,0.05,0.05223471,0.0022347085,0.02,0.020535221,0.00053522177,0.5,0.961953,0.46195298,1.0,0.51903594,-0.48096406
17839,2.0,1.8445808,-0.15541923,0.4,0.11185207,-0.28814793,0.3,0.27571824,-0.02428177,0.05,0.0724784,0.022478398,0.05,0.047783926,-0.0022160746,0.2,0.1770207,-0.022979304,0.5,0.812112,0.31211197,0.1,0.019080848,-0.080919154,0.2,0.20739377,0.0073937625,0.1,0.09709128,-0.0029087216,0.05,0.046578355,-0.0034216456,1.0,0.9737813,-0.026218712,0.5,0.5409606,0.04096061
8146,1.05,1.7041376,0.6541376,0.0,0.2681402,0.2681402,0.3,0.10479713,-0.19520289,0.1,0.06103635,-0.038963653,0.05,0.045734473,-0.004265528,0.2,0.14206207,-0.057937935,1.0,0.6606228,-0.33937722,0.0,0.02322515,0.02322515,0.3,0.2078948,-0.09210521,0.05,0.050666608,0.0006666072,0.02,0.04759286,0.02759286,0.5,0.9479107,0.44791073,1.0,0.5178823,-0.4821177
17622,2.0,0.14793085,-1.8520691,0.4,0.1552648,-0.24473521,0.3,0.28418538,-0.015814632,0.05,0.050706603,0.0007066019,0.01,0.046750773,0.03675077,0.2,0.10244127,-0.09755873,1.0,0.8986161,-0.101383924,0.0,0.069592,0.069592,0.3,0.27784812,-0.022151887,0.05,0.08275055,0.03275055,0.05,0.034953173,-0.0150468275,0.5,0.94298154,0.44298154,1.0,0.49896702,-0.50103295
8371,1.05,1.8926772,0.84267724,0.2,0.013368592,-0.18663141,0.1,0.10236508,0.002365075,0.05,0.07481365,0.024813648,0.01,0.009446931,-0.0005530687,0.2,0.20045924,0.0004592389,0.5,0.9871576,0.48715758,0.1,0.041805916,-0.058194086,0.3,0.3038964,0.0038963854,0.05,0.04979754,-0.00020246208,0.02,0.021722188,0.0017221887,1.0,0.5056387,-0.49436128,0.5,0.5408681,0.040868104
7022,1.05,0.9598618,-0.09013814,0.0,0.037397273,0.037397273,0.1,0.10509739,0.005097389,0.1,0.063807055,-0.036192946,0.05,0.009839527,-0.040160473,0.1,0.13133597,0.031335972,1.0,0.92392826,-0.07607174,0.1,0.05197438,-0.048025623,0.2,0.20174326,0.001743257,0.1,0.04961265,-0.050387353,0.05,0.020203797,-0.029796204,0.5,0.971163,0.47116297,1.0,0.49987793,-0.5001221
248,0.1,1.90963,1.8096299,0.0,0.12076356,0.12076356,0.1,0.28530595,0.18530595,0.05,0.07239565,0.022395652,0.01,0.04723792,0.03723792,0.2,0.20491347,0.004913464,1.0,0.96541226,-0.03458774,0.1,0.028085154,-0.07191485,0.3,0.20181835,-0.098181665,0.05,0.049100354,-0.00089964643,0.05,0.049689684,-0.00031031668,1.0,0.97989714,-0.020102859,1.0,0.97526705,-0.024732947
14982,2.0,0.115697816,-1.8843021,0.2,0.19206934,-0.007930666,0.1,0.22212093,0.122120924,0.1,0.052920185,-0.047079816,0.01,0.04677902,0.036779024,0.2,0.13511889,-0.064881116,0.5,0.7464279,0.2464279,0.0,0.05106411,0.05106411,0.2,0.2585711,0.058571085,0.05,0.09413867,0.044138666,0.05,0.023597784,-0.026402216,0.5,0.94498456,0.44498456,1.0,0.48486114,-0.51513886
58,0.1,0.12559861,0.025598608,0.0,0.22373588,0.22373588,0.1,0.10901726,0.009017259,0.05,0.04997703,-2.297014e-05,0.01,0.049397975,0.039397977,0.1,0.09725366,-0.0027463436,0.5,0.4981926,-0.0018073916,0.1,0.03882611,-0.06117389,0.3,0.20812024,-0.09187977,0.1,0.051305495,-0.048694506,0.02,0.049181286,0.029181287,0.5,0.49353272,-0.006467283,1.0,0.5034037,-0.49659628
12215,1.05,1.8286453,0.7786454,0.4,0.15276149,-0.24723852,0.3,0.27813524,-0.021864772,0.1,0.080560155,-0.019439846,0.05,0.047681827,-0.0023181736,0.2,0.12757044,-0.07242957,0.5,0.6642254,0.1642254,0.1,0.01671544,-0.08328456,0.3,0.20450819,-0.09549183,0.05,0.096091405,0.046091404,0.05,0.046786655,-0.003213346,1.0,0.95820045,-0.041799545,0.5,0.51606846,0.016068459
3972,0.1,0.1352117,0.035211705,0.2,0.21761239,0.017612383,0.3,0.18959332,-0.1104067,0.1,0.04853592,-0.05146408,0.05,0.009598997,-0.040401004,0.2,0.18942262,-0.010577381,0.5,0.9716444,0.4716444,0.0,0.034666434,0.034666434,0.2,0.20103233,0.0010323226,0.05,0.09507616,0.045076158,0.02,0.04553871,0.025538709,1.0,0.49906117,-0.50093883,1.0,0.96680415,-0.033195853
12850,2.0,0.03747219,-1.9625278,0.0,0.18729478,0.18729478,0.1,0.18017425,0.080174245,0.1,0.05864959,-0.041350413,0.01,0.010894155,0.00089415535,0.1,0.14745304,0.04745304,0.5,0.91074026,0.41074026,0.1,0.026379466,-0.073620535,0.3,0.27794892,-0.022051096,0.05,0.09373627,0.043736268,0.02,0.046219613,0.026219614,0.5,0.9375001,0.43750012,1.0,0.5033077,-0.4966923
981,0.1,0.9826484,0.88264835,0.0,0.28595263,0.28595263,0.1,0.104530275,0.0045302734,0.1,0.083959825,-0.016040176,0.05,0.012247617,-0.037752382,0.2,0.18533403,-0.014665976,1.0,1.0270681,0.027068138,0.0,0.0505633,0.0505633,0.3,0.29725274,-0.0027472675,0.05,0.050636522,0.0006365217,0.05,0.02123285,-0.02876715,0.5,0.50683695,0.006836951,0.5,0.50339895,0.0033989549
16146,2.0,0.18371886,-1.8162811,0.2,0.15976739,-0.040232614,0.3,0.21195838,-0.08804163,0.1,0.049820203,-0.0501798,0.05,0.034396756,-0.015603244,0.1,0.10282663,0.002826631,0.5,0.5591773,0.05917728,0.0,0.050804686,0.050804686,0.3,0.2976516,-0.002348423,0.05,0.0498044,-0.00019560009,0.02,0.047773935,0.027773935,0.5,0.96123946,0.46123946,1.0,0.96459615,-0.035403848
6516,1.05,1.777663,0.72766304,0.0,0.13262118,0.13262118,0.1,0.27188092,0.17188093,0.05,0.048573725,-0.0014262758,0.05,0.046214037,-0.003785964,0.1,0.17637652,0.07637652,1.0,0.9408305,-0.05916947,0.1,0.07247779,-0.027522214,0.3,0.29877347,-0.0012265444,0.05,0.09658958,0.04658958,0.02,0.047503684,0.027503684,1.0,0.96744984,-0.032550156,1.0,0.53706765,-0.46293235
9691,1.05,1.0369292,-0.013070703,0.2,0.28946218,0.089462176,0.3,0.089250766,-0.21074924,0.05,0.08299898,0.032998983,0.05,0.008446127,-0.041553874,0.2,0.20189922,0.0018992126,1.0,1.0098768,0.009876847,0.0,0.055495072,0.055495072,0.3,0.20167829,-0.09832172,0.1,0.046618402,-0.0533816,0.02,0.050243452,0.030243453,1.0,0.97591573,-0.02408427,0.5,0.9788714,0.4788714
2699,0.1,0.9633051,0.8633051,0.2,0.18687992,-0.013120085,0.1,0.09779525,-0.0022047535,0.1,0.07395731,-0.026042692,0.01,0.012188715,0.0021887152,0.2,0.1887924,-0.01120761,0.5,0.8770707,0.37707072,0.0,0.049051255,0.049051255,0.2,0.20249455,0.0024945438,0.1,0.09764053,-0.0023594722,0.02,0.04801485,0.02801485,1.0,0.96648204,-0.033517957,0.5,0.9463339,0.4463339
10591,1.05,0.010284854,-1.039715,0.4,0.14409551,-0.2559045,0.1,0.16813585,0.06813585,0.05,0.05209915,0.002099149,0.05,0.011573288,-0.038426712,0.1,0.11785183,0.01785183,1.0,0.93414354,-0.06585646,0.0,0.03871143,0.03871143,0.3,0.25447118,-0.04552883,0.1,0.091760054,-0.008239947,0.05,0.026292652,-0.023707349,1.0,0.92526567,-0.07473433,0.5,0.49094686,-0.009053141
2863,0.1,0.032307502,-0.0676925,0.2,0.20541987,0.0054198653,0.1,0.1855009,0.0855009,0.1,0.09868687,-0.001313135,0.05,0.04933161,-0.0006683916,0.1,0.20093429,0.10093429,0.5,0.6001889,0.10018891,0.1,0.05426426,-0.045735743,0.2,0.30826214,0.10826214,0.1,0.09942953,-0.0005704686,0.05,0.04842061,-0.001579389,1.0,0.49968162,-0.5003184,0.5,0.533306,0.033306003
5733,0.1,1.8980284,1.7980283,0.4,0.32810113,-0.07189888,0.3,0.28860345,-0.011396557,0.1,0.07835348,-0.021646522,0.01,0.009874172,-0.0001258282,0.1,0.10287286,0.002872862,1.0,0.49498937,-0.5050106,0.1,0.044983074,-0.055016927,0.2,0.20394108,0.003941074,0.05,0.049428668,-0.0005713329,0.05,0.04918914,-0.0008108616,0.5,0.95380557,0.45380557,0.5,0.9531954,0.4531954
8030,1.05,0.9718851,-0.07811487,0.0,0.15330084,0.15330084,0.3,0.10039481,-0.1996052,0.1,0.05442869,-0.045571312,0.05,0.010222062,-0.03977794,0.1,0.18009865,0.08009865,1.0,1.0012732,0.0012731552,0.0,0.05439341,0.05439341,0.3,0.3009096,0.0009095967,0.1,0.09807425,-0.0019257516,0.05,0.018046765,-0.031953238,0.5,0.99817336,0.49817336,1.0,0.4917497,-0.5082503
14307,2.0,1.0699801,-0.93001986,0.0,0.18982992,0.18982992,0.3,0.283097,-0.016903013,0.1,0.058844257,-0.041155744,0.05,0.04677679,-0.0032232106,0.2,0.1688742,-0.031125799,1.0,0.9159579,-0.08404207,0.1,0.02772766,-0.072272345,0.2,0.29846212,0.09846212,0.05,0.09711081,0.047110807,0.02,0.02209503,0.0020950306,1.0,0.5057821,-0.49421787,0.5,0.53676784,0.03676784
17788,2.0,1.8566176,-0.14338243,0.4,0.27709776,-0.122902244,0.3,0.29121828,-0.008781731,0.05,0.09154046,0.041540463,0.05,0.04869751,-0.0013024919,0.1,0.09884401,-0.0011559948,1.0,0.51131713,-0.48868287,0.1,0.08188209,-0.018117912,0.3,0.29168156,-0.008318454,0.1,0.09595453,-0.0040454715,0.02,0.046883434,0.026883435,1.0,0.94996583,-0.050034165,1.0,0.96531177,-0.034688234
11078,1.05,0.9574556,-0.09254438,0.4,0.17202926,-0.22797075,0.1,0.10159837,0.0015983656,0.1,0.068942994,-0.031057008,0.05,0.00887999,-0.04112001,0.1,0.17328958,0.07328958,1.0,0.8685416,-0.1314584,0.0,0.043319725,0.043319725,0.2,0.29956523,0.09956522,0.05,0.098725714,0.048725713,0.05,0.020024775,-0.029975226,0.5,0.9802206,0.48022062,1.0,0.9761666,-0.023833394
8693,1.05,1.0417545,-0.008245468,0.2,0.2871656,0.08716561,0.1,0.10682889,0.0068288893,0.05,0.09075336,0.04075336,0.05,0.0455933,-0.004406702,0.2,0.19673929,-0.0032607168,1.0,0.4900504,-0.50994956,0.1,0.04310185,-0.05689815,0.3,0.2010497,-0.09895031,0.05,0.048314206,-0.0016857944,0.05,0.01964922,-0.03035078,0.5,0.9590424,0.45904237,0.5,0.9585357,0.45853567
17768,2.0,1.0389856,-0.9610144,0.4,0.16564402,-0.23435599,0.3,0.11851664,-0.18148337,0.05,0.047322147,-0.0026778542,0.05,0.047953226,-0.002046775,0.1,0.18879978,0.08879978,1.0,0.815704,-0.18429601,0.1,0.034408607,-0.065591395,0.2,0.30012262,0.100122616,0.05,0.04854509,-0.0014549121,0.05,0.019388573,-0.030611428,1.0,0.49406308,-0.5059369,1.0,0.4923345,-0.5076655
6211,1.05,0.118235864,-0.93176407,0.0,0.16569267,0.16569267,0.1,0.21429314,0.114293136,0.05,0.051279854,0.0012798533,0.01,0.04644783,0.03644783,0.1,0.09799372,-0.002006285,1.0,0.52418363,-0.47581637,0.0,0.05060008,0.05060008,0.2,0.28761932,0.08761932,0.05,0.093208864,0.043208864,0.02,0.04564658,0.025646582,1.0,0.49029452,-0.5097055,0.5,0.92673635,0.42673635
13352,2.0,1.8796209,-0.12037909,0.0,0.3241481,0.3241481,0.3,0.28816733,-0.011832684,0.05,0.05541976,0.005419761,0.01,0.045593113,0.035593115,0.1,0.15386076,0.05386076,0.5,0.555893,0.055893004,0.1,0.036643527,-0.063356474,0.2,0.20607837,0.0060783625,0.05,0.067484476,0.017484475,0.05,0.04713011,-0.0028698891,1.0,0.52044684,-0.47955316,1.0,0.53180224,-0.46819776
10934,1.05,0.03942352,-1.0105765,0.4,0.18149526,-0.21850474,0.1,0.1713236,0.071323596,0.1,0.09826764,-0.0017323643,0.01,0.05101016,0.041010164,0.2,0.10050309,-0.099496916,0.5,0.8818157,0.38181567,0.1,0.05069845,-0.04930155,0.3,0.27838114,-0.021618873,0.05,0.09737021,0.047370207,0.05,0.048245516,-0.0017544851,0.5,0.46762788,-0.032372117,1.0,0.9694129,-0.030587077
10609,1.05,0.9721826,-0.07781738,0.4,0.21479344,-0.18520656,0.1,0.0862799,-0.013720103,0.05,0.08589736,0.035897363,0.05,0.048977528,-0.001022473,0.1,0.18225522,0.08225522,1.0,0.5385525,-0.46144748,0.1,0.038955268,-0.061044734,0.3,0.29498345,-0.0050165653,0.05,0.098745815,0.048745815,0.02,0.048312724,0.028312724,0.5,0.95690966,0.45690966,0.5,0.9745638,0.47456378
2814,0.1,1.0626404,0.9626404,0.2,0.25703484,0.057034835,0.1,0.2759946,0.1759946,0.1,0.07241041,-0.02758959,0.01,0.04852077,0.03852077,0.2,0.10337038,-0.09662962,1.0,0.96729636,-0.032703638,0.1,0.05931715,-0.040682852,0.3,0.20132117,-0.09867884,0.1,0.098505,-0.0014950037,0.05,0.020225119,-0.029774882,0.5,0.51470476,0.014704764,1.0,1.0012193,0.0012192726
6889,1.05,0.002446394,-1.0475535,0.0,0.20413718,0.20413718,0.1,0.20264861,0.10264861,0.1,0.09847318,-0.0015268251,0.01,0.015807997,0.0058079977,0.2,0.19552529,-0.0044747144,1.0,0.5009294,-0.49907058,0.1,0.04191901,-0.05808099,0.2,0.30356506,0.10356505,0.1,0.09786298,-0.0021370202,0.02,0.047591005,0.027591005,0.5,0.9731586,0.4731586,0.5,0.9779449,0.4779449
2394,0.1,2.0201776,1.9201776,0.2,0.010248452,-0.18975155,0.1,0.3000449,0.2000449,0.05,0.055656392,0.0056563914,0.05,0.008929991,-0.04107001,0.1,0.10319686,0.0031968579,1.0,0.56279075,-0.43720925,0.0,0.04620768,0.04620768,0.3,0.19797091,-0.1020291,0.1,0.09951085,-0.00048915297,0.02,0.019107008,-0.0008929912,0.5,0.58176357,0.081763566,1.0,1.0037792,0.003779173
1723,0.1,0.1275358,0.027535804,0.0,0.22575216,0.22575216,0.3,0.20437185,-0.09562816,0.1,0.097314164,-0.0026858374,0.01,0.035609376,0.025609376,0.2,0.19012485,-0.009875149,0.5,0.812698,0.312698,0.1,0.046878316,-0.053121686,0.3,0.19264616,-0.10735385,0.1,0.049624383,-0.050375618,0.02,0.019813353,-0.00018664636,1.0,0.51719075,-0.48280925,0.5,0.8473339,0.3473339
15912,2.0,0.19267605,-1.8073239,0.2,0.15347019,-0.046529815,0.3,0.22714901,-0.072851,0.1,0.048903,-0.051097002,0.01,0.010201135,0.00020113494,0.1,0.103964746,0.0039647445,0.5,0.47644526,-0.023554742,0.1,0.031804446,-0.06819555,0.2,0.20065856,0.0006585568,0.05,0.049087074,-0.0009129271,0.05,0.050712824,0.0007128231,1.0,0.49784344,-0.50215656,1.0,0.97226655,-0.027733445
7917,1.05,1.8359882,0.7859882,0.0,0.1653643,0.1653643,0.3,0.091899954,-0.20810005,0.1,0.07657223,-0.02342777,0.01,0.05017867,0.04017867,0.2,0.094613776,-0.10538623,1.0,0.44590503,-0.554095,0.1,0.046026975,-0.053973027,0.2,0.20202403,0.0020240247,0.1,0.05253055,-0.047469452,0.05,0.02015354,-0.029846461,0.5,0.9847595,0.4847595,0.5,0.9900266,0.4900266
11507,1.05,1.7898045,0.7398045,0.4,0.23785262,-0.16214739,0.3,0.11659131,-0.1834087,0.05,0.075656876,0.025656875,0.01,0.009883234,-0.0001167655,0.2,0.17153999,-0.02846001,1.0,0.8523531,-0.1476469,0.1,0.061568163,-0.03843184,0.3,0.19828124,-0.10171877,0.05,0.09670388,0.04670388,0.02,0.04796686,0.02796686,1.0,0.48194534,-0.51805466,0.5,0.5280336,0.028033614
12880,2.0,0.77565026,-1.2243497,0.0,0.28512278,0.28512278,0.1,0.105330765,0.0053307638,0.1,0.08746177,-0.012538232,0.01,0.0473876,0.037387602,0.1,0.18527153,0.08527153,1.0,0.7786519,-0.2213481,0.0,0.05094316,0.05094316,0.2,0.20252337,0.0025233626,0.1,0.045935716,-0.054064285,0.05,0.018247956,-0.031752042,1.0,0.48879194,-0.51120806,1.0,0.49825534,-0.5017446
1706,0.1,1.011024,0.911024,0.0,0.25589052,0.25589052,0.3,0.2843955,-0.015604526,0.1,0.08461559,-0.015384413,0.01,0.04872286,0.038722858,0.2,0.17865598,-0.021344021,0.5,0.4699611,-0.030038893,0.1,0.0405799,-0.0594201,0.2,0.20157926,0.0015792549,0.1,0.046693835,-0.053306166,0.02,0.01984632,-0.0001536794,0.5,0.96585697,0.46585697,1.0,0.9664486,-0.033551395
7639,1.05,1.148385,0.098385096,0.0,0.044852864,0.044852864,0.3,0.28891924,-0.011080772,0.05,0.061357744,0.011357743,0.05,0.010081231,-0.03991877,0.2,0.19019786,-0.009802148,1.0,0.53909266,-0.46090734,0.0,0.04498481,0.04498481,0.3,0.2985602,-0.0014398098,0.05,0.09880139,0.04880139,0.05,0.021283321,-0.02871668,1.0,0.540228,-0.459772,0.5,0.97863436,0.47863436
1705,0.1,1.1309224,1.0309224,0.0,0.30167413,0.30167413,0.3,0.10376527,-0.19623473,0.1,0.090642415,-0.0093575865,0.01,0.0107950065,0.00079500675,0.2,0.13309704,-0.066902965,0.5,0.91863036,0.41863036,0.1,0.015588196,-0.08441181,0.2,0.20366523,0.0036652237,0.1,0.047940083,-0.05205992,0.02,0.019330457,-0.0006695427,0.5,0.96776164,0.46776164,0.5,0.5018357,0.0018357038
2215,0.1,0.16266577,0.06266577,0.2,0.19521292,-0.0047870874,0.1,0.19044976,0.09044976,0.05,0.050848357,0.00084835663,0.01,0.011023316,0.0010233158,0.2,0.19562063,-0.004379377,0.5,0.5035472,0.0035471916,0.1,0.043191932,-0.05680807,0.2,0.30170092,0.10170092,0.05,0.098665774,0.048665773,0.05,0.048859384,-0.0011406168,1.0,0.52311283,-0.47688717,0.5,0.9793496,0.4793496
11061,1.05,1.246195,0.196195,0.4,0.15789397,-0.24210604,0.1,0.27503872,0.17503873,0.1,0.067816176,-0.032183826,0.05,0.04747917,-0.0025208294,0.1,0.11829581,0.01829581,0.5,0.8322302,0.3322302,0.1,-0.0035426617,-0.10354266,0.3,0.20804371,-0.0919563,0.05,0.09518638,0.04518638,0.05,0.0464163,-0.0035836995,0.5,0.95189863,0.45189863,0.5,0.529952,0.02995199
14337,2.0,1.0887339,-0.9112661,0.2,0.07732256,-0.122677445,0.1,0.09522536,-0.004774645,0.05,0.05335927,0.0033592694,0.01,0.009830754,-0.00016924553,0.1,0.09718539,-0.0028146133,0.5,0.56370986,0.063709855,0.0,0.050434828,0.050434828,0.2,0.29608336,0.09608336,0.05,0.048594248,-0.0014057532,0.02,0.02005564,5.5640936e-05,0.5,0.50826555,0.008265555,0.5,0.9594836,0.45948362
12807,2.0,0.97698694,-1.0230131,0.0,0.20873901,0.20873901,0.1,0.26716572,0.16716573,0.1,0.08016031,-0.01983969,0.01,0.04867976,0.038679764,0.1,0.14266247,0.042662464,0.5,0.97706795,0.47706795,0.0,0.08520641,0.08520641,0.2,0.19660227,-0.003397733,0.05,0.09758413,0.047584128,0.05,0.04871826,-0.001281742,1.0,0.96937335,-0.030626655,0.5,0.5039142,0.0039141774
3523,0.1,1.864017,1.764017,0.2,0.09528014,-0.10471986,0.3,0.10370978,-0.19629022,0.05,0.07230615,0.022306148,0.05,0.04910147,-0.00089853257,0.2,0.09865055,-0.10134945,1.0,0.43397996,-0.56602,0.0,0.050008155,0.050008155,0.2,0.2997978,0.0997978,0.05,0.09819528,0.048195276,0.02,0.017501578,-0.0024984218,1.0,0.5112724,-0.48872763,0.5,0.48694134,-0.013058662
4882,0.1,1.0683739,0.9683739,0.4,0.18844035,-0.21155965,0.1,0.10022488,0.00022488087,0.1,0.051665526,-0.048334476,0.05,0.049638234,-0.00036176667,0.1,0.10453472,0.0045347214,0.5,0.989999,0.489999,0.0,0.010046789,0.010046789,0.3,0.20331581,-0.0966842,0.05,0.096125886,0.046125885,0.02,0.020368561,0.0003685616,0.5,0.49721855,-0.0027814507,1.0,0.99449545,-0.0055045485
8255,1.05,0.31765002,-0.73234993,0.2,0.1924349,-0.007565096,0.1,0.099669844,-0.00033015758,0.05,0.044546835,-0.0054531656,0.01,0.010326534,0.0003265338,0.1,0.09790404,-0.00209596,0.5,0.96177846,0.46177846,0.1,0.08864782,-0.011352181,0.3,0.29320845,-0.006791562,0.1,0.09483411,-0.00516589,0.05,0.027950265,-0.022049736,1.0,0.57300615,-0.42699385,0.5,0.5530697,0.05306971
12532,2.0,1.7470742,-0.25292575,0.0,0.2349936,0.2349936,0.1,0.122916,0.022915997,0.05,0.07388624,0.023886237,0.01,0.009960054,-3.9945357e-05,0.2,0.15432419,-0.045675814,1.0,0.8681247,-0.13187528,0.1,0.051473252,-0.04852675,0.3,0.20648777,-0.09351224,0.05,0.09381348,0.04381348,0.02,0.021093283,0.0010932833,1.0,0.50745004,-0.49254996,1.0,0.5225196,-0.4774804
9913,1.05,1.0900968,0.04009688,0.2,0.31346455,0.11346455,0.3,0.110300764,-0.18969925,0.1,0.059370585,-0.040629417,0.01,0.013905111,0.003905111,0.2,0.1866407,-0.013359308,0.5,0.53853846,0.038538456,0.1,0.037486967,-0.06251304,0.3,0.20033568,-0.09966433,0.1,0.09533949,-0.0046605095,0.02,0.04588331,0.02588331,0.5,0.9369138,0.4369138,0.5,0.9380668,0.43806678
8799,1.05,1.364195,0.31419504,0.2,0.27785763,0.07785763,0.1,0.120207585,0.020207584,0.1,0.08558982,-0.014410183,0.01,0.04489618,0.03489618,0.1,0.17796466,0.077964656,1.0,0.5407237,-0.45927632,0.0,0.069444776,0.069444776,0.3,0.20362648,-0.09637353,0.1,0.094645336,-0.005354665,0.05,0.046273585,-0.0037264153,1.0,0.52327055,-0.47672945,0.5,0.51231176,0.012311757
5450,0.1,1.1074944,1.0074943,0.4,0.37411577,-0.02588424,0.3,0.29110867,-0.008891344,0.05,0.07770263,0.027702626,0.05,0.012070865,-0.037929136,0.1,0.18539645,0.08539645,1.0,0.5160322,-0.48396778,0.0,0.031110782,0.031110782,0.2,0.2997727,0.09977271,0.1,0.096828625,-0.003171377,0.02,0.019241167,-0.0007588323,0.5,0.9579161,0.45791608,1.0,0.5156403,-0.48435968
4187,0.1,0.12756993,0.027569927,0.4,0.18676065,-0.21323936,0.1,0.1694666,0.0694666,0.05,0.097395234,0.047395233,0.01,0.013391645,0.003391645,0.1,0.10039103,0.00039102882,1.0,1.010276,0.01027596,0.0,0.04740058,0.04740058,0.3,0.20083547,-0.099164546,0.1,0.049854565,-0.050145436,0.02,0.01927464,-0.0007253587,1.0,0.505514,-0.49448597,0.5,0.5111194,0.011119425
11292,1.05,0.059915356,-0.9900846,0.4,0.19056752,-0.20943248,0.3,0.20713224,-0.09286778,0.05,0.09943525,0.049435247,0.01,0.010536263,0.000536263,0.1,0.19081895,0.09081895,0.5,0.5637604,0.0637604,0.0,0.05229207,0.05229207,0.3,0.30025417,0.0002541542,0.1,0.10015049,0.00015048683,0.02,0.049113575,0.029113576,1.0,0.49598792,-0.5040121,1.0,0.613018,-0.38698202
5660,0.1,1.8549037,1.7549037,0.4,0.28643224,-0.11356777,0.3,0.2980856,-0.0019144118,0.1,0.07923614,-0.02076386,0.01,0.009711876,-0.0002881242,0.1,0.11928494,0.019284941,0.5,0.8905108,0.3905108,0.0,0.032880533,0.032880533,0.3,0.3030054,0.0030053854,0.1,0.09506255,-0.004937455,0.02,0.01831711,-0.0016828887,1.0,0.9678579,-0.032142103,1.0,0.48890698,-0.511093
4439,0.1,0.9268454,0.82684535,0.4,0.19122534,-0.20877467,0.1,0.2619359,0.1619359,0.05,0.09283622,0.042836223,0.05,0.04669986,-0.0033001415,0.1,0.09893325,-0.0010667518,1.0,0.50776726,-0.49223274,0.0,0.07126884,0.07126884,0.3,0.20347495,-0.09652506,0.05,0.04955358,-0.00044642016,0.05,0.0487167,-0.0012832992,1.0,0.49048832,-0.5095117,0.5,0.9512507,0.45125067
9665,1.05,0.16860929,-0.8813907,0.2,0.17183028,-0.028169721,0.3,0.2027799,-0.09722011,0.05,0.049586117,-0.00041388348,0.05,0.032484308,-0.017515693,0.2,0.10035093,-0.09964907,1.0,0.5114053,-0.4885947,0.0,0.041572373,0.041572373,0.2,0.20070255,0.00070254505,0.05,0.049565814,-0.0004341863,0.02,0.047190413,0.027190413,0.5,0.49486768,-0.0051323175,0.5,0.9929569,0.49295688
12971,2.0,0.1419365,-1.8580635,0.0,0.19671512,0.19671512,0.1,0.20330414,0.10330414,0.1,0.09837728,-0.0016227216,0.01,0.014012355,0.0040123556,0.2,0.101281546,-0.09871846,0.5,0.955813,0.455813,0.1,0.05435177,-0.045648232,0.2,0.19881523,-0.0011847764,0.1,0.050397724,-0.049602278,0.02,0.0467381,0.0267381,1.0,0.9725061,-0.027493894,0.5,0.508474,0.008473992
4510,0.1,1.0445111,0.94451106,0.4,0.31856456,-0.08143544,0.1,0.2902609,0.19026092,0.05,0.08734941,0.037349407,0.05,0.049773626,-0.00022637472,0.2,0.18843219,-0.011567816,0.5,0.46554735,-0.034452647,0.0,0.038938507,0.038938507,0.3,0.1994239,-0.10057612,0.1,0.04758218,-0.052417822,0.05,0.020135855,-0.029864145,0.5,0.98122275,0.48122275,1.0,0.98053396,-0.019466043
15681,2.0,1.8555291,-0.14447093,0.2,0.21003059,0.010030583,0.3,0.14684276,-0.15315725,0.05,0.06268239,0.0126823895,0.05,0.045527816,-0.004472185,0.1,0.13407981,0.034079812,1.0,0.7447727,-0.25522733,0.0,0.03219217,0.03219217,0.2,0.20519377,0.00519377,0.05,0.094966486,0.044966485,0.02,0.025210768,0.0052107684,0.5,0.5050715,0.005071521,0.5,0.5216671,0.021667123
9268,1.05,1.9616458,0.9116459,0.2,0.36111793,0.16111793,0.3,0.10258997,-0.19741005,0.05,0.07473197,0.024731968,0.01,0.04583379,0.03583379,0.1,0.16824289,0.068242885,0.5,0.5249179,0.0249179,0.1,0.032034375,-0.06796563,0.3,0.2942165,-0.0057834983,0.05,0.09742008,0.04742008,0.02,0.047542997,0.027542997,1.0,0.5307474,-0.4692526,1.0,0.5136112,-0.4863888
218,0.1,1.0753934,0.9753934,0.0,0.14839968,0.14839968,0.1,0.27310693,0.17310694,0.05,0.06458483,0.014584828,0.01,0.04908143,0.039081432,0.2,0.18407038,-0.015929624,1.0,0.4946947,-0.5053053,0.0,0.049437277,0.049437277,0.3,0.2040436,-0.095956415,0.1,0.047044728,-0.052955274,0.02,0.02024428,0.00024428032,0.5,0.9705262,0.47052622,1.0,0.971549,-0.028451025
13798,2.0,1.0203949,-0.9796051,0.0,0.28420204,0.28420204,0.3,0.10224555,-0.19775447,0.05,0.07965897,0.02965897,0.05,0.0107626775,-0.039237324,0.2,0.10516973,-0.094830275,1.0,0.63402426,-0.36597574,0.1,0.046223767,-0.053776234,0.2,0.29748514,0.09748514,0.05,0.0987583,0.048758302,0.05,0.018487945,-0.031512056,0.5,0.9627695,0.4627695,1.0,0.98602545,-0.013974547
14359,2.0,0.10055651,-1.8994435,0.2,0.20995879,0.009958789,0.1,0.2239389,0.123938896,0.05,0.09577565,0.04577565,0.01,0.047753878,0.03775388,0.1,0.19247231,0.09247231,0.5,0.9433596,0.4433596,0.0,0.05176145,0.05176145,0.3,0.2715427,-0.028457314,0.05,0.096478164,0.046478163,0.05,0.04670905,-0.0032909513,1.0,0.9707978,-0.029202223,0.5,0.95994097,0.45994097
7842,1.05,1.0024676,-0.04753232,0.0,0.23802903,0.23802903,0.3,0.28256792,-0.017432094,0.1,0.055598866,-0.044401135,0.01,0.011414843,0.0014148429,0.2,0.10889752,-0.09110248,0.5,0.8086415,0.3086415,0.1,0.030412529,-0.06958747,0.2,0.20143256,0.0014325529,0.05,0.09325598,0.04325598,0.02,0.04362729,0.023627289,0.5,0.51806515,0.018065155,1.0,0.5287331,-0.47126693
5765,0.1,0.12281804,0.022818036,0.4,0.22250839,-0.17749162,0.3,0.25095206,-0.049047947,0.1,0.05218208,-0.047817923,0.01,0.047613695,0.037613697,0.2,0.19847259,-0.0015274137,0.5,0.47814327,-0.021856725,0.0,0.06456843,0.06456843,0.2,0.20042977,0.0004297644,0.05,0.048963964,-0.0010360368,0.05,0.049493495,-0.00050650537,0.5,0.99313253,0.49313253,0.5,0.98158544,0.48158544
14402,2.0,1.1463797,-0.8536203,0.2,0.33714452,0.13714452,0.1,0.30559024,0.20559025,0.05,0.09047601,0.040476013,0.01,0.008866767,-0.0011332324,0.1,0.10378283,0.0037828311,1.0,0.9844021,-0.01559788,0.0,0.045229863,0.045229863,0.2,0.29672104,0.09672104,0.05,0.0494266,-0.0005734004,0.02,0.049731225,0.029731225,0.5,0.4877752,-0.012224793,1.0,0.49051133,-0.5094887
13377,2.0,0.007423963,-1.992576,0.0,0.18153487,0.18153487,0.3,0.21260776,-0.087392256,0.05,0.10049422,0.05049422,0.01,0.017167693,0.007167693,0.1,0.19837144,0.09837144,1.0,0.9987372,-0.001262784,0.0,0.050071638,0.050071638,0.2,0.23547558,0.035475582,0.05,0.04767893,-0.002321072,0.02,0.019031879,-0.000968121,0.5,0.9954942,0.4954942,0.5,0.5051802,0.00518018
15569,2.0,0.13752815,-1.8624718,0.2,0.18684196,-0.013158038,0.3,0.19758219,-0.10241783,0.05,0.09685483,0.046854828,0.01,0.010518167,0.0005181674,0.2,0.19279788,-0.0072021186,1.0,0.72913563,-0.27086437,0.0,0.04518196,0.04518196,0.3,0.19678123,-0.10321878,0.05,0.09690008,0.046900082,0.02,0.020415133,0.0004151333,0.5,0.5008152,0.0008152127,0.5,0.8528589,0.3528589
1158,0.1,1.7495266,1.6495266,0.0,0.24168174,0.24168174,0.3,0.100071155,-0.19992885,0.05,0.05959188,0.009591877,0.01,0.010087953,8.795317e-05,0.2,0.10074506,-0.09925494,0.5,0.99270487,0.49270487,0.0,0.04496788,0.04496788,0.2,0.20033395,0.00033394992,0.05,0.051083274,0.0010832734,0.05,0.01907502,-0.030924981,0.5,0.4972276,-0.0027723908,1.0,0.98350865,-0.016491354
15371,2.0,1.0015972,-0.99840283,0.2,0.23349062,0.033490613,0.3,0.2875994,-0.012400597,0.05,0.052626662,0.0026266612,0.01,0.04717565,0.037175648,0.1,0.18857148,0.08857148,0.5,0.4999559,-4.4107437e-05,0.0,0.017863896,0.017863896,0.2,0.20324148,0.0032414794,0.1,0.092580035,-0.007419966,0.02,0.021854078,0.0018540788,1.0,0.9424458,-0.057554185,0.5,0.92272234,0.42272234
16937,2.0,1.1662577,-0.83374226,0.4,0.21820685,-0.18179315,0.1,0.18510796,0.08510796,0.1,0.07912534,-0.020874664,0.01,0.04579525,0.03579525,0.1,0.16776586,0.067765854,0.5,0.7655319,0.2655319,0.1,0.08300137,-0.016998634,0.2,0.2006149,0.0006148964,0.1,0.09599358,-0.004006423,0.02,0.048079148,0.028079148,0.5,0.5036006,0.0036005974,0.5,0.49585408,-0.0041459203
9735,1.05,0.08844775,-0.9615522,0.2,0.1581162,-0.041883796,0.3,0.20597725,-0.094022766,0.1,0.09612597,-0.0038740337,0.01,0.014022498,0.0040224986,0.1,0.19659828,0.096598275,0.5,0.63115484,0.13115484,0.0,0.04574299,0.04574299,0.2,0.28228948,0.08228947,0.05,0.051851105,0.0018511042,0.05,0.04950234,-0.00049766153,1.0,0.97492224,-0.02507776,0.5,0.55049264,0.050492644
4706,0.1,0.14007726,0.04007726,0.4,0.19243774,-0.20756227,0.1,0.18632257,0.08632257,0.1,0.051097877,-0.048902124,0.01,0.04729389,0.03729389,0.1,0.1920869,0.092086904,1.0,0.97327864,-0.026721358,0.1,0.040157437,-0.059842564,0.2,0.20281637,0.0028163642,0.05,0.095690176,0.045690175,0.02,0.020040885,4.088506e-05,0.5,0.4998865,-0.000113487244,1.0,0.9485836,-0.051416397
6206,1.05,1.855091,0.805091,0.0,0.38401833,0.38401833,0.1,0.10052633,0.00052633137,0.05,0.07863776,0.028637756,0.01,0.04714263,0.037142627,0.1,0.16327949,0.06327949,0.5,0.46017873,-0.039821267,0.1,0.009258056,-0.09074195,0.3,0.20030572,-0.0996943,0.1,0.048722852,-0.05127715,0.05,0.020108743,-0.029891258,0.5,0.9735278,0.4735278,1.0,0.5000762,-0.49992383
