venkat1924/Math-Modelling/Validation_results/lstm_validation_results.csv
run_id,target_r,predicted_r,error_r,target_p1,predicted_p1,error_p1,target_p2,predicted_p2,error_p2,target_d1,predicted_d1,error_d1,target_b,predicted_b,error_b,target_c1,predicted_c1,error_c1,target_a,predicted_a,error_a,target_m,predicted_m,error_m,target_h1,predicted_h1,error_h1,target_d2,predicted_d2,error_d2,target_d3,predicted_d3,error_d3,target_lambda1,predicted_lambda1,error_lambda1,target_q,predicted_q,error_q
13678,2.0,1.122286,-0.87771404,0.0,0.020517042,0.020517042,0.3,0.2931658,-0.006834209,0.05,0.059949525,0.009949524,0.05,0.05131013,0.0013101287,0.1,0.119096324,0.019096322,1.0,0.9807171,-0.019282877,0.1,0.07553747,-0.024462529,0.2,0.30102387,0.10102387,0.1,0.100444555,0.0004445538,0.05,0.020853007,-0.029146994,0.5,0.992957,0.492957,1.0,0.5079081,-0.4920919
7192,1.05,0.9561862,-0.09381378,0.0,0.09946008,0.09946008,0.3,0.2025618,-0.097438216,0.05,0.07909332,0.029093321,0.01,0.05094295,0.040942952,0.1,0.14331548,0.043315478,0.5,0.49140286,-0.008597136,0.0,0.040888015,0.040888015,0.3,0.20196873,-0.09803128,0.05,0.10077302,0.05077302,0.05,0.021866456,-0.028133545,1.0,0.5122184,-0.48778158,1.0,0.5266113,-0.47338867
291,0.1,1.0866547,0.98665464,0.0,0.3646481,0.3646481,0.1,0.094068795,-0.005931206,0.05,0.05954082,0.009540819,0.05,0.010901313,-0.039098687,0.1,0.1036188,0.0036187991,0.5,0.52105016,0.021050155,0.1,0.041384507,-0.058615495,0.2,0.20206334,0.002063334,0.05,0.099156454,0.049156453,0.02,0.023026269,0.0030262694,1.0,0.52248144,-0.47751856,0.5,1.0031556,0.5031556
11332,1.05,1.0650791,0.015079141,0.4,0.31771332,-0.082286686,0.3,0.122960016,-0.17704,0.05,0.10433372,0.05433372,0.01,0.05319164,0.04319164,0.1,0.19732383,0.09732383,1.0,0.5278986,-0.4721014,0.0,0.080321535,0.080321535,0.2,0.30223516,0.10223515,0.05,0.0974476,0.047447596,0.02,0.020075189,7.51894e-05,1.0,0.5116167,-0.4883833,1.0,1.0077527,0.007752657
18431,2.0,1.0178348,-0.9821652,0.4,0.16118057,-0.23881944,0.3,0.30308732,0.003087312,0.1,0.10012047,0.00012046844,0.05,0.0102349,-0.0397651,0.2,0.15713815,-0.04286185,1.0,1.0061677,0.00616765,0.1,0.038592838,-0.061407164,0.3,0.2972173,-0.0027827024,0.1,0.09943181,-0.0005681887,0.05,0.050125033,0.00012503192,1.0,0.49769112,-0.50230885,0.5,0.4823211,-0.017678887
7299,1.05,1.8724989,0.8224989,0.0,0.015179503,0.015179503,0.3,0.10519717,-0.19480285,0.05,0.07448764,0.02448764,0.01,0.047769714,0.037769713,0.2,0.18753417,-0.012465835,0.5,0.5047528,0.004752815,0.0,0.05734866,0.05734866,0.2,0.29629937,0.096299365,0.05,0.0995347,0.049534697,0.02,0.020897625,0.00089762546,1.0,0.9794977,-0.020502329,0.5,0.53401655,0.03401655
12093,1.05,1.9440062,0.89400625,0.4,0.33612505,-0.06387496,0.3,0.1094696,-0.19053042,0.1,0.07207571,-0.027924292,0.05,0.011059926,-0.038940076,0.1,0.103190824,0.003190823,0.5,0.7550526,0.25505263,0.1,0.038844213,-0.06115579,0.3,0.2982857,-0.001714319,0.1,0.09944226,-0.000557743,0.05,0.02041512,-0.02958488,0.5,0.9889748,0.4889748,0.5,0.9872029,0.48720288
3754,0.1,1.0977664,0.9977664,0.2,0.31729537,0.11729537,0.3,0.11309055,-0.18690947,0.1,0.1003778,0.0003777966,0.01,0.01164882,0.00164882,0.2,0.20295139,0.0029513836,0.5,0.82336414,0.32336414,0.1,0.038999327,-0.061000675,0.2,0.20293643,0.0029364228,0.1,0.05023458,-0.049765423,0.02,0.0200926,9.259954e-05,0.5,0.9996276,0.4996276,1.0,1.003907,0.0039069653
8782,1.05,1.1362811,0.08628118,0.2,0.26660684,0.066606835,0.1,0.094278455,-0.0057215467,0.1,0.06699163,-0.033008374,0.01,0.011787249,0.001787249,0.1,0.099529095,-0.0004709065,1.0,0.99527365,-0.0047263503,0.0,0.046456683,0.046456683,0.2,0.29740292,0.097402915,0.1,0.050051074,-0.049948927,0.05,0.020366477,-0.029633524,0.5,0.9933027,0.4933027,1.0,0.5061059,-0.4938941
17131,2.0,0.98563,-1.01437,0.4,0.10610537,-0.29389465,0.1,0.10089466,0.00089465827,0.1,0.07315293,-0.026847072,0.01,0.04843687,0.038436867,0.2,0.15872064,-0.04127936,1.0,0.9963464,-0.003653586,0.1,0.013336073,-0.08666393,0.2,0.2997702,0.0997702,0.1,0.100629166,0.0006291643,0.02,0.02047253,0.00047253072,1.0,0.5065555,-0.4934445,0.5,0.4993082,-0.0006918013
327,0.1,1.8594534,1.7594534,0.0,0.20279224,0.20279224,0.1,0.29795834,0.19795835,0.05,0.07648541,0.02648541,0.05,0.049165,-0.00083500147,0.1,0.10522447,0.0052244663,1.0,1.0010126,0.0010125637,0.0,0.08450523,0.08450523,0.2,0.29803059,0.09803058,0.05,0.098706745,0.048706744,0.05,0.04875222,-0.0012477823,1.0,1.0086007,0.008600712,0.5,0.95821613,0.45821613
12367,2.0,0.12044587,-1.8795542,0.0,0.23924354,0.23924354,0.1,0.21163225,0.11163225,0.05,0.10142112,0.051421117,0.01,0.011853588,0.001853588,0.1,0.1005079,0.0005078986,1.0,0.97889674,-0.021103263,0.0,0.0008053087,0.0008053087,0.2,0.3033389,0.10333888,0.1,0.050270982,-0.04972902,0.05,0.04925551,-0.0007444918,1.0,0.515287,-0.48471302,0.5,0.9439205,0.4439205
410,0.1,1.9585263,1.8585262,0.0,0.4098434,0.4098434,0.1,0.10918093,0.009180926,0.05,0.074532725,0.024532724,0.05,0.046522584,-0.003477417,0.2,0.097917035,-0.10208297,0.5,1.007534,0.507534,0.0,0.04626178,0.04626178,0.3,0.29177466,-0.008225352,0.1,0.049020026,-0.050979976,0.02,0.020267216,0.00026721694,0.5,0.98685545,0.48685545,1.0,0.5063721,-0.4936279
9085,1.05,0.14004326,-0.9099567,0.2,0.21695852,0.01695852,0.1,0.17672586,0.07672586,0.1,0.050818782,-0.04918122,0.05,0.018653778,-0.031346224,0.1,0.1061636,0.006163597,1.0,0.99183756,-0.008162439,0.1,-0.013917113,-0.11391711,0.3,0.30324423,0.0032442212,0.1,0.05296036,-0.047039643,0.05,0.020393524,-0.029606476,0.5,0.9739722,0.4739722,0.5,0.9471146,0.4471146
12229,1.05,1.0782062,0.02820623,0.4,-0.021548083,-0.4215481,0.3,0.27083117,-0.029168844,0.1,0.056796085,-0.043203916,0.05,0.011255917,-0.038744085,0.2,0.101200484,-0.09879952,1.0,0.48097456,-0.51902544,0.0,0.044976655,0.044976655,0.2,0.29856652,0.09856652,0.05,0.049939547,-6.045401e-05,0.05,0.04837322,-0.0016267821,0.5,0.51465714,0.01465714,0.5,0.5145432,0.014543176
14668,2.0,1.9011884,-0.09881163,0.2,0.2838212,0.08382119,0.1,0.30376264,0.20376265,0.05,0.098495424,0.048495423,0.05,0.009919488,-0.040080514,0.1,0.10441448,0.0044144765,1.0,0.6787992,-0.3212008,0.0,0.02513128,0.02513128,0.2,0.20539269,0.0053926855,0.1,0.05134828,-0.04865172,0.02,0.049352113,0.029352114,1.0,0.99678445,-0.0032155514,1.0,1.0075042,0.007504225
7754,1.05,0.16550219,-0.88449776,0.0,0.20359668,0.20359668,0.3,0.20833918,-0.09166083,0.1,0.09757261,-0.0024273917,0.01,0.0500326,0.040032603,0.1,0.19534546,0.09534546,1.0,0.97780234,-0.022197664,0.0,0.06551886,0.06551886,0.2,0.20007543,7.542968e-05,0.1,0.09895559,-0.0010444149,0.02,0.020671394,0.00067139417,0.5,0.9870554,0.48705542,1.0,1.0073893,0.007389307
10260,1.05,1.1031144,0.053114414,0.4,0.104955114,-0.2950449,0.1,0.31101224,0.21101224,0.05,0.06279333,0.012793329,0.01,0.052055664,0.042055666,0.1,0.20292778,0.10292778,0.5,0.5452237,0.045223713,0.0,0.05706521,0.05706521,0.3,0.20565192,-0.09434809,0.05,0.051172532,0.0011725314,0.02,0.020404072,0.00040407293,1.0,0.98743725,-0.012562752,1.0,0.99749386,-0.002506137
5231,0.1,0.21449593,0.114495926,0.4,0.21292193,-0.18707807,0.3,0.18749857,-0.11250144,0.05,0.05498178,0.0049817786,0.01,0.049271453,0.03927145,0.1,0.12465534,0.024655342,1.0,0.98511386,-0.014886141,0.1,0.03693985,-0.06306015,0.2,0.20036845,0.0003684461,0.1,0.10000847,8.47131e-06,0.05,0.020798827,-0.029201174,1.0,0.99214673,-0.00785327,0.5,0.5018784,0.0018783808
15160,2.0,0.12539597,-1.874604,0.2,0.23447807,0.03447807,0.1,0.26701623,0.16701624,0.1,0.050769143,-0.04923086,0.05,0.0068989354,-0.043101065,0.1,0.18295199,0.082951985,0.5,1.0013397,0.5013397,0.1,0.06416381,-0.03583619,0.3,0.2791862,-0.020813823,0.05,0.05247283,0.002472829,0.05,0.02261008,-0.027389921,1.0,1.0086284,0.008628368,1.0,0.5825728,-0.41742718
10520,1.05,1.8615756,0.81157565,0.4,0.08474312,-0.3152569,0.1,0.09706561,-0.0029343888,0.05,0.088076636,0.038076635,0.05,0.051014453,0.0010144524,0.1,0.19966915,0.09966915,0.5,0.50044155,0.0004415512,0.0,0.042286422,0.042286422,0.3,0.29928026,-0.0007197559,0.05,0.10093571,0.05093571,0.05,0.049898844,-0.00010115653,1.0,0.5185402,-0.4814598,1.0,0.9854155,-0.014584482
2797,0.1,1.9635203,1.8635203,0.2,-0.00044353306,-0.20044354,0.1,0.28712133,0.18712133,0.1,0.06467295,-0.035327055,0.01,0.049560223,0.03956022,0.2,0.104279295,-0.09572071,1.0,0.9881287,-0.011871278,0.1,0.0783053,-0.021694705,0.2,0.20313962,0.003139615,0.1,0.049815644,-0.050184358,0.05,0.049339388,-0.0006606132,0.5,1.0105826,0.51058257,0.5,0.9950315,0.49503148
7199,1.05,0.09820082,-0.95179915,0.0,0.10472591,0.10472591,0.3,0.122624315,-0.1773757,0.05,0.054653693,0.0046536922,0.01,0.012820947,0.0028209472,0.1,0.18687375,0.08687375,0.5,0.535698,0.035697997,0.0,0.08571306,0.08571306,0.3,0.1895084,-0.11049162,0.1,0.056308217,-0.043691784,0.05,0.051240798,0.0012407973,1.0,0.99113,-0.008870006,0.5,0.5833183,0.08331829
17583,2.0,0.22322883,-1.7767712,0.4,0.25823736,-0.14176264,0.3,0.15118219,-0.14881782,0.05,0.05573044,0.005730439,0.01,0.053030685,0.043030687,0.2,0.19257465,-0.007425353,0.5,0.98844343,0.48844343,0.1,0.009379027,-0.09062097,0.2,0.29246882,0.09246881,0.1,0.049058907,-0.050941095,0.05,0.050410017,0.00041001663,1.0,0.517907,-0.48209298,0.5,0.98248774,0.48248774
7077,1.05,0.07832721,-0.9716728,0.0,0.22509524,0.22509524,0.1,0.31343496,0.21343496,0.1,0.10028225,0.00028225034,0.05,0.011822692,-0.038177308,0.2,0.10304423,-0.096955776,0.5,1.0214403,0.52144027,0.1,0.025924584,-0.074075416,0.2,0.30329725,0.10329725,0.05,0.048998453,-0.001001548,0.05,0.050423462,0.0004234612,0.5,0.9939258,0.4939258,0.5,0.9577692,0.45776922
17564,2.0,0.2259334,-1.7740666,0.4,0.19472188,-0.20527813,0.3,0.25013,-0.049870014,0.05,0.05049182,0.0004918203,0.01,0.010847037,0.00084703695,0.2,0.2031425,0.003142491,0.5,1.0244987,0.5244987,0.0,0.024831027,0.024831027,0.3,0.19700927,-0.10299075,0.1,0.051605333,-0.04839467,0.02,0.021172777,0.0011727773,1.0,0.99281293,-0.0071870685,1.0,0.52931046,-0.47068954
3430,0.1,1.2436924,1.1436924,0.2,0.3379386,0.1379386,0.3,0.13304564,-0.16695437,0.05,0.10927284,0.059272837,0.05,0.04943138,-0.00056862086,0.1,0.20375672,0.10375672,1.0,1.0221677,0.022167683,0.1,0.08204265,-0.017957352,0.2,0.20116127,0.0011612624,0.05,0.10256021,0.052560207,0.05,0.050981496,0.0009814948,0.5,1.0152423,0.51524234,1.0,0.5131823,-0.48681772
7102,1.05,1.924239,0.8742391,0.0,0.33926442,0.33926442,0.1,0.09496803,-0.005031973,0.1,0.06764339,-0.032356612,0.05,0.010620326,-0.039379675,0.2,0.15098573,-0.04901427,0.5,0.9256149,0.4256149,0.1,0.077112585,-0.022887416,0.3,0.20134363,-0.098656386,0.1,0.09865929,-0.0013407096,0.05,0.020064771,-0.02993523,0.5,0.9946078,0.4946078,1.0,0.48967192,-0.51032805
8656,1.05,1.9487377,0.8987378,0.2,0.13998385,-0.060016155,0.1,0.08230397,-0.01769603,0.05,0.07618363,0.026183631,0.05,0.050574966,0.00057496503,0.2,0.11277622,-0.08722378,1.0,0.95084995,-0.04915005,0.0,0.0452669,0.0452669,0.2,0.30075997,0.10075997,0.1,0.04921047,-0.05078953,0.05,0.04930649,-0.0006935112,1.0,0.50042665,-0.49957335,1.0,0.9791532,-0.020846784
7669,1.05,0.2033239,-0.84667605,0.0,0.15063913,0.15063913,0.3,0.16313085,-0.13686916,0.05,0.095294416,0.045294415,0.05,0.012782649,-0.037217353,0.2,0.10294505,-0.09705495,1.0,0.9495738,-0.050426185,0.1,0.034198448,-0.06580155,0.3,0.20516348,-0.09483653,0.05,0.10138442,0.051384423,0.05,0.020672472,-0.029327529,0.5,0.5174456,0.017445624,0.5,0.50667334,0.006673336
2147,0.1,1.9321338,1.8321338,0.2,0.17491218,-0.025087819,0.1,0.29881495,0.19881496,0.05,0.09119536,0.04119536,0.01,0.047325242,0.03732524,0.1,0.10370427,0.0037042722,1.0,0.9988761,-0.0011239052,0.1,0.11240846,0.012408458,0.2,0.20315148,0.0031514764,0.05,0.099573076,0.049573075,0.02,0.05035946,0.030359462,1.0,0.50635475,-0.49364525,0.5,0.97228926,0.47228926
14338,2.0,1.1632074,-0.8367926,0.2,0.32536846,0.12536846,0.1,0.08896808,-0.011031918,0.05,0.09660376,0.046603758,0.01,0.046855856,0.036855854,0.1,0.105962135,0.0059621334,0.5,1.0067632,0.5067632,0.0,0.018685574,0.018685574,0.2,0.28938007,0.08938007,0.05,0.050189834,0.00018983334,0.02,0.047187973,0.027187973,0.5,0.5126545,0.012654483,1.0,0.48121154,-0.51878846
2657,0.1,1.2154328,1.1154327,0.2,0.43955374,0.23955373,0.1,0.10606209,0.0060620904,0.1,0.08622481,-0.013775192,0.01,0.053991247,0.043991245,0.1,0.105944395,0.0059443936,1.0,0.5124898,-0.4875102,0.1,0.094336584,-0.0056634173,0.2,0.29831195,0.098311946,0.05,0.049989693,-1.0307878e-05,0.02,0.021122506,0.0011225063,0.5,0.49473175,-0.005268246,0.5,0.50977445,0.0097744465
9474,1.05,0.20688377,-0.84311616,0.2,0.13164766,-0.06835234,0.3,0.15464129,-0.14535873,0.05,0.09982525,0.049825247,0.05,0.045177307,-0.0048226938,0.1,0.1967237,0.0967237,0.5,0.5518472,0.05184722,0.0,0.06545917,0.06545917,0.2,0.20621498,0.0062149763,0.05,0.099681355,0.049681354,0.02,0.04937306,0.02937306,0.5,0.9695265,0.46952653,1.0,0.5004543,-0.4995457
971,0.1,1.0680405,0.96804047,0.0,0.15211022,0.15211022,0.1,0.2937596,0.19375962,0.1,0.05690942,-0.043090582,0.05,0.010372298,-0.0396277,0.2,0.19513,-0.0048699975,1.0,0.49283782,-0.5071622,0.0,0.030658284,0.030658284,0.2,0.20213246,0.0021324605,0.1,0.10086532,0.0008653179,0.02,0.02069156,0.000691561,1.0,0.5159945,-0.4840055,0.5,0.9936625,0.49366248
5047,0.1,0.9423165,0.84231645,0.4,0.0055751055,-0.39442492,0.1,0.23423955,0.13423955,0.1,0.0821083,-0.017891705,0.05,0.010562586,-0.039437413,0.2,0.15795557,-0.04204443,0.5,0.46758303,-0.03241697,0.1,0.041996934,-0.058003068,0.3,0.19994912,-0.1000509,0.05,0.09706907,0.04706907,0.05,0.019555798,-0.030444203,1.0,0.5212546,-0.4787454,0.5,0.5243367,0.024336696
13454,2.0,0.21171887,-1.7882811,0.0,0.11805948,0.11805948,0.3,0.20683786,-0.09316215,0.05,0.04917475,-0.0008252524,0.01,0.0144547485,0.0044547487,0.2,0.21939202,0.019392014,0.5,0.9822564,0.4822564,0.0,0.10624329,0.10624329,0.2,0.28242528,0.08242528,0.1,0.08523072,-0.0147692785,0.05,0.029817697,-0.020182304,0.5,0.97054166,0.47054166,1.0,0.9674212,-0.032578826
323,0.1,1.0283711,0.9283711,0.0,0.23386507,0.23386507,0.1,0.104765184,0.0047651827,0.05,0.061698418,0.011698417,0.05,0.011430033,-0.03856997,0.1,0.1544069,0.054406904,1.0,0.9532631,-0.046736896,0.0,0.05555572,0.05555572,0.2,0.19979289,-0.00020711124,0.05,0.051267505,0.001267504,0.02,0.021307172,0.0013071727,1.0,1.0034395,0.0034395456,0.5,0.49534467,-0.0046553314
7686,1.05,1.0752634,0.025263429,0.0,0.28352588,0.28352588,0.3,0.10011874,-0.19988127,0.1,0.06784692,-0.032153085,0.01,0.046359483,0.03635948,0.1,0.102821335,0.0028213337,0.5,1.0282056,0.52820563,0.0,0.05109812,0.05109812,0.2,0.29861477,0.09861477,0.05,0.048807256,-0.0011927448,0.05,0.047585364,-0.0024146363,0.5,0.9978396,0.49783963,1.0,0.9805023,-0.019497693
12323,2.0,0.8882231,-1.1117768,0.0,0.32432514,0.32432514,0.1,0.10059407,0.00059407204,0.05,0.062188078,0.012188077,0.01,0.0498209,0.039820902,0.1,0.1039143,0.0039142966,0.5,0.53255445,0.032554448,0.1,0.0054521924,-0.09454781,0.2,0.20326366,0.0032636523,0.05,0.10121975,0.05121975,0.02,0.048719823,0.028719824,1.0,0.96645236,-0.03354764,0.5,0.98765945,0.48765945
5199,0.1,1.9446145,1.8446145,0.4,0.40293998,0.0029399693,0.3,0.29588556,-0.004114449,0.05,0.09080778,0.04080778,0.01,0.010896883,0.0008968832,0.1,0.19849595,0.09849595,1.0,0.51764137,-0.48235863,0.0,0.041693453,0.041693453,0.2,0.29858539,0.09858538,0.1,0.05055868,-0.049441323,0.05,0.020881163,-0.029118838,1.0,0.9824295,-0.017570496,0.5,0.98810387,0.48810387
3182,0.1,1.9619871,1.8619871,0.2,-0.027878502,-0.22787851,0.3,0.27887067,-0.02112934,0.05,0.07560227,0.02560227,0.01,0.049443666,0.039443664,0.1,0.11669233,0.016692325,1.0,0.48874196,-0.511258,0.1,0.05718211,-0.04281789,0.2,0.1999002,-9.980798e-05,0.1,0.09614493,-0.003855072,0.05,0.048699018,-0.0013009831,0.5,0.98298216,0.48298216,1.0,0.9714171,-0.028582871
10960,1.05,0.8815409,-0.16845906,0.4,0.03582534,-0.36417466,0.1,0.08329918,-0.01670082,0.1,0.06617045,-0.033829555,0.01,0.050432175,0.040432177,0.2,0.12738994,-0.072610065,1.0,0.83007705,-0.16992295,0.0,0.0024244809,0.0024244809,0.2,0.20150758,0.0015075803,0.1,0.053258985,-0.046741016,0.05,0.04861813,-0.0013818704,1.0,1.0094712,0.009471178,1.0,1.0221035,0.022103548
3652,0.1,1.9510219,1.8510219,0.2,0.17200193,-0.027998075,0.3,0.28169367,-0.018306345,0.1,0.048545342,-0.05145466,0.01,0.009947426,-5.257409e-05,0.1,0.19533801,0.09533801,1.0,0.8506202,-0.14937979,0.0,0.03935104,0.03935104,0.2,0.2042042,0.0042041987,0.05,0.098873995,0.048873994,0.02,0.019697187,-0.00030281208,1.0,0.5185436,-0.4814564,1.0,0.98181534,-0.018184662
11759,1.05,0.15013419,-0.89986575,0.4,0.2197376,-0.1802624,0.3,0.18436961,-0.1156304,0.05,0.09851724,0.04851724,0.05,0.04707782,-0.002922181,0.2,0.19469173,-0.0053082705,1.0,0.91639584,-0.08360416,0.1,0.060767014,-0.039232988,0.2,0.2004722,0.0004722029,0.1,0.097996034,-0.0020039678,0.05,0.018644951,-0.03135505,1.0,0.5054576,-0.49454242,0.5,0.89791775,0.39791775
4772,0.1,0.23986782,0.13986781,0.4,0.17454484,-0.22545516,0.1,0.15694997,0.056949966,0.1,0.052378632,-0.04762137,0.01,0.049600754,0.039600752,0.2,0.11614834,-0.083851665,0.5,1.004801,0.50480103,0.1,0.0693103,-0.030689701,0.2,0.20047261,0.00047260523,0.05,0.10092714,0.050927136,0.02,0.018934758,-0.0010652412,1.0,0.98887396,-0.011126041,1.0,0.4890085,-0.5109915
3074,0.1,1.077195,0.977195,0.2,-0.00045419933,-0.2004542,0.3,0.1147274,-0.1852726,0.05,0.062319208,0.012319207,0.01,0.048949786,0.038949788,0.1,0.12113956,0.021139562,0.5,0.49326992,-0.0067300797,0.0,0.078115195,0.078115195,0.2,0.1977222,-0.0022778064,0.05,0.051386427,0.0013864264,0.02,0.047580164,0.027580164,0.5,0.5096478,0.009647787,1.0,0.52740943,-0.47259057
10612,1.05,1.927685,0.87768507,0.4,0.12116641,-0.2788336,0.1,0.105253205,0.005253203,0.05,0.0751594,0.0251594,0.05,0.00913123,-0.04086877,0.1,0.20294464,0.102944635,1.0,0.9207727,-0.07922733,0.1,0.041215304,-0.058784697,0.3,0.19792168,-0.10207833,0.05,0.10031021,0.050310206,0.02,0.049160473,0.029160473,1.0,0.980739,-0.019261003,1.0,0.9862394,-0.013760626
12818,2.0,2.004051,0.00405097,0.0,0.019457858,0.019457858,0.1,0.30225796,0.20225796,0.1,0.088851735,-0.0111482665,0.01,0.009652283,-0.00034771673,0.1,0.103360154,0.0033601522,0.5,0.953493,0.453493,0.0,0.028999234,0.028999234,0.3,0.30307025,0.0030702353,0.05,0.04983916,-0.00016083941,0.02,0.048889533,0.028889533,0.5,0.518217,0.018217027,1.0,1.005435,0.00543499
12409,2.0,0.13936369,-1.8606364,0.0,0.2204195,0.2204195,0.1,0.15700297,0.05700297,0.05,0.09684607,0.046846066,0.01,0.054145213,0.04414521,0.1,0.20857589,0.10857589,1.0,0.6702723,-0.3297277,0.1,0.08378822,-0.016211778,0.3,0.20927346,-0.090726554,0.1,0.099293195,-0.0007068068,0.02,0.049288455,0.029288456,0.5,0.5096953,0.0096952915,0.5,0.6229282,0.1229282
2752,0.1,1.1180476,1.0180476,0.2,0.28190678,0.08190678,0.1,0.29331154,0.19331154,0.1,0.105682276,0.0056822747,0.01,0.009105932,-0.0008940678,0.2,0.19785647,-0.002143532,0.5,0.9867138,0.48671383,0.1,0.032043252,-0.067956746,0.3,0.29942903,-0.0005709827,0.1,0.050729226,-0.049270775,0.05,0.020277135,-0.029722866,1.0,0.9967985,-0.0032014847,1.0,0.52633286,-0.47366714
4719,0.1,1.9818364,1.8818364,0.4,0.39126053,-0.008739471,0.1,0.29743624,0.19743624,0.1,0.0889045,-0.0110955015,0.01,0.009645004,-0.00035499595,0.1,0.19990197,0.09990197,1.0,0.49017692,-0.5098231,0.1,0.02407149,-0.07592851,0.2,0.29737052,0.09737052,0.1,0.09820708,-0.0017929226,0.05,0.049890336,-0.000109665096,1.0,0.5061567,-0.49384332,0.5,0.98273635,0.48273635
14489,2.0,1.9634385,-0.03656149,0.2,0.32080808,0.12080808,0.1,0.1030455,0.0030454993,0.05,0.06334956,0.013349559,0.01,0.010357213,0.00035721343,0.2,0.09516852,-0.10483148,0.5,0.6513609,0.15136093,0.0,0.05180729,0.05180729,0.3,0.20157254,-0.098427474,0.1,0.09847796,-0.0015220419,0.02,0.050303698,0.030303698,0.5,0.99345225,0.49345225,0.5,0.9794334,0.47943342
16388,2.0,1.8872749,-0.11272514,0.4,0.08697737,-0.31302264,0.1,0.28683254,0.18683255,0.05,0.08428779,0.03428779,0.01,0.04892611,0.03892611,0.1,0.18746552,0.08746552,0.5,0.53687984,0.036879838,0.0,0.07052598,0.07052598,0.2,0.2883341,0.0883341,0.05,0.09372938,0.043729376,0.02,0.02118265,0.0011826511,1.0,0.9929416,-0.007058382,1.0,0.5228774,-0.4771226
15074,2.0,1.0477787,-0.9522213,0.2,0.28453594,0.08453594,0.1,0.27624655,0.17624655,0.1,0.08730717,-0.012692831,0.01,0.011430132,0.0014301324,0.2,0.18792702,-0.01207298,1.0,0.9711634,-0.028836608,0.1,0.071015,-0.028985001,0.2,0.29237887,0.09237887,0.05,0.0974583,0.047458302,0.02,0.023576127,0.0035761278,0.5,0.9837539,0.48375392,1.0,0.5232503,-0.47674972
5922,0.1,0.94688374,0.8468837,0.4,0.24783826,-0.15216175,0.3,0.121622406,-0.1783776,0.1,0.06509049,-0.03490951,0.05,0.0115557145,-0.038444288,0.1,0.19979484,0.09979484,0.5,0.9784754,0.4784754,0.1,0.06892578,-0.031074218,0.2,0.20463428,0.004634276,0.05,0.0973986,0.0473986,0.02,0.049879063,0.029879063,0.5,0.4999391,-6.0886145e-05,1.0,0.9907055,-0.00929451
8100,1.05,0.075581945,-0.974418,0.0,0.19534323,0.19534323,0.3,0.17955762,-0.12044239,0.1,0.051501103,-0.0484989,0.05,0.01382513,-0.03617487,0.2,0.10453969,-0.09546031,0.5,0.501658,0.0016580224,0.1,-0.00015820116,-0.1001582,0.2,0.29389402,0.09389402,0.05,0.09980382,0.04980382,0.02,0.04950258,0.029502582,1.0,0.54168916,-0.45831084,1.0,0.9534195,-0.046580493
14082,2.0,1.081728,-0.918272,0.0,0.3100495,0.3100495,0.3,0.09732547,-0.20267454,0.1,0.081340544,-0.018659458,0.05,0.047910023,-0.0020899773,0.1,0.20812254,0.108122535,0.5,0.9609011,0.46090108,0.0,0.031084392,0.031084392,0.2,0.30031356,0.10031356,0.05,0.05136583,0.0013658293,0.02,0.050190724,0.030190725,0.5,1.0009722,0.50097215,1.0,1.0071089,0.007108927
5602,0.1,1.9397461,1.8397461,0.4,0.41020927,0.010209262,0.3,0.2956929,-0.004307121,0.05,0.074137606,0.024137605,0.05,0.011621665,-0.038378336,0.2,0.115067765,-0.08493224,1.0,0.49871364,-0.5012864,0.1,0.05391904,-0.04608096,0.2,0.20086946,0.00086945295,0.05,0.09927659,0.049276587,0.02,0.020682422,0.0006824229,0.5,0.5214015,0.021401525,1.0,0.49691042,-0.50308955
14214,2.0,0.17466207,-1.8253379,0.0,0.25341338,0.25341338,0.3,0.22852068,-0.071479335,0.1,0.09904865,-0.00095134974,0.05,0.050226584,0.00022658333,0.2,0.19810763,-0.001892373,0.5,0.48751307,-0.012486935,0.0,0.045797065,0.045797065,0.2,0.21072957,0.010729566,0.05,0.050181787,0.00018178672,0.05,0.022346245,-0.027653756,0.5,0.54411554,0.044115543,1.0,1.0103137,0.010313749
14280,2.0,2.0165908,0.016590834,0.0,-0.035172895,-0.035172895,0.3,0.30728322,0.0072832108,0.1,0.095140144,-0.0048598573,0.05,0.00962765,-0.04037235,0.2,0.109003626,-0.09099638,1.0,0.5982146,-0.40178537,0.0,0.04563614,0.04563614,0.2,0.3025974,0.1025974,0.05,0.05068283,0.0006828308,0.05,0.04698392,-0.0030160807,1.0,0.52206856,-0.47793144,1.0,0.49879932,-0.5012007
2741,0.1,1.9185411,1.818541,0.2,0.048482854,-0.15151715,0.1,0.08736374,-0.012636259,0.1,0.067619994,-0.032380007,0.01,0.011876762,0.0018767621,0.2,0.13873969,-0.061260313,0.5,0.8749588,0.3749588,0.1,0.057247568,-0.042752434,0.3,0.1999764,-0.10002361,0.05,0.050042313,4.2311847e-05,0.05,0.0496888,-0.00031119958,0.5,0.9823872,0.48238719,0.5,0.5313807,0.031380713
14129,2.0,1.9793444,-0.020655632,0.0,0.21705918,0.21705918,0.3,0.3041158,0.00411579,0.1,0.07042383,-0.029576175,0.05,0.050870024,0.0008700229,0.1,0.119488634,0.019488633,0.5,0.64205766,0.14205766,0.1,0.035572935,-0.06442706,0.3,0.19844235,-0.10155766,0.05,0.09850712,0.04850712,0.02,0.02128727,0.0012872703,0.5,0.5037253,0.0037252903,0.5,0.5031283,0.0031282902
737,0.1,1.021519,0.9215189,0.0,0.13813503,0.13813503,0.1,0.29420057,0.19420058,0.1,0.06359854,-0.036401458,0.01,0.010413563,0.0004135631,0.2,0.10932531,-0.09067469,1.0,0.9560369,-0.043963075,0.1,0.088373825,-0.011626177,0.2,0.3042324,0.104232386,0.05,0.09965024,0.04965024,0.02,0.050504286,0.030504286,0.5,1.0045176,0.50451756,0.5,0.98471195,0.48471195
18189,2.0,0.16949864,-1.8305013,0.4,0.2708891,-0.1291109,0.3,0.24593775,-0.054062262,0.1,0.04656852,-0.05343148,0.05,0.049801916,-0.00019808486,0.1,0.19662122,0.09662122,0.5,0.5222402,0.022240222,0.0,0.10199282,0.10199282,0.2,0.30923188,0.109231874,0.1,0.09985199,-0.00014801323,0.05,0.04940346,-0.0005965419,0.5,0.9821984,0.48219842,0.5,0.96861887,0.46861887
2459,0.1,1.9024442,1.8024442,0.2,0.08935191,-0.110648096,0.1,0.28668293,0.18668294,0.05,0.07186706,0.021867063,0.05,0.007402318,-0.04259768,0.2,0.16169195,-0.038308054,0.5,0.9656013,0.46560133,0.0,0.04335903,0.04335903,0.3,0.19289416,-0.10710585,0.1,0.09728928,-0.0027107224,0.02,0.050911017,0.030911017,1.0,0.5165745,-0.4834255,0.5,0.4710804,-0.028919607
9246,1.05,1.026883,-0.023116946,0.2,0.15585555,-0.04414445,0.3,0.11099074,-0.18900928,0.05,0.060778774,0.010778774,0.01,0.010102448,0.00010244828,0.1,0.20099087,0.10099087,0.5,0.99507314,0.49507314,0.0,0.044066463,0.044066463,0.3,0.20378251,-0.0962175,0.1,0.09936444,-0.0006355643,0.05,0.020107549,-0.029892452,0.5,0.9878373,0.4878373,1.0,0.98286915,-0.017130852
9869,1.05,0.117675625,-0.93232435,0.2,0.09954443,-0.100455575,0.3,0.10051505,-0.19948496,0.1,0.095384315,-0.004615687,0.01,0.009672099,-0.00032790098,0.2,0.10584819,-0.09415181,0.5,0.9906976,0.49069762,0.0,0.04182604,0.04182604,0.2,0.2912328,0.09123279,0.1,0.052537538,-0.047462463,0.05,0.020044966,-0.029955035,0.5,0.5018478,0.0018478036,0.5,0.4885158,-0.011484206
9539,1.05,1.135529,0.08552909,0.2,0.3085035,0.108503506,0.3,0.30306193,0.0030619204,0.05,0.104650535,0.054650534,0.05,0.052154955,0.0021549538,0.1,0.10156776,0.0015677586,1.0,1.0213366,0.021336555,0.0,0.08851903,0.08851903,0.2,0.20338102,0.0033810139,0.05,0.051314026,0.0013140254,0.02,0.020238644,0.00023864396,1.0,1.0128136,0.012813568,0.5,1.0066593,0.50665927
12637,2.0,1.9090972,-0.090902805,0.0,0.221381,0.221381,0.1,0.10944369,0.009443685,0.05,0.058316864,0.008316863,0.05,0.008748356,-0.041251644,0.1,0.11571078,0.015710779,1.0,1.0099661,0.009966135,0.0,0.0948724,0.0948724,0.3,0.29391116,-0.006088853,0.1,0.099469766,-0.00053023547,0.05,0.020146275,-0.029853726,0.5,0.5102801,0.010280073,0.5,0.49288887,-0.007111132
9053,1.05,1.987829,0.937829,0.2,0.22566967,0.025669664,0.1,0.2748445,0.1748445,0.1,0.080416545,-0.019583456,0.05,0.04831851,-0.0016814917,0.1,0.1632838,0.06328379,1.0,1.0141478,0.0141477585,0.0,0.053610433,0.053610433,0.3,0.20022893,-0.09977108,0.1,0.051065724,-0.048934277,0.05,0.050548907,0.0005489066,0.5,0.500331,0.0003309846,0.5,0.48673466,-0.0132653415
17543,2.0,1.0169096,-0.9830904,0.4,0.012751937,-0.38724807,0.3,0.105776906,-0.1942231,0.05,0.085958146,0.035958145,0.01,0.0122812,0.0022812001,0.2,0.10617807,-0.093821935,0.5,0.49107194,-0.0089280605,0.0,0.021846494,0.021846494,0.2,0.29847294,0.09847294,0.05,0.09678314,0.046783138,0.05,0.047352456,-0.0026475452,1.0,0.51354337,-0.48645663,0.5,0.9928098,0.49280977
5624,0.1,0.94833195,0.8483319,0.4,0.15369841,-0.24630159,0.3,0.11604733,-0.18395269,0.05,0.08477231,0.03477231,0.05,0.010080409,-0.039919592,0.2,0.13365903,-0.06634097,1.0,0.5541621,-0.44583791,0.1,0.0801409,-0.019859098,0.3,0.20289454,-0.09710547,0.05,0.099688604,0.049688604,0.05,0.020146094,-0.029853906,1.0,0.49827802,-0.501722,1.0,0.50583273,-0.49416727
3103,0.1,0.08644007,-0.01355993,0.2,0.1505529,-0.049447104,0.3,0.18518865,-0.11481136,0.05,0.10050116,0.050501157,0.01,0.010167737,0.00016773678,0.1,0.19631153,0.09631153,0.5,0.528549,0.028549016,0.0,0.029194638,0.029194638,0.3,0.20596485,-0.09403516,0.1,0.09701246,-0.0029875413,0.05,0.021165041,-0.02883496,1.0,0.990168,-0.009832025,0.5,0.9726472,0.4726472
6864,1.05,1.0344701,-0.015529871,0.0,0.30298388,0.30298388,0.1,0.2889179,0.1889179,0.1,0.07920253,-0.020797469,0.01,0.01114259,0.0011425903,0.2,0.14448504,-0.05551496,1.0,0.47816437,-0.5218356,0.0,0.057344012,0.057344012,0.2,0.19898404,-0.0010159612,0.1,0.09955259,-0.00044741482,0.05,0.049467187,-0.00053281337,1.0,0.98976576,-0.010234237,1.0,0.5039482,-0.4960518
12538,2.0,2.0236635,0.02366352,0.0,0.16575654,0.16575654,0.1,0.30083752,0.20083752,0.05,0.071395054,0.021395054,0.01,0.049508143,0.03950814,0.2,0.1980429,-0.0019571036,1.0,0.98871386,-0.0112861395,0.1,0.069548406,-0.030451596,0.3,0.1953775,-0.10462251,0.1,0.04870807,-0.05129193,0.02,0.04880821,0.02880821,0.5,0.5199053,0.019905329,1.0,0.98419476,-0.015805244
12877,2.0,1.0214179,-0.97858214,0.0,0.1830177,0.1830177,0.1,0.29746005,0.19746006,0.1,0.108465955,0.008465953,0.01,0.050703317,0.04070332,0.1,0.19687513,0.09687512,1.0,0.97934395,-0.02065605,0.0,0.07833965,0.07833965,0.2,0.29125056,0.091250554,0.1,0.048397463,-0.05160254,0.05,0.020836923,-0.029163077,0.5,1.0069659,0.5069659,0.5,0.5352613,0.035261273
12919,2.0,1.8986603,-0.1013397,0.0,0.15686302,0.15686302,0.1,0.21051057,0.110510565,0.1,0.07772556,-0.022274442,0.01,0.010946308,0.0009463085,0.1,0.12602732,0.026027314,1.0,0.94813365,-0.051866353,0.1,0.026014945,-0.073985055,0.3,0.19823606,-0.10176395,0.05,0.098205045,0.048205044,0.05,0.05003211,3.2108277e-05,1.0,0.52134603,-0.47865397,0.5,0.4959686,-0.00403139
6631,1.05,0.09960443,-0.9503955,0.0,0.20591053,0.20591053,0.1,0.19202186,0.09202186,0.05,0.100071594,0.050071593,0.05,0.010502768,-0.039497234,0.2,0.18680601,-0.013193995,1.0,0.7972343,-0.2027657,0.1,0.07726287,-0.02273713,0.2,0.27243397,0.07243396,0.05,0.1010227,0.051022697,0.05,0.048968323,-0.0010316782,1.0,0.5047786,-0.49522138,0.5,0.8667966,0.3667966
6308,1.05,1.0787714,0.0287714,0.0,0.06566828,0.06566828,0.1,0.29475102,0.19475102,0.05,0.0874963,0.037496302,0.01,0.0502658,0.0402658,0.2,0.14400345,-0.055996552,0.5,1.0110245,0.5110245,0.1,0.043230303,-0.0567697,0.2,0.29603526,0.09603526,0.05,0.099136606,0.049136605,0.02,0.051325753,0.031325754,1.0,0.97601664,-0.02398336,1.0,0.5235763,-0.47642368
10248,1.05,0.15681188,-0.89318806,0.4,0.20654619,-0.19345382,0.1,0.18840575,0.08840575,0.05,0.097326115,0.047326114,0.01,0.04637556,0.03637556,0.1,0.20017555,0.10017555,0.5,0.5146313,0.014631271,0.0,0.07195662,0.07195662,0.2,0.20195743,0.0019574314,0.05,0.052468188,0.0024681874,0.05,0.04686014,-0.003139861,1.0,0.9891354,-0.010864615,1.0,0.5139065,-0.48609352
9513,1.05,1.0490758,-0.0009241104,0.2,0.04320131,-0.15679869,0.3,0.09707215,-0.20292786,0.05,0.053816922,0.0038169213,0.05,0.01142643,-0.03857357,0.1,0.13768189,0.037681885,0.5,0.7736402,0.27364022,0.1,0.03787174,-0.06212826,0.2,0.20544262,0.0054426193,0.1,0.050206445,-0.049793556,0.02,0.048724003,0.028724004,0.5,0.99111867,0.49111867,0.5,0.50812453,0.00812453
8878,1.05,2.0068336,0.9568336,0.2,0.032746248,-0.16725376,0.1,0.12501416,0.025014155,0.1,0.07367695,-0.02632305,0.01,0.049808446,0.039808445,0.2,0.16755323,-0.03244677,0.5,0.6971764,0.1971764,0.1,0.031016028,-0.06898397,0.2,0.19851594,-0.0014840662,0.1,0.05219822,-0.04780178,0.05,0.0493605,-0.00063950196,0.5,1.0048544,0.50485444,1.0,0.49750978,-0.5024902
12800,2.0,1.0826126,-0.91738737,0.0,0.33282372,0.33282372,0.1,0.1072221,0.007222101,0.05,0.06515695,0.015156951,0.05,0.010191781,-0.03980822,0.2,0.20503962,0.0050396174,1.0,1.0120246,0.012024641,0.1,0.061833072,-0.03816693,0.3,0.20406695,-0.095933065,0.1,0.09893902,-0.001060985,0.05,0.019894173,-0.030105827,1.0,0.9927306,-0.0072693825,1.0,0.98622,-0.013779998
7811,1.05,0.10831742,-0.9416825,0.0,0.26796275,0.26796275,0.3,0.20789851,-0.0921015,0.1,0.054446496,-0.045553505,0.01,0.048108947,0.038108945,0.2,0.09708239,-0.10291761,0.5,0.50736177,0.0073617697,0.0,0.0130506335,0.0130506335,0.2,0.19735886,-0.0026411414,0.05,0.050613265,0.00061326474,0.02,0.04682203,0.02682203,1.0,0.5048253,-0.4951747,0.5,1.0189722,0.51897216
9237,1.05,0.10284764,-0.9471523,0.2,0.11291069,-0.087089315,0.3,0.116671965,-0.18332805,0.05,0.10057397,0.05057397,0.01,0.0111115435,0.0011115437,0.1,0.10189482,0.0018948168,0.5,1.0211053,0.5211053,0.0,0.05183681,0.05183681,0.3,0.20246892,-0.097531095,0.05,0.050269503,0.0002695024,0.05,0.05051355,0.0005135499,0.5,0.5045473,0.004547298,0.5,1.039514,0.53951395
11794,1.05,0.19020179,-0.8597982,0.4,0.24142253,-0.15857747,0.3,0.20731466,-0.09268536,0.1,0.04948071,-0.05051929,0.01,0.04174182,0.03174182,0.1,0.19912079,0.09912079,0.5,0.52182865,0.021828651,0.0,0.07046132,0.07046132,0.3,0.29758415,-0.0024158657,0.05,0.048166376,-0.0018336251,0.02,0.04955927,0.02955927,0.5,0.51240325,0.01240325,1.0,0.98693264,-0.013067365
15293,2.0,1.8997247,-0.10027528,0.2,0.097451545,-0.10254846,0.1,0.104519136,0.0045191348,0.1,0.07010858,-0.029891424,0.05,0.049162947,-0.0008370541,0.2,0.19967683,-0.00032317638,0.5,0.48321718,-0.01678282,0.1,0.028791916,-0.07120809,0.3,0.29553685,-0.004463166,0.1,0.05287249,-0.04712751,0.05,0.04497311,-0.005026892,0.5,0.97523427,0.47523427,0.5,0.5058978,0.00589782
2280,0.1,1.0504048,0.95040476,0.2,0.123171434,-0.07682857,0.1,0.09723555,-0.0027644485,0.05,0.08398711,0.03398711,0.01,0.048008107,0.03800811,0.2,0.10652606,-0.09347394,1.0,0.97974133,-0.020258665,0.1,0.03437461,-0.06562539,0.2,0.20305723,0.0030572265,0.05,0.094167925,0.044167925,0.05,0.05102394,0.0010239407,1.0,0.9842108,-0.01578921,1.0,0.95674413,-0.043255866
5029,0.1,1.0702566,0.97025657,0.4,0.19216183,-0.20783818,0.1,0.09951342,-0.00048658252,0.1,0.092185415,-0.007814586,0.05,0.049870778,-0.00012922287,0.2,0.19785859,-0.002141416,0.5,0.9755728,0.47557282,0.1,0.0922207,-0.0077793,0.2,0.20197968,0.0019796789,0.05,0.04911841,-0.00088158995,0.05,0.020816276,-0.029183725,0.5,0.97726285,0.47726285,0.5,0.98665154,0.48665154
17098,2.0,0.08430921,-1.9156908,0.4,0.17018013,-0.22981988,0.1,0.15260778,0.052607782,0.1,0.103599764,0.003599763,0.01,0.026942978,0.016942978,0.2,0.19932313,-0.00067687035,1.0,0.5146217,-0.48537832,0.0,0.09749762,0.09749762,0.2,0.29512993,0.09512992,0.1,0.05157619,-0.04842381,0.02,0.04896224,0.02896224,0.5,0.9768652,0.47686517,1.0,1.008448,0.008448005
14674,2.0,2.0082388,0.008238792,0.2,0.19884585,-0.0011541545,0.1,0.100869805,0.00086980313,0.05,0.07155466,0.02155466,0.05,0.047859263,-0.002140738,0.1,0.1258057,0.025805704,1.0,1.0030302,0.003030181,0.0,0.07198828,0.07198828,0.3,0.29939964,-0.0006003678,0.05,0.10008216,0.05008216,0.02,0.050901014,0.030901015,0.5,0.51713616,0.017136157,1.0,0.5072505,-0.4927495
10650,1.05,0.23631822,-0.8136817,0.4,0.22549066,-0.17450935,0.1,0.12771025,0.027710252,0.05,0.101136185,0.051136184,0.05,0.04459628,-0.00540372,0.2,0.18927905,-0.010720953,0.5,0.987272,0.48727202,0.0,0.05530358,0.05530358,0.3,0.20304947,-0.096950546,0.1,0.054515284,-0.045484718,0.02,0.05110197,0.031101972,0.5,0.98977786,0.48977786,1.0,0.5177034,-0.4822966
6146,1.05,0.19398476,-0.8560152,0.0,0.14673099,0.14673099,0.1,0.16215485,0.06215485,0.05,0.05404342,0.004043419,0.01,0.045297418,0.035297416,0.1,0.11079125,0.01079125,0.5,0.9917378,0.49173778,0.0,0.0387284,0.0387284,0.2,0.20431031,0.00431031,0.05,0.09919266,0.049192656,0.02,0.019960906,-3.9093196e-05,0.5,0.5122848,0.012284815,1.0,0.9785622,-0.021437824
16889,2.0,0.105882406,-1.8941176,0.4,0.17809086,-0.22190915,0.1,0.12605387,0.026053868,0.05,0.054100245,0.0041002445,0.05,0.015592234,-0.034407765,0.2,0.19850725,-0.0014927536,1.0,0.53557694,-0.46442306,0.1,0.060608674,-0.039391328,0.3,0.20642447,-0.09357554,0.1,0.051107574,-0.048892427,0.02,0.04789369,0.027893692,0.5,0.9974943,0.49749428,0.5,0.9686066,0.4686066
6897,1.05,0.18920454,-0.8607954,0.0,0.16670388,0.16670388,0.1,0.257265,0.15726501,0.1,0.0546771,-0.045322903,0.01,0.008991372,-0.0010086279,0.2,0.088784076,-0.11121593,1.0,0.5248241,-0.47517592,0.1,0.06524311,-0.03475689,0.3,0.20281653,-0.09718348,0.05,0.095960625,0.045960624,0.02,0.046158615,0.026158616,0.5,0.5055276,0.0055276155,0.5,1.0036659,0.5036659
2609,0.1,0.18471967,0.084719665,0.2,0.12869537,-0.071304634,0.1,0.14978321,0.049783207,0.1,0.051332228,-0.048667774,0.01,0.0491255,0.039125502,0.1,0.110793985,0.010793984,0.5,1.0111032,0.51110315,0.1,0.069182165,-0.030817837,0.3,0.20794173,-0.092058286,0.05,0.052080184,0.0020801835,0.02,0.019741887,-0.00025811233,0.5,0.9912709,0.4912709,0.5,0.49681196,-0.0031880438
2994,0.1,1.0760063,0.97600627,0.2,0.36238098,0.16238098,0.1,0.1138354,0.0138354,0.1,0.08099879,-0.019001208,0.05,0.048669588,-0.0013304129,0.2,0.16628136,-0.033718646,0.5,0.6202384,0.12023842,0.1,0.05030824,-0.049691763,0.3,0.20501761,-0.0949824,0.05,0.051444273,0.0014442727,0.02,0.04820627,0.02820627,0.5,0.5003905,0.00039052963,1.0,0.5018882,-0.49811178
352,0.1,0.0768975,-0.0231025,0.0,0.20130403,0.20130403,0.1,0.16972774,0.06972774,0.05,0.10115366,0.051153656,0.05,0.013058394,-0.036941607,0.1,0.19281065,0.09281065,1.0,0.51308334,-0.48691666,0.0,0.06133932,0.06133932,0.3,0.19764568,-0.10235433,0.1,0.09795603,-0.00204397,0.05,0.049938213,-6.1787665e-05,1.0,0.5042697,-0.49573028,1.0,0.99938935,-0.0006106496
5269,0.1,2.022989,1.922989,0.4,0.3716842,-0.028315812,0.3,0.2997385,-0.00026151538,0.05,0.05868023,0.008680228,0.01,0.010735769,0.00073576905,0.2,0.08754583,-0.112454176,0.5,0.9575579,0.45755792,0.0,0.041574784,0.041574784,0.3,0.20460205,-0.095397964,0.05,0.05202826,0.0020282604,0.05,0.020474676,-0.029525325,0.5,0.5048409,0.0048409104,0.5,0.5238289,0.023828924
13278,2.0,0.17104298,-1.8289571,0.0,0.224825,0.224825,0.1,0.18115947,0.081159465,0.1,0.050562143,-0.04943786,0.05,0.007517237,-0.042482764,0.2,0.10454694,-0.09545306,1.0,0.5175424,-0.48245758,0.0,0.04466092,0.04466092,0.3,0.30062762,0.0006276071,0.1,0.04960978,-0.05039022,0.05,0.021103997,-0.028896004,0.5,1.0034299,0.5034299,1.0,0.9689845,-0.031015515
9620,1.05,1.0659565,0.015956521,0.2,0.06109794,-0.13890207,0.3,0.30971947,0.009719461,0.05,0.051308125,0.0013081245,0.05,0.04948911,-0.00051089004,0.2,0.19320187,-0.0067981333,0.5,0.9663323,0.46633232,0.0,0.024974382,0.024974382,0.3,0.30047056,0.00047054887,0.05,0.05157887,0.0015788674,0.02,0.0501386,0.0301386,1.0,0.98592776,-0.014072239,1.0,0.9848074,-0.015192628
2137,0.1,1.9736029,1.8736029,0.2,0.37326142,0.17326142,0.1,0.11243836,0.012438357,0.05,0.07981054,0.029810537,0.01,0.048403148,0.038403146,0.1,0.20121817,0.10121817,1.0,0.53119326,-0.46880674,0.0,0.03453628,0.03453628,0.3,0.2964836,-0.0035164058,0.1,0.051410533,-0.048589468,0.02,0.019754319,-0.00024568103,0.5,0.50541496,0.005414963,0.5,0.50962734,0.009627342
17256,2.0,0.11135708,-1.8886429,0.4,0.20874023,-0.19125977,0.1,0.18879974,0.08879974,0.1,0.102279484,0.0022794828,0.05,0.009632052,-0.04036795,0.1,0.20709082,0.10709082,1.0,0.9935674,-0.006432593,0.1,0.07737248,-0.022627525,0.2,0.30070913,0.100709125,0.05,0.051843893,0.001843892,0.05,0.049131613,-0.0008683875,1.0,1.012856,0.012856007,1.0,0.99205965,-0.007940352
8497,1.05,0.20937586,-0.8406241,0.2,0.183897,-0.016103,0.1,0.22889328,0.12889329,0.05,0.0985798,0.0485798,0.05,0.03483367,-0.015166331,0.1,0.10465815,0.0046581477,0.5,0.5041802,0.004180193,0.1,0.024369666,-0.07563034,0.3,0.29408982,-0.005910188,0.05,0.05121728,0.0012172796,0.02,0.020294966,0.00029496662,0.5,0.52639365,0.026393652,0.5,0.988975,0.488975
14378,2.0,1.0591606,-0.9408394,0.2,0.026801998,-0.173198,0.1,0.115364894,0.015364893,0.05,0.079421565,0.029421564,0.01,0.048889227,0.03888923,0.1,0.101449564,0.0014495626,0.5,0.51864076,0.018640757,0.1,0.033120483,-0.06687952,0.2,0.29020226,0.09020226,0.1,0.05133571,-0.04866429,0.02,0.047412522,0.027412523,0.5,0.50764644,0.0076464415,1.0,0.51599437,-0.48400563
12718,2.0,0.19373195,-1.8062681,0.0,0.0023403943,0.0023403943,0.1,0.3342973,0.2342973,0.05,0.072922945,0.022922944,0.05,-0.010290775,-0.060290776,0.2,0.20187044,0.0018704385,0.5,0.6532491,0.15324908,0.1,0.07710387,-0.022896133,0.2,0.24796884,0.047968835,0.1,0.10791256,0.007912561,0.05,0.042047814,-0.007952187,0.5,0.59917223,0.099172235,1.0,0.6559471,-0.3440529
8675,1.05,1.0041009,-0.045899034,0.2,0.36679044,0.16679044,0.1,0.32098547,0.22098547,0.05,0.07519498,0.025194976,0.05,0.048979845,-0.0010201558,0.2,0.1287375,-0.07126251,1.0,1.0124928,0.012492776,0.1,0.07597043,-0.024029568,0.2,0.2962881,0.0962881,0.05,0.099486195,0.049486194,0.02,0.051011786,0.031011786,1.0,0.50004447,-0.49995553,0.5,0.5136971,0.013697088
8538,1.05,0.13530429,-0.9146957,0.2,0.2211906,0.021190599,0.1,0.22247908,0.12247907,0.05,0.09374124,0.043741237,0.05,0.05084934,0.0008493401,0.1,0.09990851,-9.149313e-05,1.0,0.82631326,-0.17368674,0.0,0.02450988,0.02450988,0.3,0.2799829,-0.020017117,0.1,0.09810768,-0.0018923208,0.02,0.049082007,0.029082008,0.5,0.51699585,0.016995847,1.0,0.9190151,-0.08098489
11153,1.05,0.17698559,-0.87301433,0.4,0.10404299,-0.29595703,0.1,0.19667222,0.096672215,0.1,0.056247808,-0.043752193,0.05,0.011163568,-0.038836434,0.2,0.1069939,-0.093006104,0.5,0.70456904,0.20456904,0.0,0.05224516,0.05224516,0.3,0.19655915,-0.103440866,0.05,0.09301789,0.04301789,0.02,0.041744657,0.021744657,0.5,0.97994757,0.47994757,0.5,0.9974945,0.49749452
425,0.1,1.0566633,0.95666325,0.0,0.03728523,0.03728523,0.1,0.2798513,0.1798513,0.05,0.048354175,-0.0016458258,0.05,0.012762445,-0.037237555,0.2,0.10531817,-0.09468184,0.5,0.5571718,0.05717182,0.1,0.052160054,-0.047839947,0.2,0.19901662,-0.0009833872,0.1,0.098888166,-0.0011118352,0.02,0.051361766,0.031361766,0.5,1.0010419,0.5010419,0.5,0.9887119,0.4887119
15215,2.0,2.022955,0.02295494,0.2,0.26360774,0.06360774,0.1,0.30655414,0.20655414,0.1,0.10145831,0.0014583096,0.05,0.049897786,-0.000102214515,0.1,0.1024553,0.0024553016,1.0,1.0074438,0.0074437857,0.1,0.101173505,0.0011735037,0.2,0.294632,0.094631985,0.1,0.05071894,-0.04928106,0.05,0.021772195,-0.028227806,1.0,1.0042341,0.0042340755,0.5,0.52273864,0.022738636
9239,1.05,0.14278318,-0.9072168,0.2,0.21570437,0.015704364,0.3,0.21030924,-0.089690775,0.05,0.09555412,0.04555412,0.01,0.0159164,0.0059164,0.1,0.11181374,0.011813737,0.5,0.9812371,0.4812371,0.0,0.030023301,0.030023301,0.3,0.20245439,-0.097545624,0.05,0.051083975,0.0010839738,0.05,0.020288939,-0.029711062,1.0,0.9720855,-0.027914524,0.5,0.52679867,0.026798666
6109,0.1,1.0501059,0.9501059,0.4,0.175213,-0.22478701,0.3,0.096651696,-0.20334831,0.1,0.059483428,-0.040516574,0.05,0.0123203015,-0.0376797,0.2,0.20181027,0.0018102676,1.0,0.97679335,-0.023206651,0.0,0.057590745,0.057590745,0.3,0.29764292,-0.0023570955,0.1,0.051832896,-0.048167106,0.05,0.047386073,-0.0026139282,0.5,0.51841635,0.018416345,0.5,0.4986934,-0.0013065934
274,0.1,0.9959067,0.8959067,0.0,0.2956524,0.2956524,0.1,0.2751376,0.17513761,0.05,0.07732488,0.027324881,0.05,0.050791707,0.00079170614,0.1,0.13086526,0.03086526,0.5,1.0582283,0.55822825,0.0,0.050865255,0.050865255,0.3,0.20650789,-0.09349212,0.05,0.053917944,0.0039179437,0.02,0.048263244,0.028263245,0.5,1.0011809,0.5011809,1.0,0.48550588,-0.5144941
10330,1.05,0.22669028,-0.82330966,0.4,0.16903453,-0.23096548,0.1,0.07851029,-0.02148971,0.05,0.053151198,0.003151197,0.01,0.047969416,0.037969418,0.1,0.10246573,0.002465725,1.0,0.5158007,-0.4841993,0.0,0.050002623,0.050002623,0.3,0.20394325,-0.09605676,0.1,0.053262215,-0.046737786,0.02,0.019472182,-0.00052781776,0.5,0.5243811,0.024381101,1.0,0.48515165,-0.51484835
15075,2.0,2.0029936,0.0029935837,0.2,0.20108923,0.0010892302,0.1,0.08778229,-0.012217708,0.1,0.078718014,-0.021281987,0.01,0.009393338,-0.00060666166,0.2,0.116400205,-0.0835998,1.0,1.1433746,0.14337456,0.1,0.049302798,-0.050697204,0.2,0.29434356,0.09434356,0.05,0.05218759,0.002187591,0.02,0.049947098,0.029947098,1.0,0.9739409,-0.026059091,0.5,0.51071954,0.010719538
5996,0.1,0.15345046,0.053450458,0.4,0.09638391,-0.3036161,0.3,0.19835263,-0.10164738,0.1,0.05447507,-0.045524932,0.05,0.011277268,-0.03872273,0.1,0.10586865,0.005868651,1.0,0.79259974,-0.20740026,0.1,0.061097197,-0.038902804,0.2,0.20161963,0.0016196221,0.1,0.09393442,-0.0060655847,0.02,0.034839455,0.0148394555,1.0,0.96872634,-0.031273663,1.0,1.0449328,0.044932842
17744,2.0,2.052,0.052000046,0.4,-0.018391302,-0.41839132,0.3,0.30788863,0.007888615,0.05,0.06741637,0.01741637,0.05,0.05002345,2.3450702e-05,0.1,0.20033517,0.10033517,1.0,0.9954201,-0.0045799017,0.0,0.052042983,0.052042983,0.2,0.19737846,-0.0026215464,0.1,0.049373798,-0.050626203,0.05,0.049469046,-0.00053095445,1.0,0.5241704,-0.4758296,1.0,0.979351,-0.020649016
1711,0.1,1.9821125,1.8821125,0.0,0.12290089,0.12290089,0.3,0.10001479,-0.19998522,0.1,0.054234643,-0.04576536,0.01,0.011100173,0.0011001732,0.2,0.12212702,-0.077872984,0.5,0.9485069,0.4485069,0.1,0.05621192,-0.043788083,0.2,0.2929828,0.092982784,0.1,0.1004922,0.00049220026,0.05,0.020599695,-0.029400306,1.0,0.9974561,-0.0025439262,0.5,0.5261693,0.0261693
3116,0.1,1.0446035,0.94460344,0.2,0.013342509,-0.18665749,0.3,0.10612143,-0.19387859,0.05,0.05929013,0.009290129,0.01,0.011915404,0.0019154046,0.1,0.1075148,0.007514797,0.5,0.8871694,0.38716942,0.1,0.037409496,-0.06259051,0.2,0.20488699,0.004886985,0.1,0.051554084,-0.048445918,0.02,0.020033712,3.3712015e-05,1.0,0.99009585,-0.009904146,1.0,0.9843632,-0.015636802
17012,2.0,0.12715921,-1.8728408,0.4,0.23309831,-0.1669017,0.1,0.26919127,0.16919127,0.1,0.051232558,-0.048767444,0.01,0.049793176,0.03979318,0.1,0.10182979,0.0018297881,1.0,0.99463665,-0.005363345,0.1,0.008332741,-0.09166726,0.3,0.20971954,-0.09028047,0.05,0.05001079,1.0788441e-05,0.02,0.019047465,-0.0009525344,1.0,0.5241382,-0.4758618,1.0,0.99875396,-0.0012460351
16813,2.0,1.0865797,-0.9134203,0.4,-0.01999239,-0.4199924,0.1,0.10294509,0.0029450879,0.05,0.06004144,0.010041438,0.05,0.047846988,-0.002153013,0.2,0.15409073,-0.04590927,0.5,0.95263225,0.45263225,0.1,0.05235505,-0.04764495,0.2,0.29871818,0.09871818,0.1,0.0991616,-0.00083839893,0.05,0.04864833,-0.0013516694,0.5,0.5143557,0.014355719,0.5,0.5079579,0.007957876
16998,2.0,0.20874481,-1.7912552,0.4,0.10967324,-0.29032677,0.1,0.23112468,0.13112468,0.1,0.05165698,-0.04834302,0.01,0.03701359,0.02701359,0.1,0.10435064,0.00435064,1.0,0.4858084,-0.5141916,0.1,0.027512114,-0.07248789,0.2,0.2936931,0.09369309,0.05,0.10193296,0.051932957,0.05,0.017721161,-0.03227884,0.5,0.52831143,0.028311431,1.0,0.5358122,-0.4641878
1420,0.1,1.916031,1.816031,0.0,0.33354223,0.33354223,0.3,0.19346473,-0.106535286,0.05,0.08028214,0.030282136,0.05,0.04761158,-0.0023884214,0.2,0.14218995,-0.057810053,0.5,0.46982032,-0.03017968,0.0,0.052248783,0.052248783,0.2,0.20974378,0.00974378,0.1,0.09891573,-0.0010842681,0.02,0.048752546,0.028752547,1.0,0.5371738,-0.4628262,1.0,0.46787068,-0.5321293
4900,0.1,1.9149517,1.8149517,0.4,0.22007982,-0.17992018,0.1,0.10007404,7.403642e-05,0.1,0.054246593,-0.04575341,0.05,0.04782402,-0.0021759793,0.1,0.17835608,0.07835608,0.5,0.81875134,0.31875134,0.1,0.071114756,-0.028885245,0.2,0.20786072,0.00786072,0.05,0.051581312,0.0015813112,0.02,0.019384347,-0.00061565265,1.0,0.5121806,-0.48781937,1.0,0.49747112,-0.5025289
8117,1.05,0.08529923,-0.9647007,0.0,0.23655777,0.23655777,0.3,0.24483319,-0.055166826,0.1,0.056104463,-0.04389554,0.05,0.052158725,0.0021587238,0.2,0.20326439,0.0032643825,0.5,0.53325164,0.033251643,0.1,0.102709725,0.002709724,0.3,0.19962068,-0.10037933,0.05,0.05003174,3.1739473e-05,0.05,0.048801847,-0.001198154,0.5,0.4987036,-0.001296401,0.5,1.0239637,0.5239637
6351,1.05,1.0623605,0.012360573,0.0,0.02512304,0.02512304,0.1,0.11451069,0.014510691,0.05,0.050286077,0.00028607622,0.01,0.01132449,0.0013244906,0.2,0.19993114,-6.8858266e-05,1.0,1.0078721,0.007872105,0.0,0.043490484,0.043490484,0.2,0.20611544,0.0061154366,0.1,0.051078063,-0.04892194,0.05,0.019831952,-0.030168049,1.0,0.9822397,-0.017760277,0.5,0.9911884,0.4911884
2406,0.1,2.0054007,1.9054006,0.2,0.36740747,0.16740747,0.1,0.10818615,0.008186147,0.05,0.06128158,0.01128158,0.05,0.046945617,-0.0030543841,0.1,0.17571387,0.075713865,1.0,0.97266436,-0.027335644,0.1,0.07998578,-0.020014219,0.2,0.19977939,-0.00022061169,0.05,0.05169035,0.0016903505,0.05,0.02045273,-0.02954727,0.5,0.49625316,-0.0037468374,1.0,0.5045432,-0.4954568
17557,2.0,2.0324528,0.03245282,0.4,0.0029620677,-0.39703792,0.3,0.093029685,-0.20697033,0.05,0.078253254,0.028253254,0.01,0.049076118,0.03907612,0.2,0.19912052,-0.00087948143,0.5,0.9602836,0.46028358,0.0,0.0924959,0.0924959,0.3,0.28981122,-0.010188788,0.05,0.047131464,-0.0028685369,0.05,0.04930608,-0.000693921,0.5,0.5121011,0.012101114,0.5,0.5088152,0.008815229
5972,0.1,1.1143521,1.0143521,0.4,0.3311355,-0.068864495,0.3,0.11006542,-0.18993458,0.1,0.07268152,-0.027318485,0.05,0.010802489,-0.039197512,0.1,0.104277894,0.0042778924,1.0,0.512762,-0.487238,0.0,0.04953269,0.04953269,0.3,0.2978476,-0.0021524131,0.05,0.051668536,0.0016685352,0.02,0.02050345,0.00050345063,1.0,0.5188028,-0.48119718,1.0,0.9783567,-0.021643281
9265,1.05,1.9266553,0.87665534,0.2,0.38873094,0.18873094,0.3,0.1094097,-0.19059032,0.05,0.08931959,0.039319586,0.01,0.010533478,0.00053347833,0.1,0.10321637,0.003216371,0.5,0.82684016,0.32684016,0.1,0.04579572,-0.05420428,0.3,0.20237613,-0.097623885,0.05,0.05166044,0.0016604401,0.02,0.021095552,0.001095552,0.5,0.98564464,0.48564464,0.5,1.0021157,0.5021157
4623,0.1,0.1722818,0.0722818,0.4,0.14133017,-0.25866985,0.1,0.2551499,0.1551499,0.1,0.053906273,-0.04609373,0.01,0.011076272,0.0010762727,0.1,0.20129451,0.10129451,0.5,0.50331074,0.00331074,0.0,-0.014211288,-0.014211288,0.2,0.2865634,0.08656339,0.1,0.09255378,-0.007446222,0.05,0.029202087,-0.020797914,1.0,0.963941,-0.036059022,0.5,0.49383706,-0.0061629415
17798,2.0,1.1049035,-0.89509654,0.4,-0.010113689,-0.4101137,0.3,0.28749856,-0.012501448,0.05,0.06363762,0.013637621,0.05,0.009210407,-0.040789593,0.2,0.19748044,-0.0025195628,0.5,0.5007027,0.00070267916,0.0,0.039781857,0.039781857,0.2,0.29418394,0.09418394,0.05,0.05114594,0.0011459403,0.05,0.048074428,-0.0019255728,0.5,0.51138365,0.011383653,1.0,0.98720986,-0.0127901435
9193,1.05,2.0523734,1.0023735,0.2,0.14545104,-0.054548964,0.1,0.30269316,0.20269316,0.1,0.09856593,-0.0014340729,0.05,0.011891854,-0.038108148,0.2,0.20957609,0.009576082,1.0,0.98027503,-0.019724965,0.1,0.039441697,-0.060558304,0.2,0.29734266,0.097342655,0.1,0.1012118,0.0012117997,0.02,0.020590072,0.00059007294,0.5,0.9954423,0.49544227,0.5,0.5266206,0.026620626
8914,1.05,0.11078783,-0.93921214,0.2,0.32368055,0.12368055,0.1,0.23818688,0.13818687,0.1,0.048350338,-0.051649664,0.01,0.011430186,0.0014301864,0.2,0.2085634,0.008563399,1.0,1.0279788,0.027978778,0.0,0.016838094,0.016838094,0.3,0.31611127,0.016111255,0.05,0.099351525,0.049351525,0.02,0.049215578,0.029215578,0.5,1.0100715,0.5100715,1.0,0.98314446,-0.016855538
10616,1.05,1.9201125,0.87011254,0.4,0.028091952,-0.37190807,0.1,0.29462996,0.19462997,0.05,0.078866675,0.028866675,0.05,0.009042509,-0.04095749,0.1,0.20224118,0.10224118,1.0,0.8481782,-0.15182179,0.1,0.04083074,-0.059169263,0.3,0.29893926,-0.0010607541,0.05,0.050612528,0.00061252713,0.05,0.0498227,-0.00017730147,1.0,0.51259136,-0.48740864,1.0,0.97453195,-0.025468051
13204,2.0,1.0392336,-0.96076643,0.0,0.31933686,0.31933686,0.1,0.11774317,0.01774317,0.1,0.06988964,-0.03011036,0.05,0.04323575,-0.0067642517,0.2,0.18028577,-0.019714236,0.5,0.89061403,0.39061403,0.0,0.06705121,0.06705121,0.3,0.19752981,-0.102470204,0.05,0.05386276,0.003862761,0.02,0.021046253,0.0010462534,1.0,0.56635547,-0.43364453,1.0,1.0047026,0.004702568
6070,0.1,0.15624765,0.056247644,0.4,0.22567448,-0.17432553,0.3,0.1709263,-0.12907371,0.1,0.048600726,-0.051399276,0.05,0.048528463,-0.0014715381,0.2,0.13244542,-0.06755458,0.5,0.8429737,0.3429737,0.1,0.03987446,-0.06012554,0.3,0.22690913,-0.07309088,0.05,0.064399555,0.014399555,0.05,0.04079684,-0.009203162,0.5,0.9751199,0.4751199,1.0,0.47062522,-0.5293748
14854,2.0,1.9844612,-0.015538812,0.2,0.23214719,0.032147184,0.1,0.29650748,0.19650748,0.1,0.095745265,-0.004254736,0.01,0.047896646,0.037896648,0.1,0.14466509,0.04466509,0.5,0.46946836,-0.030531645,0.0,0.041174874,0.041174874,0.2,0.3001301,0.100130096,0.05,0.0996068,0.049606796,0.05,0.049370494,-0.000629507,0.5,0.5090606,0.009060621,1.0,0.49917918,-0.5008208
5863,0.1,1.0759842,0.9759842,0.4,0.31738904,-0.082610965,0.3,0.2939423,-0.0060577095,0.1,0.08898081,-0.011019193,0.01,0.010443917,0.00044391677,0.2,0.19989231,-0.00010769069,1.0,0.51750135,-0.48249865,0.1,0.032458656,-0.067541346,0.2,0.29873797,0.09873797,0.05,0.049749203,-0.00025079772,0.05,0.05038081,0.00038081035,1.0,0.99991596,-8.404255e-05,0.5,0.9842396,0.48423958
17373,2.0,0.15692337,-1.8430766,0.4,0.19929488,-0.20070513,0.1,0.10100967,0.0010096654,0.1,0.098850034,-0.0011499673,0.05,0.01025672,-0.039743282,0.2,0.1028739,-0.097126104,1.0,0.9971475,-0.0028524995,0.0,0.062345058,0.062345058,0.3,0.20756452,-0.092435494,0.1,0.10026018,0.00026018173,0.05,0.019518478,-0.030481523,0.5,0.9859549,0.48595488,0.5,0.5089904,0.008990407
4446,0.1,2.0117266,1.9117266,0.4,0.34455663,-0.055443376,0.1,0.28671893,0.18671894,0.05,0.083109796,0.033109795,0.05,0.050683793,0.00068379194,0.1,0.15916781,0.05916781,1.0,1.0414116,0.04141164,0.0,0.044004776,0.044004776,0.3,0.20482819,-0.095171824,0.1,0.051384173,-0.04861583,0.05,0.050210007,0.00021000579,0.5,0.99170244,0.49170244,1.0,0.5128019,-0.4871981
3785,0.1,0.111093745,0.011093743,0.2,0.23654091,0.03654091,0.3,0.13999107,-0.16000894,0.1,0.09784293,-0.0021570697,0.01,0.051347867,0.04134787,0.2,0.097025976,-0.10297403,1.0,0.99331707,-0.0066829324,0.0,0.03209382,0.03209382,0.2,0.19632077,-0.0036792308,0.1,0.10056813,0.0005681291,0.02,0.020394789,0.0003947895,0.5,0.5300345,0.030034482,0.5,1.0642705,0.5642705
8142,1.05,1.9458066,0.89580667,0.0,0.359514,0.359514,0.3,0.11070091,-0.1892991,0.1,0.061286706,-0.038713295,0.05,0.009683895,-0.040316105,0.2,0.101730324,-0.09826968,1.0,1.0154701,0.015470147,0.0,0.047486328,0.047486328,0.2,0.2059793,0.0059792995,0.1,0.0998286,-0.0001714006,0.05,0.019959608,-0.030040393,0.5,0.9869302,0.4869302,1.0,0.9860558,-0.013944209
16858,2.0,0.19180106,-1.8081989,0.4,0.18966137,-0.21033864,0.1,0.18689291,0.08689291,0.05,0.06149537,0.01149537,0.05,0.026701061,-0.02329894,0.2,0.10527488,-0.094725125,1.0,0.51095206,-0.48904794,0.0,0.053965878,0.053965878,0.3,0.29725972,-0.0027402937,0.1,0.050771445,-0.049228556,0.02,0.020498084,0.00049808435,0.5,0.9842588,0.48425877,1.0,0.98375314,-0.016246855
3976,0.1,0.14083216,0.040832154,0.2,0.1375533,-0.0624467,0.3,0.11960987,-0.18039015,0.1,0.102366604,0.0023666024,0.05,0.011015544,-0.038984455,0.2,0.1042787,-0.095721304,0.5,1.0170836,0.51708364,0.0,0.062119722,0.062119722,0.2,0.20762803,0.0076280236,0.05,0.056652814,0.0066528134,0.05,0.044989802,-0.005010199,1.0,0.5136561,-0.48634392,1.0,0.51496166,-0.48503834
10108,1.05,1.1801282,0.13012826,0.2,-0.0023827404,-0.20238274,0.3,0.2908965,-0.009103507,0.1,0.05643759,-0.043562412,0.05,0.050154816,0.00015481561,0.1,0.10234537,0.0023453683,1.0,1.017309,0.01730895,0.1,0.08696854,-0.01303146,0.3,0.30013406,0.00013405085,0.1,0.050702102,-0.0492979,0.02,0.050440446,0.030440446,1.0,0.5136152,-0.4863848,1.0,0.99766433,-0.0023356676
13438,2.0,2.0041132,0.0041131973,0.0,0.30936188,0.30936188,0.3,0.10189078,-0.19810924,0.05,0.0642433,0.014243301,0.01,0.048304576,0.038304575,0.1,0.100063026,6.302446e-05,1.0,1.0364034,0.036403418,0.1,0.010408537,-0.089591466,0.3,0.29062754,-0.009372473,0.1,0.10043876,0.00043875724,0.05,0.020774318,-0.029225683,0.5,0.5127077,0.01270771,1.0,0.5263683,-0.47363168
10202,1.05,2.0262172,0.97621727,0.2,0.26906747,0.06906746,0.3,0.09340992,-0.20659009,0.1,0.09281592,-0.007184081,0.05,0.01180065,-0.03819935,0.2,0.16477522,-0.03522478,1.0,0.9880485,-0.011951506,0.0,0.08190305,0.08190305,0.3,0.20838918,-0.091610834,0.1,0.10166278,0.0016627759,0.02,0.051254325,0.031254325,0.5,0.9967221,0.4967221,1.0,0.505313,-0.49468702
9567,1.05,0.10376615,-0.9462338,0.2,0.23469734,0.03469734,0.3,0.24272747,-0.05727254,0.05,0.097435966,0.047435965,0.05,0.021364382,-0.02863562,0.1,0.15991679,0.059916787,1.0,0.8691403,-0.13085967,0.0,0.03356964,0.03356964,0.3,0.2612875,-0.0387125,0.1,0.100608684,0.00060868263,0.05,0.048272017,-0.0017279834,1.0,0.5034943,-0.49650568,0.5,0.5241602,0.024160206
9098,1.05,1.0645108,0.01451087,0.2,0.3916703,0.19167028,0.1,0.13934319,0.039343186,0.1,0.09485154,-0.005148463,0.05,0.04834032,-0.0016596802,0.2,0.17322566,-0.026774347,0.5,0.9663025,0.4663025,0.0,0.07338972,0.07338972,0.2,0.1994915,-0.0005085021,0.1,0.098780826,-0.0012191758,0.02,0.049443588,0.029443588,0.5,0.9820338,0.4820338,1.0,0.5062651,-0.4937349
12482,2.0,0.20519307,-1.794807,0.0,0.22450349,0.22450349,0.1,0.15603757,0.056037568,0.05,0.09775174,0.047751736,0.01,0.026090093,0.016090093,0.2,0.107498944,-0.09250106,1.0,1.0186967,0.018696666,0.0,0.043614723,0.043614723,0.2,0.20153916,0.0015391558,0.05,0.051232837,0.0012328364,0.02,0.020623043,0.0006230436,0.5,0.9779543,0.47795433,1.0,0.5219246,-0.47807539
1145,0.1,0.10532083,0.005320832,0.0,0.23539254,0.23539254,0.3,0.21274559,-0.08725442,0.05,0.059829414,0.009829413,0.01,0.038322736,0.028322736,0.1,0.19631125,0.09631125,1.0,0.52388215,-0.47611785,0.1,0.0012658372,-0.09873416,0.3,0.2916189,-0.0083810985,0.1,0.049732216,-0.050267786,0.02,0.048428208,0.028428208,0.5,0.53113806,0.031138062,0.5,0.988651,0.48865098
14365,2.0,1.0417238,-0.95827615,0.2,0.32282907,0.122829065,0.1,0.10951752,0.009517521,0.05,0.09462478,0.04462478,0.01,0.05194664,0.041946642,0.1,0.20640662,0.10640662,0.5,1.0551631,0.55516315,0.0,0.09068922,0.09068922,0.3,0.19951913,-0.100480884,0.1,0.0962134,-0.0037866011,0.05,0.01839645,-0.031603552,0.5,0.99559057,0.49559057,0.5,0.99117494,0.49117494
7075,1.05,1.916127,0.866127,0.0,0.30171713,0.30171713,0.1,0.3009219,0.2009219,0.1,0.078468144,-0.021531858,0.05,0.011556232,-0.038443767,0.2,0.14538337,-0.05461663,0.5,0.7595625,0.2595625,0.1,0.036842827,-0.06315717,0.2,0.20029795,0.00029794872,0.05,0.09968598,0.04968598,0.02,0.020570016,0.000570016,1.0,0.98258007,-0.017419934,0.5,0.50615275,0.006152749
12851,2.0,0.09825668,-1.9017433,0.0,0.17310175,0.17310175,0.1,0.1785838,0.0785838,0.1,0.10051148,0.0005114749,0.01,0.009774262,-0.00022573769,0.1,0.19826256,0.098262556,0.5,0.79503363,0.29503363,0.1,0.07622161,-0.023778394,0.3,0.29752105,-0.0024789572,0.05,0.100071825,0.050071824,0.02,0.019138174,-0.0008618254,1.0,0.513495,-0.48650497,0.5,0.77869076,0.27869076
3942,0.1,0.038361248,-0.061638754,0.2,0.19906405,-0.00093595684,0.3,0.1446345,-0.15536551,0.1,0.09752257,-0.0024774298,0.05,0.00911369,-0.040886313,0.1,0.113300845,0.013300844,1.0,1.0423596,0.04235959,0.1,0.02251507,-0.077484936,0.2,0.30821428,0.108214274,0.05,0.09545481,0.04545481,0.05,0.050602175,0.00060217455,0.5,0.99571484,0.49571484,1.0,0.49867436,-0.5013256
14979,2.0,0.14411014,-1.8558898,0.2,0.2964756,0.09647559,0.1,0.26873174,0.16873175,0.1,0.05066971,-0.04933029,0.01,0.05205911,0.04205911,0.2,0.19342193,-0.006578073,0.5,0.5187228,0.018722773,0.0,0.03589748,0.03589748,0.2,0.1978812,-0.002118796,0.05,0.09981632,0.04981632,0.02,0.021293297,0.0012932979,1.0,0.9753052,-0.0246948,0.5,0.48560616,-0.014393836
15239,2.0,1.0625905,-0.9374095,0.2,0.29504108,0.09504108,0.1,0.2942678,0.19426781,0.1,0.081051454,-0.018948548,0.05,0.04940023,-0.00059977174,0.2,0.10360904,-0.09639096,0.5,1.0354872,0.5354872,0.0,0.092839524,0.092839524,0.2,0.30602172,0.10602172,0.05,0.052647144,0.0026471429,0.05,0.049566876,-0.0004331246,1.0,0.9867515,-0.013248503,0.5,1.01652,0.51652
14939,2.0,1.9524043,-0.04759574,0.2,-0.016206924,-0.21620692,0.1,0.29411587,0.19411588,0.1,0.051096242,-0.04890376,0.01,0.0099708615,-2.913829e-05,0.1,0.100148186,0.0001481846,1.0,1.0087583,0.0087583065,0.0,0.015929857,0.015929857,0.3,0.29840255,-0.0015974641,0.1,0.054433633,-0.04556637,0.02,0.049095605,0.029095605,1.0,0.5340475,-0.46595252,0.5,0.5396771,0.039677083
5551,0.1,0.009880925,-0.09011908,0.4,0.099065885,-0.30093414,0.3,0.088266544,-0.21173346,0.05,0.053944986,0.0039449856,0.05,0.053103223,0.0031032227,0.2,0.099911645,-0.10008836,0.5,0.9265595,0.4265595,0.1,0.014827119,-0.085172884,0.2,0.28278115,0.08278115,0.1,0.096939124,-0.0030608773,0.05,0.05072369,0.0007236898,1.0,0.53672427,-0.46327573,0.5,1.0261971,0.5261971
5342,0.1,1.9178566,1.8178566,0.4,0.14718929,-0.25281072,0.3,0.080874726,-0.21912529,0.05,0.07498797,0.02498797,0.01,0.010546407,0.00054640695,0.2,0.17661889,-0.023381114,1.0,0.8717948,-0.12820518,0.0,0.0634168,0.0634168,0.3,0.19765615,-0.10234386,0.1,0.09961101,-0.0003889948,0.05,0.04766732,-0.00233268,0.5,0.99612164,0.49612164,1.0,0.518082,-0.48191798
706,0.1,0.12914868,0.029148676,0.0,0.22897854,0.22897854,0.1,0.25821868,0.15821868,0.1,0.09695975,-0.003040254,0.01,0.04471731,0.034717314,0.2,0.19344598,-0.0065540224,1.0,0.5218161,-0.47818393,0.0,0.06100179,0.06100179,0.2,0.30237183,0.10237183,0.05,0.09807755,0.04807755,0.02,0.048780516,0.028780516,0.5,0.99939036,0.49939036,1.0,0.48701352,-0.5129865
13671,2.0,0.12741795,-1.8725821,0.0,0.18412387,0.18412387,0.3,0.16732782,-0.13267219,0.05,0.04967682,-0.0003231801,0.05,0.048503775,-0.0014962256,0.1,0.18428151,0.08428151,1.0,0.90071696,-0.09928304,0.1,0.05181381,-0.04818619,0.2,0.292542,0.09254201,0.05,0.103018954,0.053018954,0.05,0.048283506,-0.0017164946,1.0,0.9823555,-0.017644525,0.5,0.48130304,-0.018696964
2299,0.1,1.2072561,1.107256,0.2,0.41966885,0.21966885,0.1,0.30572033,0.20572034,0.05,0.054294605,0.004294604,0.01,0.010043452,4.3451786e-05,0.2,0.19721022,-0.0027897805,1.0,0.9745719,-0.025428116,0.1,0.07583763,-0.024162374,0.3,0.30374953,0.0037495196,0.1,0.050832707,-0.049167294,0.02,0.049922533,0.029922534,1.0,0.50717807,-0.49282193,0.5,0.99004894,0.49004894
3844,0.1,0.1314972,0.031497203,0.2,0.32969785,0.12969784,0.3,0.2360164,-0.06398362,0.1,0.048878986,-0.051121015,0.05,0.04127973,-0.008720271,0.1,0.099103674,-0.0008963272,0.5,0.45107603,-0.04892397,0.0,0.06686791,0.06686791,0.2,0.3031575,0.103157505,0.05,0.051367927,0.0013679266,0.02,0.019410068,-0.0005899314,1.0,0.4898127,-0.51018727,1.0,0.46042556,-0.53957444
4857,0.1,0.15986101,0.05986101,0.4,0.23099521,-0.1690048,0.1,0.23107989,0.13107988,0.1,0.09862266,-0.0013773441,0.01,0.03365869,0.023658691,0.2,0.19307469,-0.0069253147,1.0,0.9951266,-0.004873395,0.1,0.008596686,-0.09140331,0.3,0.20327087,-0.096729144,0.1,0.051552616,-0.048447385,0.02,0.01973367,-0.00026633032,0.5,0.9964363,0.4964363,0.5,1.0034432,0.50344324
4105,0.1,1.9175873,1.8175873,0.4,0.3347723,-0.06522772,0.1,0.30150926,0.20150927,0.05,0.07830821,0.028308209,0.01,0.011955176,0.0019551758,0.1,0.13670078,0.036700778,0.5,0.45858884,-0.04141116,0.0,0.050237853,0.050237853,0.2,0.30012578,0.100125775,0.1,0.098057404,-0.0019425973,0.02,0.050452482,0.030452482,0.5,0.97295034,0.47295034,0.5,0.5173646,0.017364621
16834,2.0,1.9028819,-0.09711814,0.4,0.16132195,-0.23867805,0.1,0.103632696,0.0036326945,0.05,0.0719331,0.021933097,0.05,0.04729538,-0.0027046204,0.2,0.19863597,-0.0013640374,1.0,0.9802706,-0.019729376,0.0,0.09191263,0.09191263,0.2,0.2992083,0.09920831,0.05,0.05286895,0.0028689504,0.02,0.020174423,0.00017442368,0.5,0.49901605,-0.0009839535,1.0,0.49709773,-0.50290227
17260,2.0,2.001374,0.0013740063,0.4,0.3927394,-0.0072606206,0.1,0.25113788,0.15113789,0.1,0.06772588,-0.03227412,0.05,0.04806967,-0.00193033,0.1,0.12251663,0.02251663,1.0,0.91825646,-0.08174354,0.1,0.02780791,-0.07219209,0.2,0.21186817,0.011868164,0.1,0.099505365,-0.0004946366,0.02,0.02451901,0.00451901,1.0,0.56477773,-0.43522227,1.0,0.49125347,-0.5087465
14063,2.0,1.1269021,-0.8730979,0.0,0.37568706,0.37568706,0.3,0.3054201,0.005420089,0.1,0.05943493,-0.04056507,0.01,0.051705528,0.041705526,0.2,0.19615105,-0.003848955,1.0,1.0068548,0.0068547726,0.1,0.08859424,-0.011405759,0.2,0.299038,0.09903799,0.1,0.050304245,-0.049695756,0.05,0.017758247,-0.032241754,1.0,0.5094925,-0.49050748,0.5,0.51125944,0.011259437
13968,2.0,0.20086604,-1.799134,0.0,0.21891609,0.21891609,0.3,0.27122518,-0.028774828,0.1,0.05164013,-0.04835987,0.01,0.008456606,-0.0015433934,0.2,0.10556588,-0.09443412,0.5,0.5781637,0.07816368,0.0,0.04561631,0.04561631,0.2,0.2001412,0.0001412034,0.1,0.048147425,-0.051852576,0.05,0.021072801,-0.0289272,1.0,0.5306968,-0.4693032,1.0,0.53898126,-0.46101874
6409,1.05,0.14943095,-0.900569,0.0,0.15694454,0.15694454,0.1,0.15648276,0.056482755,0.05,0.05151577,0.0015157685,0.05,0.026857566,-0.023142435,0.1,0.19579995,0.095799945,0.5,1.0079783,0.5079783,0.0,0.055330377,0.055330377,0.2,0.29610288,0.09610288,0.1,0.050299376,-0.049700625,0.02,0.01929235,-0.0007076487,0.5,0.99296814,0.49296814,0.5,0.9808522,0.4808522
15149,2.0,1.9955713,-0.0044287443,0.2,0.15999897,-0.040001035,0.1,0.2928885,0.1928885,0.1,0.0889228,-0.011077203,0.05,0.04965119,-0.0003488101,0.1,0.13979134,0.03979134,0.5,0.8293017,0.3293017,0.1,0.04553067,-0.054469332,0.2,0.19931436,-0.00068564713,0.1,0.10036918,0.00036917627,0.05,0.02066063,-0.029339371,0.5,0.9884534,0.4884534,0.5,0.514893,0.014892995
15461,2.0,0.19964439,-1.8003557,0.2,0.17932443,-0.02067557,0.3,0.2438648,-0.056135207,0.05,0.09635941,0.04635941,0.01,0.030348947,0.020348947,0.1,0.16610269,0.06610269,1.0,0.6991145,-0.3008855,0.1,0.04722473,-0.05277527,0.2,0.24695027,0.046950266,0.05,0.051835287,0.0018352866,0.05,0.048506964,-0.0014930367,0.5,1.0038946,0.50389457,0.5,0.51862884,0.018628836
1769,0.1,1.8885792,1.7885792,0.0,0.04627945,0.04627945,0.3,0.31022647,0.010226458,0.1,0.082370296,-0.017629705,0.01,0.052810002,0.04281,0.2,0.102758184,-0.09724182,1.0,0.47142062,-0.52857935,0.1,0.10513781,0.0051378086,0.2,0.20108964,0.0010896325,0.1,0.100735806,0.00073580444,0.02,0.023769448,0.003769448,0.5,0.5193522,0.019352198,0.5,0.98368907,0.48368907
8951,1.05,0.18751995,-0.86248,0.2,0.25635576,0.05635576,0.1,0.23993926,0.13993925,0.1,0.09928577,-0.000714235,0.01,0.05114536,0.041145362,0.2,0.10482073,-0.095179275,1.0,0.6648288,-0.33517122,0.1,-0.0025645986,-0.1025646,0.3,0.2289166,-0.07108341,0.05,0.05218176,0.002181761,0.05,0.0503368,0.00033679977,1.0,0.98879194,-0.011208057,0.5,0.9965044,0.49650443
8426,1.05,0.13808468,-0.9119153,0.2,0.18094775,-0.019052252,0.1,0.17512211,0.07512211,0.05,0.048456647,-0.0015433542,0.01,0.032547697,0.022547698,0.2,0.19070446,-0.009295538,1.0,0.8206239,-0.17937613,0.1,0.104201,0.004200995,0.2,0.2571773,0.05717729,0.1,0.05161179,-0.048388213,0.02,0.020112488,0.000112488866,0.5,0.5074321,0.007432103,1.0,0.9698902,-0.030109823
16080,2.0,0.24320734,-1.7567927,0.2,0.23050964,0.030509636,0.3,0.18732016,-0.112679854,0.1,0.054109085,-0.045890916,0.01,0.040022407,0.030022407,0.2,0.10144162,-0.09855838,1.0,0.5235536,-0.4764464,0.0,0.06410544,0.06410544,0.2,0.2885694,0.08856939,0.1,0.050051827,-0.049948175,0.05,0.019970244,-0.030029757,1.0,0.99453646,-0.0054635406,1.0,0.97029126,-0.029708743
7223,1.05,1.0035865,-0.04641342,0.0,0.17864339,0.17864339,0.3,0.082126014,-0.21787399,0.05,0.06671454,0.01671454,0.01,0.047589768,0.037589766,0.1,0.104343176,0.0043431744,0.5,1.0300181,0.5300181,0.1,0.06588398,-0.034116022,0.3,0.2980581,-0.0019419193,0.05,0.050177764,0.0001777634,0.05,0.05059355,0.0005935505,1.0,0.5132797,-0.48672032,0.5,0.5055309,0.005530894
9877,1.05,1.0253116,-0.024688363,0.2,0.16693714,-0.03306286,0.3,0.11526279,-0.18473722,0.1,0.060916305,-0.039083697,0.01,0.0116624925,0.0016624928,0.2,0.19891405,-0.0010859519,0.5,1.0274423,0.52744234,0.0,0.061421376,0.061421376,0.3,0.20290951,-0.0970905,0.05,0.053075433,0.003075432,0.05,0.048959937,-0.0010400638,0.5,0.9833219,0.4833219,0.5,0.9966075,0.49660748
4227,0.1,0.20450385,0.10450385,0.4,0.19327796,-0.20672205,0.1,0.25201353,0.15201354,0.05,0.047609776,-0.0023902245,0.01,0.010447135,0.00044713542,0.2,0.19716848,-0.0028315187,0.5,1.0021229,0.5021229,0.0,0.0006382175,0.0006382175,0.2,0.29618713,0.09618713,0.05,0.09855183,0.04855183,0.02,0.02146611,0.0014661103,1.0,1.0033804,0.0033804178,0.5,0.9903352,0.49033523
17796,2.0,1.0548841,-0.9451159,0.4,0.024008319,-0.3759917,0.3,0.113498904,-0.18650112,0.05,0.052223533,0.0022235326,0.05,0.011220131,-0.03877987,0.2,0.19639733,-0.0036026686,0.5,0.79498315,0.29498315,0.0,0.03795964,0.03795964,0.2,0.20455134,0.004551336,0.05,0.09833163,0.04833163,0.02,0.021513639,0.0015136395,1.0,0.9832587,-0.016741276,1.0,0.984482,-0.01551801
5529,0.1,0.907475,0.807475,0.4,0.12216006,-0.27783996,0.3,0.22630155,-0.07369846,0.05,0.06247115,0.012471151,0.05,0.012874977,-0.037125025,0.2,0.10447432,-0.09552568,0.5,1.0509,0.5509,0.0,0.008028018,0.008028018,0.3,0.2029865,-0.09701352,0.1,0.100727126,0.0007271245,0.02,0.051665824,0.031665824,0.5,0.52323,0.023230016,0.5,0.51792777,0.017927766
16593,2.0,1.0321019,-0.96789813,0.4,0.058820993,-0.341179,0.1,0.1174446,0.017444596,0.05,0.059490465,0.009490464,0.01,0.050212447,0.040212445,0.2,0.19397113,-0.0060288757,1.0,0.5272503,-0.4727497,0.0,0.010558649,0.010558649,0.3,0.20304847,-0.096951544,0.05,0.09798352,0.047983516,0.02,0.020802408,0.0008024089,0.5,0.9806193,0.4806193,0.5,0.9940124,0.49401242
937,0.1,0.17659399,0.07659399,0.0,0.24941325,0.24941325,0.1,0.22334178,0.12334178,0.1,0.09843558,-0.0015644208,0.05,0.049225852,-0.00077414885,0.2,0.19705012,-0.0029498786,0.5,0.48974466,-0.010255337,0.1,0.061668493,-0.03833151,0.2,0.20677158,0.0067715794,0.1,0.049510635,-0.050489366,0.02,0.021810953,0.001810953,0.5,0.53203696,0.03203696,0.5,1.0143702,0.5143702
5542,0.1,1.0463142,0.9463142,0.4,0.3729597,-0.027040303,0.3,0.279459,-0.020541012,0.05,0.08075579,0.030755792,0.05,0.046923295,-0.003076706,0.2,0.19469495,-0.005305052,0.5,0.48722625,-0.012773752,0.1,0.04232447,-0.057675533,0.2,0.20639583,0.0063958317,0.05,0.053792305,0.0037923045,0.05,0.051710997,0.001710996,0.5,0.5197857,0.019785702,1.0,0.98371863,-0.016281366
8399,1.05,0.13331929,-0.9166807,0.2,0.19677034,-0.0032296628,0.1,0.21738745,0.11738745,0.05,0.10268001,0.05268001,0.01,0.018444695,0.008444695,0.2,0.19049302,-0.009506986,1.0,0.52193034,-0.47806966,0.0,0.05445373,0.05445373,0.2,0.2993036,0.09930359,0.1,0.09913997,-0.00086002797,0.05,0.049342815,-0.0006571859,1.0,0.97833973,-0.021660268,0.5,0.9805652,0.4805652
16044,2.0,1.9482229,-0.051777124,0.2,0.3480298,0.14802979,0.3,0.10618154,-0.19381848,0.1,0.076499276,-0.023500726,0.01,0.010295842,0.00029584207,0.2,0.19428913,-0.00571087,0.5,0.5472615,0.047261477,0.1,0.03803747,-0.06196253,0.2,0.20527002,0.005270019,0.1,0.099534355,-0.0004656464,0.02,0.049906984,0.029906984,1.0,0.5113281,-0.4886719,1.0,0.9974705,-0.002529502
9858,1.05,0.07386033,-0.9761396,0.2,0.228501,0.028501004,0.3,0.12836781,-0.1716322,0.1,0.09827552,-0.0017244816,0.01,0.030868363,0.020868363,0.2,0.19781284,-0.0021871626,0.5,0.57185715,0.071857154,0.0,0.08636007,0.08636007,0.2,0.1980588,-0.0019412041,0.05,0.097622916,0.047622915,0.02,0.021203179,0.0012031794,0.5,0.50868034,0.008680344,1.0,1.0515113,0.051511288
252,0.1,0.12371511,0.023715109,0.0,0.21732864,0.21732864,0.1,0.2219433,0.1219433,0.05,0.047790956,-0.002209045,0.01,0.040939208,0.030939208,0.2,0.09971975,-0.100280255,1.0,0.47310856,-0.52689147,0.1,0.063700214,-0.036299787,0.3,0.300005,4.976988e-06,0.1,0.051745392,-0.04825461,0.02,0.019426087,-0.00057391264,1.0,0.50358164,-0.49641836,1.0,0.4705901,-0.5294099
12182,1.05,1.9157474,0.86574745,0.4,0.32833788,-0.07166213,0.3,0.1126106,-0.1873894,0.1,0.07665381,-0.023346193,0.05,0.04888383,-0.0011161715,0.2,0.1811693,-0.018830702,0.5,1.0183048,0.5183048,0.0,0.07219722,0.07219722,0.3,0.29521072,-0.004789293,0.05,0.10135641,0.05135641,0.05,0.020411562,-0.029588439,0.5,0.51097596,0.010975957,1.0,0.49857476,-0.50142527
3573,0.1,1.0322518,0.9322518,0.2,0.25594372,0.055943713,0.3,0.2834878,-0.016512215,0.05,0.05599178,0.0059917793,0.05,0.04964095,-0.00035905093,0.2,0.105286166,-0.09471384,1.0,0.94524634,-0.05475366,0.1,0.083661295,-0.016338706,0.3,0.19801772,-0.101982296,0.05,0.099008545,0.049008545,0.05,0.022285933,-0.027714068,0.5,0.52697206,0.026972055,0.5,1.0177449,0.5177449
12434,2.0,0.029337581,-1.9706625,0.0,0.27290043,0.27290043,0.1,0.24971783,0.14971784,0.05,0.054461967,0.0044619665,0.01,0.0111343125,0.0011343127,0.2,0.10120326,-0.09879674,0.5,0.4460947,-0.05390531,0.0,0.056876905,0.056876905,0.3,0.29427746,-0.0057225525,0.05,0.09800902,0.04800902,0.02,0.04829248,0.02829248,0.5,0.5238806,0.0238806,1.0,0.93859357,-0.061406434
11126,1.05,0.9818325,-0.06816745,0.4,0.047278166,-0.35272184,0.1,0.11499679,0.014996789,0.1,0.05862703,-0.04137297,0.05,0.009472707,-0.04052729,0.1,0.10546806,0.0054680556,1.0,0.95677346,-0.04322654,0.1,0.025555268,-0.07444473,0.3,0.2964107,-0.0035893023,0.05,0.09828538,0.048285376,0.05,0.019900614,-0.030099386,0.5,0.9901426,0.49014258,1.0,0.9829173,-0.017082691
15958,2.0,0.15244387,-1.8475561,0.2,0.27307746,0.073077455,0.3,0.1933643,-0.106635705,0.1,0.05039985,-0.04960015,0.01,0.0105211325,0.0005211327,0.1,0.12914756,0.029147558,1.0,0.7442409,-0.25575912,0.0,0.017796014,0.017796014,0.3,0.27583104,-0.024168968,0.05,0.07743089,0.027430888,0.05,0.050848503,0.0008485019,0.5,0.9909239,0.49092388,1.0,0.5269166,-0.47308338
5901,0.1,2.0052397,1.9052397,0.4,0.38959134,-0.01040867,0.3,0.30810368,0.008103669,0.1,0.041196384,-0.058803618,0.05,0.050718762,0.00071876124,0.1,0.11070776,0.010707758,0.5,1.0262911,0.52629113,0.0,0.11146172,0.11146172,0.2,0.31023347,0.11023347,0.1,0.10199143,0.0019914284,0.05,0.02024771,-0.02975229,0.5,0.9878809,0.4878809,0.5,1.0062687,0.50626874
4280,0.1,0.0976177,-0.0023823008,0.4,0.2573422,-0.14265782,0.1,0.23464282,0.13464281,0.05,0.105063416,0.055063415,0.01,0.052430052,0.04243005,0.2,0.19914767,-0.0008523315,0.5,0.7316675,0.23166752,0.1,0.0166302,-0.0833698,0.3,0.29976767,-0.0002323389,0.05,0.051925857,0.0019258559,0.05,0.021573136,-0.028426865,1.0,0.51816124,-0.48183876,1.0,0.7372111,-0.2627889
5039,0.1,1.9364191,1.8364191,0.4,0.22219758,-0.17780243,0.1,0.3010647,0.2010647,0.1,0.06980488,-0.030195124,0.05,0.011660552,-0.03833945,0.2,0.0999702,-0.100029804,0.5,0.5069159,0.006915927,0.1,0.059748165,-0.040251836,0.2,0.20109808,0.0010980815,0.1,0.09893159,-0.0010684133,0.05,0.019513575,-0.030486425,1.0,0.5138744,-0.4861256,0.5,0.9915238,0.4915238
7810,1.05,0.08531616,-0.9646838,0.0,0.17738912,0.17738912,0.3,0.17138539,-0.12861462,0.1,0.096490346,-0.0035096556,0.01,0.010167577,0.00016757753,0.2,0.19677095,-0.0032290518,0.5,0.44974095,-0.050259054,0.0,0.060077675,0.060077675,0.2,0.29292688,0.092926875,0.05,0.10068043,0.050680432,0.02,0.020567156,0.0005671568,0.5,0.993984,0.49398398,1.0,0.48251897,-0.517481
17839,2.0,0.021023363,-1.9789766,0.4,0.16550744,-0.23449257,0.3,0.2561629,-0.0438371,0.05,0.049709227,-0.0002907738,0.05,0.0038002832,-0.046199717,0.2,0.1081444,-0.0918556,0.5,0.87097335,0.37097335,0.1,0.06988885,-0.030111149,0.2,0.19995022,-4.978478e-05,0.1,0.052625865,-0.047374137,0.05,0.021159237,-0.028840763,1.0,0.5321095,-0.4678905,0.5,0.8860798,0.3860798
8146,1.05,0.03546689,-1.014533,0.0,0.18053606,0.18053606,0.3,0.18913585,-0.11086416,0.1,0.052404515,-0.047595486,0.05,0.010143003,-0.039856996,0.2,0.20772585,0.0077258497,1.0,0.50909483,-0.49090517,0.0,0.09087144,0.09087144,0.3,0.19038613,-0.10961388,0.05,0.09717129,0.04717129,0.02,0.04972834,0.029728342,0.5,0.5080719,0.008071899,1.0,0.98926365,-0.010736346
17622,2.0,0.10409876,-1.8959012,0.4,0.20046401,-0.199536,0.3,0.17183587,-0.12816414,0.05,0.055452336,0.005452335,0.01,0.035730615,0.025730615,0.2,0.19673297,-0.003267035,1.0,0.51772267,-0.48227733,0.0,0.07499185,0.07499185,0.3,0.2957252,-0.0042748153,0.05,0.05069858,0.0006985776,0.05,0.02044056,-0.02955944,0.5,0.9871925,0.4871925,1.0,1.0027647,0.0027647018
8371,1.05,0.10794042,-0.9420595,0.2,0.16076775,-0.039232254,0.1,0.10387389,0.0038738921,0.05,0.052099746,0.002099745,0.01,0.010875893,0.00087589305,0.2,0.1774177,-0.022582307,0.5,0.8878898,0.3878898,0.1,0.0124118645,-0.08758814,0.3,0.22939965,-0.07060036,0.05,0.06799772,0.017997716,0.02,0.03778249,0.01778249,1.0,0.510883,-0.48911703,0.5,0.5251246,0.02512461
7022,1.05,0.9755615,-0.07443845,0.0,0.22185405,0.22185405,0.1,0.28773305,0.18773305,0.1,0.102023676,0.0020236745,0.05,0.050981797,0.0009817965,0.1,0.11124708,0.011247076,1.0,0.51766896,-0.48233104,0.1,0.01857474,-0.081425264,0.2,0.20311476,0.00311476,0.1,0.051282417,-0.048717584,0.05,0.021181982,-0.028818019,0.5,0.999276,0.49927598,1.0,0.5067251,-0.49327493
248,0.1,0.9975492,0.89754915,0.0,0.08979125,0.08979125,0.1,0.10856243,0.008562431,0.05,0.06830024,0.018300239,0.01,0.011633077,0.0016330769,0.2,0.13730033,-0.062699676,1.0,0.48664954,-0.5133505,0.1,0.04322775,-0.05677225,0.3,0.20325804,-0.096741974,0.05,0.09917591,0.049175907,0.05,0.0475042,-0.0024957992,1.0,0.9764471,-0.023552895,1.0,0.52854407,-0.47145593
14982,2.0,1.1229155,-0.8770845,0.2,0.0055918754,-0.19440813,0.1,0.2994493,0.1994493,0.1,0.096823215,-0.003176786,0.01,0.012457119,0.0024571195,0.2,0.10383741,-0.096162595,0.5,0.50718176,0.0071817636,0.0,0.032769054,0.032769054,0.2,0.2051359,0.005135894,0.05,0.052149195,0.0021491945,0.05,0.02228159,-0.02771841,0.5,0.9911684,0.49116838,1.0,1.0028945,0.0028945208
58,0.1,0.20779206,0.10779206,0.0,0.16087821,0.16087821,0.1,0.22690381,0.1269038,0.05,0.098188035,0.048188034,0.01,0.052601647,0.042601645,0.1,0.19635917,0.09635917,0.5,0.99398494,0.49398494,0.1,0.036335353,-0.063664645,0.3,0.20138395,-0.09861606,0.1,0.05279524,-0.047204763,0.02,0.019440927,-0.00055907294,0.5,0.9795302,0.47953022,1.0,0.5137905,-0.4862095
12215,1.05,0.11120241,-0.93879753,0.4,0.3381806,-0.061819404,0.3,0.147784,-0.15221602,0.1,0.053000383,-0.04699962,0.05,0.013491285,-0.036508717,0.2,0.111697555,-0.08830245,0.5,0.91258353,0.41258353,0.1,0.050809015,-0.049190987,0.3,0.19555789,-0.10444212,0.05,0.099357404,0.049357403,0.05,0.03617384,-0.013826162,1.0,0.50671154,-0.49328846,0.5,0.81151456,0.31151456
3972,0.1,2.0246143,1.9246143,0.2,-0.023305705,-0.2233057,0.3,0.2911056,-0.008894414,0.1,0.04908207,-0.05091793,0.05,0.009672755,-0.040327244,0.2,0.1958355,-0.004164502,0.5,1.0518119,0.55181193,0.0,0.091583915,0.091583915,0.2,0.30226728,0.10226728,0.05,0.051729925,0.0017299242,0.02,0.04925181,0.02925181,1.0,0.524764,-0.475236,1.0,0.54151434,-0.45848566
12850,2.0,0.9150518,-1.0849482,0.0,0.116424225,0.116424225,0.1,0.11292676,0.012926757,0.1,0.08119299,-0.018807009,0.01,0.049537543,0.03953754,0.1,0.09824213,-0.0017578751,0.5,0.5265244,0.026524425,0.1,0.014273906,-0.0857261,0.3,0.20186517,-0.098134845,0.05,0.09757142,0.047571417,0.02,0.049271412,0.029271413,0.5,0.9542883,0.4542883,1.0,1.0092149,0.009214878
981,0.1,0.98344,0.88343996,0.0,0.19552514,0.19552514,0.1,0.12113862,0.021138616,0.1,0.09334147,-0.0066585317,0.05,0.049349893,-0.00065010786,0.2,0.102955006,-0.097045,1.0,0.50221515,-0.49778485,0.0,-0.0046254983,-0.0046254983,0.3,0.20302455,-0.09697546,0.05,0.094359145,0.044359144,0.05,0.025324324,-0.024675677,0.5,0.49466842,-0.005331576,0.5,1.0212908,0.5212908
16146,2.0,0.2666227,-1.7333773,0.2,0.23239012,0.032390118,0.3,0.19786565,-0.10213436,0.1,0.098212734,-0.0017872676,0.05,0.054930378,0.004930377,0.1,0.09951436,-0.00048564374,0.5,0.53634316,0.036343157,0.0,0.06492078,0.06492078,0.3,0.20564052,-0.09435949,0.05,0.05164699,0.0016469881,0.02,0.020820528,0.0008205287,0.5,0.51783323,0.017833233,1.0,0.48536998,-0.51463
6516,1.05,1.0141728,-0.03582716,0.0,0.32514873,0.32514873,0.1,0.3007644,0.20076442,0.05,0.09360047,0.043600466,0.05,0.011061561,-0.03893844,0.1,0.20120542,0.101205416,1.0,0.517909,-0.482091,0.1,0.015537366,-0.084462635,0.3,0.19902506,-0.10097495,0.05,0.05100159,0.001001589,0.02,0.04931001,0.02931001,1.0,0.522074,-0.47792602,1.0,0.9808492,-0.019150794
9691,1.05,0.18258055,-0.8674194,0.2,0.22009961,0.02009961,0.3,0.19796595,-0.10203406,0.05,0.046656728,-0.003343273,0.05,0.051124364,0.0011243634,0.2,0.101271555,-0.09872845,1.0,0.51173294,-0.48826706,0.0,0.03078312,0.03078312,0.3,0.29691166,-0.003088355,0.1,0.05076782,-0.04923218,0.02,0.04637074,0.026370741,1.0,1.0059168,0.005916834,0.5,0.96727395,0.46727395
2699,0.1,1.8940935,1.7940935,0.2,0.023141012,-0.17685899,0.1,0.11159073,0.011590727,0.1,0.056064915,-0.043935087,0.01,0.011908663,0.0019086637,0.2,0.14159761,-0.05840239,0.5,0.79617333,0.29617333,0.0,0.0379176,0.0379176,0.2,0.20114776,0.0011477619,0.1,0.051965393,-0.04803461,0.02,0.04850644,0.02850644,1.0,0.5193455,-0.48065448,0.5,0.51533484,0.015334845
10591,1.05,1.9157925,0.8657925,0.4,0.12913233,-0.27086768,0.1,0.105598174,0.0055981725,0.05,0.07677046,0.026770461,0.05,0.011777933,-0.038222067,0.1,0.10301256,0.0030125603,1.0,0.49590683,-0.50409317,0.0,0.041469503,0.041469503,0.3,0.29863578,-0.0013642311,0.1,0.09737377,-0.0026262328,0.05,0.020489106,-0.029510895,1.0,0.9845216,-0.015478373,0.5,0.99164283,0.49164283
2863,0.1,0.98549795,0.8854979,0.2,0.055098236,-0.14490177,0.1,0.11247355,0.012473546,0.1,0.0756315,-0.024368502,0.05,0.009362905,-0.040637095,0.1,0.10315573,0.0031557307,0.5,0.94754934,0.44754934,0.1,0.017571986,-0.082428016,0.2,0.2973601,0.09736009,0.1,0.096747875,-0.0032521263,0.05,0.019932691,-0.03006731,1.0,0.99395585,-0.0060441494,0.5,0.9984005,0.4984005
5733,0.1,0.19828756,0.09828756,0.4,0.17503062,-0.22496939,0.3,0.17739841,-0.1226016,0.1,0.09916838,-0.0008316189,0.01,0.05001944,0.040019438,0.1,0.19308142,0.09308142,1.0,0.95368844,-0.046311557,0.1,0.044614855,-0.055385146,0.2,0.20617004,0.0061700344,0.05,0.05322854,0.0032285377,0.05,0.049373526,-0.0006264746,0.5,0.9909221,0.4909221,0.5,0.5185681,0.018568099
8030,1.05,1.0607387,0.01073873,0.0,0.0502081,0.0502081,0.3,0.24746439,-0.052535623,0.1,0.06657385,-0.03342615,0.05,0.048923474,-0.0010765269,0.1,0.14588848,0.045888476,1.0,0.44022322,-0.5597768,0.0,0.026253492,0.026253492,0.3,0.20220214,-0.09779787,0.1,0.10105445,0.0010544509,0.05,0.05051108,0.00051108,0.5,0.99920905,0.49920905,1.0,0.5253665,-0.4746335
14307,2.0,-9.465478e-05,-2.0000947,0.0,0.25225168,0.25225168,0.3,0.19423355,-0.10576646,0.1,0.04989492,-0.05010508,0.05,0.012165354,-0.037834648,0.2,0.2085789,0.0085788965,1.0,0.5487107,-0.4512893,0.1,0.12201935,0.022019349,0.2,0.1907398,-0.009260207,0.05,0.09771991,0.047719907,0.02,0.051006462,0.031006463,1.0,1.012315,0.012315035,0.5,1.013175,0.513175
17788,2.0,1.0321842,-0.96781576,0.4,0.06178301,-0.338217,0.3,0.28266275,-0.017337263,0.05,0.057266332,0.0072663315,0.05,0.047769934,-0.0022300668,0.1,0.10402064,0.0040206388,1.0,0.9572814,-0.04271859,0.1,0.013855321,-0.08614468,0.3,0.29311225,-0.0068877637,0.1,0.051074635,-0.048925366,0.02,0.021109276,0.001109276,1.0,0.98214567,-0.017854333,1.0,0.51225615,-0.48774385
11078,1.05,1.969718,0.919718,0.4,0.20307708,-0.19692293,0.1,0.11795781,0.017957807,0.1,0.07234819,-0.02765181,0.05,0.01121464,-0.03878536,0.1,0.11302958,0.013029575,1.0,0.9412413,-0.058758676,0.0,0.078523904,0.078523904,0.2,0.20434026,0.004340261,0.05,0.09675658,0.046756577,0.05,0.020197878,-0.029802123,0.5,0.9816992,0.48169923,1.0,0.52083707,-0.47916293
8693,1.05,1.2117404,0.16174042,0.2,-0.038381524,-0.23838153,0.1,0.29122913,0.19122913,0.05,0.051190626,0.0011906251,0.05,0.010968249,-0.03903175,0.2,0.18800181,-0.0119981915,1.0,0.9151338,-0.084866226,0.1,0.07638911,-0.02361089,0.3,0.2940176,-0.005982399,0.05,0.09969644,0.04969644,0.05,0.021238888,-0.028761113,0.5,0.99110603,0.49110603,0.5,0.518144,0.018144011
17768,2.0,0.20297821,-1.7970217,0.4,0.1958082,-0.2041918,0.3,0.23860815,-0.06139186,0.05,0.097657576,0.047657575,0.05,0.03569667,-0.01430333,0.1,0.19422263,0.09422263,1.0,0.55132127,-0.44867873,0.1,0.0048667225,-0.09513328,0.2,0.20401637,0.0040163696,0.05,0.0989457,0.0489457,0.05,0.02002991,-0.02997009,1.0,0.9839659,-0.016034126,1.0,0.9938902,-0.006109774
6211,1.05,1.0056359,-0.044364095,0.0,0.06245886,0.06245886,0.1,0.2839847,0.1839847,0.05,0.079103075,0.029103074,0.01,0.046036366,0.036036365,0.1,0.102877304,0.0028773025,1.0,0.4883504,-0.5116496,0.0,0.027916316,0.027916316,0.2,0.28744337,0.08744337,0.05,0.09369286,0.04369286,0.02,0.021722069,0.0017220695,1.0,0.9968904,-0.0031095743,0.5,1.0005567,0.5005567
13352,2.0,1.9727833,-0.027216673,0.0,0.33838838,0.33838838,0.3,0.2842289,-0.01577112,0.05,0.07779165,0.027791653,0.01,0.04681723,0.03681723,0.1,0.11870594,0.018705942,0.5,1.0741732,0.5741732,0.1,0.04694589,-0.053054113,0.2,0.20463483,0.0046348274,0.05,0.05277317,0.0027731694,0.05,0.02000938,-0.02999062,1.0,0.51527417,-0.48472583,1.0,0.5032724,-0.4967276
10934,1.05,0.13906199,-0.91093796,0.4,0.22379813,-0.17620188,0.1,0.09824893,-0.0017510727,0.1,0.054999113,-0.04500089,0.01,0.049468316,0.03946832,0.2,0.2116663,0.011666298,0.5,1.0083687,0.50836873,0.1,0.10374161,0.003741607,0.3,0.2977524,-0.0022476017,0.05,0.05041915,0.00041915104,0.05,0.050176542,0.0001765415,0.5,0.9931168,0.4931168,1.0,1.0125182,0.0125181675
10609,1.05,0.2087928,-0.84120715,0.4,0.19658911,-0.2034109,0.1,0.28236613,0.18236613,0.05,0.04828629,-0.0017137118,0.05,0.051926266,0.0019262657,0.1,0.10010729,0.00010728836,1.0,0.949763,-0.050237,0.1,0.104273,0.0042729974,0.3,0.29163036,-0.008369654,0.05,0.09746682,0.04746682,0.02,0.042177074,0.022177074,0.5,0.5127073,0.012707293,0.5,0.9992528,0.4992528
2814,0.1,1.9000672,1.8000672,0.2,0.020095404,-0.1799046,0.1,0.10606688,0.006066881,0.1,0.045563824,-0.054436177,0.01,0.013425969,0.0034259688,0.2,0.11117723,-0.088822775,1.0,0.5905409,-0.4094591,0.1,0.06474715,-0.035252854,0.3,0.21119075,-0.08880927,0.1,0.05376975,-0.046230253,0.05,0.048072647,-0.0019273534,0.5,0.52796453,0.027964532,1.0,0.5261735,-0.47382653
6889,1.05,0.14353792,-0.906462,0.0,0.18203723,0.18203723,0.1,0.20880851,0.10880851,0.1,0.09467803,-0.005321972,0.01,0.012960076,0.0029600766,0.2,0.19955274,-0.00044725835,1.0,1.0232117,0.023211718,0.1,0.009120283,-0.090879716,0.2,0.29612353,0.09612353,0.1,0.05224039,-0.04775961,0.02,0.02107152,0.0010715201,0.5,0.98422945,0.48422945,0.5,0.9989799,0.49897993
2394,0.1,0.9734282,0.87342817,0.2,0.06761594,-0.13238406,0.1,0.28981078,0.18981078,0.05,0.08109361,0.031093609,0.05,0.05016587,0.00016586855,0.1,0.19892792,0.09892792,1.0,0.48392436,-0.5160756,0.0,0.069716945,0.069716945,0.3,0.19506064,-0.10493937,0.1,0.09858018,-0.0014198199,0.02,0.050239705,0.030239705,0.5,0.50828403,0.008284032,1.0,0.98740077,-0.01259923
1723,0.1,1.0278957,0.92789567,0.0,0.37204382,0.37204382,0.3,0.19407548,-0.10592453,0.1,0.06795849,-0.032041512,0.01,0.013501913,0.0035019135,0.2,0.12897773,-0.07102227,0.5,0.9723332,0.4723332,0.1,0.032696035,-0.06730397,0.3,0.20255643,-0.09744358,0.1,0.0986259,-0.0013741031,0.02,0.048160426,0.028160427,1.0,0.5089958,-0.49100423,0.5,0.49672636,-0.003273636
15912,2.0,0.21039632,-1.7896037,0.2,0.21003738,0.0100373775,0.3,0.18261907,-0.11738095,0.1,0.10114159,0.0011415854,0.01,0.03247465,0.022474648,0.1,0.09998135,-1.8648803e-05,0.5,0.51109254,0.011092544,0.1,0.08742423,-0.012575768,0.2,0.30235395,0.102353945,0.05,0.0978752,0.0478752,0.05,0.05069679,0.0006967895,1.0,0.99970853,-0.0002914667,1.0,1.0062153,0.006215334
7917,1.05,0.105999336,-0.9440006,0.0,0.1869939,0.1869939,0.3,0.29884526,-0.0011547506,0.1,0.05229811,-0.04770189,0.01,0.012757011,0.002757011,0.2,0.19033128,-0.009668723,1.0,0.5489945,-0.45100552,0.1,-0.008175926,-0.108175926,0.2,0.2944333,0.09443329,0.1,0.051270586,-0.048729416,0.05,0.04772036,-0.0022796392,0.5,1.0219386,0.52193856,0.5,0.502098,0.002098024
11507,1.05,1.0386848,-0.011315107,0.4,0.14434208,-0.2556579,0.3,0.28671658,-0.0132834315,0.05,0.058348555,0.008348554,0.01,0.010015113,1.5113503e-05,0.2,0.19577104,-0.0042289644,1.0,0.50822806,-0.49177194,0.1,0.035904445,-0.06409556,0.3,0.2959011,-0.004098922,0.05,0.050308865,0.00030886382,0.02,0.02014218,0.00014218129,1.0,0.5127321,-0.4872679,0.5,0.50669175,0.006691754
12880,2.0,0.18238258,-1.8176174,0.0,0.28267404,0.28267404,0.1,0.20689318,0.106893174,0.1,0.10230224,0.0023022369,0.01,0.05192924,0.041929238,0.1,0.19826491,0.09826491,1.0,0.5178467,-0.4821533,0.0,0.044206448,0.044206448,0.2,0.29429558,0.094295576,0.1,0.09802808,-0.0019719228,0.05,0.049880046,-0.00011995435,1.0,0.50238794,-0.49761206,1.0,1.0107951,0.010795116
1706,0.1,0.14753966,0.04753966,0.0,0.25918305,0.25918305,0.3,0.24496417,-0.055035844,0.1,0.047068957,-0.052931044,0.01,0.013707505,0.0037075048,0.2,0.11622907,-0.08377093,0.5,0.94492364,0.44492364,0.1,-0.0026018135,-0.10260181,0.2,0.2258556,0.0258556,0.1,0.10001967,1.9669533e-05,0.02,0.02104037,0.0010403711,0.5,0.9735863,0.47358632,1.0,0.91231656,-0.08768344
7639,1.05,1.898562,0.848562,0.0,0.4135757,0.4135757,0.3,0.089468904,-0.21053112,0.05,0.08158101,0.03158101,0.05,0.049406834,-0.0005931668,0.2,0.19565865,-0.004341349,1.0,0.51106536,-0.48893464,0.0,0.034477837,0.034477837,0.3,0.29784334,-0.0021566749,0.05,0.09935518,0.049355183,0.05,0.04968663,-0.00031337142,1.0,0.5085074,-0.49149263,0.5,0.9820701,0.4820701
1705,0.1,1.9090202,1.8090202,0.0,0.290967,0.290967,0.3,0.28785095,-0.012149066,0.1,0.0819353,-0.0180647,0.01,0.050324887,0.04032489,0.2,0.1924805,-0.0075194985,0.5,0.5092464,0.009246409,0.1,0.05096833,-0.04903167,0.2,0.19873261,-0.0012673885,0.1,0.09777862,-0.0022213832,0.02,0.048339516,0.028339516,0.5,0.5039918,0.0039917827,0.5,0.9908729,0.49087292
2215,0.1,0.13942407,0.03942407,0.2,0.2087439,0.008743897,0.1,0.1541792,0.0541792,0.05,0.097209714,0.047209714,0.01,0.047572557,0.037572555,0.2,0.19370405,-0.006295949,0.5,0.75222266,0.25222266,0.1,0.08737241,-0.012627594,0.2,0.29970092,0.09970091,0.05,0.10040514,0.05040514,0.05,0.019942684,-0.030057317,1.0,0.49913433,-0.5008657,0.5,0.7261251,0.22612512
11061,1.05,1.0486562,-0.0013437271,0.4,0.18803337,-0.21196663,0.1,0.2913477,0.19134772,0.1,0.10404837,0.00404837,0.05,0.009639704,-0.040360298,0.1,0.10314645,0.0031464472,0.5,0.5198291,0.019829094,0.1,0.039582722,-0.06041728,0.3,0.2998508,-0.00014922023,0.05,0.0498313,-0.00016869977,0.05,0.048543043,-0.0014569573,0.5,0.5176846,0.017684579,0.5,0.98665583,0.48665583
14337,2.0,-0.0006159391,-2.0006158,0.2,0.46898752,0.26898754,0.1,0.18787152,0.087871514,0.05,0.049966056,-3.3944845e-05,0.01,0.051619392,0.04161939,0.1,0.089068905,-0.010931097,0.5,1.1289897,0.6289897,0.0,0.08320068,0.08320068,0.2,0.21883349,0.018833488,0.05,0.054174285,0.0041742846,0.02,0.051635567,0.031635568,0.5,0.51551604,0.015516043,0.5,1.0401795,0.5401795
12807,2.0,0.15713269,-1.8428674,0.0,0.2265484,0.2265484,0.1,0.1193702,0.019370198,0.1,0.09835683,-0.0016431734,0.01,0.009019485,-0.000980515,0.1,0.10936946,0.009369455,0.5,1.0261079,0.5261079,0.0,0.051083934,0.051083934,0.2,0.20714824,0.007148236,0.05,0.05108256,0.0010825582,0.05,0.019836776,-0.030163225,1.0,0.9786508,-0.021349192,0.5,0.51939917,0.019399166
3523,0.1,1.1892778,1.0892777,0.2,0.008167023,-0.19183297,0.3,0.30000293,2.9206276e-06,0.05,0.043909647,-0.006090354,0.05,0.010712936,-0.039287064,0.2,0.1901713,-0.009828702,1.0,0.5356226,-0.4643774,0.0,0.071377516,0.071377516,0.2,0.30054253,0.10054253,0.05,0.050801147,0.00080114603,0.02,0.02095567,0.0009556711,1.0,0.5138294,-0.4861706,0.5,0.5113861,0.0113860965
4882,0.1,1.9043732,1.8043731,0.4,0.0047560064,-0.395244,0.1,0.10817186,0.008171856,0.1,0.059788335,-0.040211666,0.05,0.011080243,-0.038919758,0.1,0.10330622,0.0033062175,0.5,0.8443842,0.3443842,0.0,0.034241345,0.034241345,0.3,0.20468636,-0.09531365,0.05,0.099243104,0.049243104,0.02,0.020511217,0.00051121786,0.5,0.98664695,0.48664695,1.0,0.98561054,-0.014389455
8255,1.05,1.899772,0.8497721,0.2,0.116147086,-0.08385292,0.1,0.10394353,0.0039435253,0.05,0.06921984,0.019219842,0.01,0.048288547,0.03828855,0.1,0.19046576,0.09046576,0.5,0.5854062,0.085406184,0.1,0.07022976,-0.02977024,0.3,0.29816243,-0.0018375814,0.1,0.10286097,0.0028609708,0.05,0.019924572,-0.030075429,1.0,0.9769987,-0.023001313,0.5,0.5166491,0.016649127
12532,2.0,0.123434134,-1.8765658,0.0,0.25750914,0.25750914,0.1,0.25104496,0.15104496,0.05,0.09983885,0.049838852,0.01,0.049331732,0.039331734,0.2,0.11253387,-0.087466136,1.0,0.7136812,-0.28631878,0.1,-0.02491206,-0.12491206,0.3,0.24015455,-0.059845462,0.05,0.05042516,0.00042515993,0.02,0.050542876,0.030542877,1.0,0.9888319,-0.011168122,1.0,1.0129186,0.0129185915
9913,1.05,1.0202575,-0.02974248,0.2,0.20111689,0.0011168867,0.3,0.112340994,-0.18765903,0.1,0.06929393,-0.03070607,0.01,0.009622448,-0.00037755165,0.2,0.14777362,-0.05222638,0.5,0.4907128,-0.009287208,0.1,0.054567568,-0.045432433,0.3,0.20442414,-0.09557587,0.1,0.10089429,0.00089428574,0.02,0.049181793,0.029181793,0.5,0.99720883,0.49720883,0.5,0.5066699,0.006669879
8799,1.05,1.0758442,0.025844216,0.2,0.09477035,-0.10522965,0.1,0.2899453,0.18994531,0.1,0.0493016,-0.050698403,0.01,0.008607021,-0.0013929792,0.1,0.102996066,0.0029960647,1.0,1.0240607,0.024060726,0.0,0.054488413,0.054488413,0.3,0.29671392,-0.0032860935,0.1,0.052327693,-0.04767231,0.05,0.021715503,-0.028284498,1.0,0.49998152,-0.5000185,0.5,0.49971226,-0.00028774142
5450,0.1,0.18853378,0.08853378,0.4,0.17056143,-0.22943857,0.3,0.124302745,-0.17569727,0.05,0.055359446,0.005359445,0.05,0.046372022,-0.0036279783,0.1,0.10560541,0.005605407,1.0,0.99511045,-0.004889548,0.0,0.0704345,0.0704345,0.2,0.28810927,0.08810927,0.1,0.051389568,-0.048610434,0.02,0.02035309,0.00035309047,0.5,0.5071037,0.0071036816,1.0,1.0288459,0.028845906
4187,0.1,0.16344452,0.06344452,0.4,0.12030597,-0.27969402,0.1,0.077536635,-0.022463366,0.05,0.05541568,0.005415678,0.01,0.015642432,0.0056424327,0.1,0.19203047,0.09203047,1.0,0.52630836,-0.47369164,0.0,0.04145374,0.04145374,0.3,0.20318778,-0.09681223,0.1,0.05194115,-0.048058853,0.02,0.020501344,0.000501344,1.0,0.97099924,-0.02900076,0.5,0.5207731,0.020773113
11292,1.05,1.0663631,0.016363144,0.4,0.3820786,-0.017921418,0.3,0.10095704,-0.19904298,0.05,0.06644474,0.016444739,0.01,0.011184897,0.0011848975,0.1,0.19468434,0.09468434,0.5,0.5019825,0.00198251,0.0,0.07455741,0.07455741,0.3,0.30128178,0.0012817681,0.1,0.09942244,-0.00057756156,0.02,0.049787704,0.029787704,1.0,0.5132027,-0.48679727,1.0,0.9905802,-0.009419799
5660,0.1,0.18017706,0.08017706,0.4,0.214991,-0.185009,0.3,0.29879865,-0.0012013614,0.1,0.060979538,-0.039020464,0.01,0.025387727,0.015387727,0.1,0.20496178,0.104961775,0.5,0.61750096,0.11750096,0.0,0.034591585,0.034591585,0.3,0.3076196,0.0076195896,0.1,0.10403242,0.004032418,0.02,0.046451014,0.026451014,1.0,0.9978045,-0.0021954775,1.0,0.53248113,-0.46751887
4439,0.1,1.992411,1.892411,0.4,0.3078422,-0.09215781,0.1,0.109381564,0.0093815625,0.05,0.08898612,0.03898612,0.05,0.050793324,0.0007933229,0.1,0.1869745,0.086974494,1.0,0.7950497,-0.20495027,0.0,0.03357328,0.03357328,0.3,0.30162585,0.0016258359,0.05,0.09858505,0.048585046,0.05,0.050003067,3.065914e-06,1.0,0.9950203,-0.0049797297,0.5,0.5026772,0.0026772022
9665,1.05,1.9469035,0.8969035,0.2,0.13908443,-0.060915574,0.3,0.098201334,-0.20179868,0.05,0.05810524,0.008105241,0.05,0.010572178,-0.039427824,0.2,0.09972073,-0.10027927,1.0,0.9956911,-0.0043088794,0.0,0.05419139,0.05419139,0.2,0.2056079,0.005607903,0.05,0.098832704,0.048832703,0.02,0.019501913,-0.0004980862,0.5,0.5327248,0.032724798,0.5,0.9832636,0.4832636
12971,2.0,1.8903024,-0.10969758,0.0,0.008853647,0.008853647,0.1,0.105410755,0.005410753,0.1,0.08033069,-0.01966931,0.01,0.052943334,0.042943336,0.2,0.1036659,-0.0963341,0.5,0.5182039,0.018203914,0.1,0.10547365,0.005473651,0.2,0.19858153,-0.0014184713,0.1,0.10335348,0.0033534765,0.02,0.021080168,0.0010801684,1.0,0.5206482,-0.47935182,0.5,1.0107948,0.51079476
4510,0.1,1.8899059,1.7899059,0.4,0.45477533,0.054775327,0.1,0.12998644,0.029986434,0.05,0.097995244,0.047995243,0.05,0.04959529,-0.0004047118,0.2,0.16872756,-0.03127244,0.5,0.5199883,0.019988298,0.0,0.068815455,0.068815455,0.3,0.21118402,-0.08881599,0.1,0.10033961,0.0003396049,0.05,0.050279316,0.00027931482,0.5,0.53292346,0.03292346,1.0,0.48454818,-0.5154518
15681,2.0,1.9075879,-0.092412114,0.2,0.018565658,-0.18143435,0.3,0.10366777,-0.19633225,0.05,0.0755296,0.025529597,0.05,0.0101748295,-0.03982517,0.1,0.09580688,-0.0041931197,1.0,0.81932026,-0.18067974,0.0,0.03937509,0.03937509,0.2,0.29400623,0.094006225,0.05,0.051489912,0.0014899112,0.02,0.049974654,0.029974654,0.5,0.9772428,0.47724283,0.5,0.5253709,0.025370896
9268,1.05,1.900183,0.850183,0.2,0.16864805,-0.031351954,0.3,0.09963475,-0.20036526,0.05,0.059847247,0.009847246,0.01,0.047833517,0.03783352,0.1,0.20124483,0.10124483,0.5,0.99005276,0.49005276,0.1,0.08413395,-0.015866049,0.3,0.30106467,0.0010646582,0.05,0.09673449,0.046734486,0.02,0.05211564,0.032115642,1.0,0.5094595,-0.4905405,1.0,0.9936723,-0.0063276887
218,0.1,0.18312708,0.083127074,0.0,0.1949994,0.1949994,0.1,0.14185636,0.041856356,0.05,0.10027721,0.050277207,0.01,0.04621067,0.03621067,0.2,0.10285197,-0.09714803,1.0,1.0499501,0.049950123,0.0,0.05166536,0.05166536,0.3,0.2050341,-0.094965905,0.1,0.051706415,-0.048293587,0.02,0.049339373,0.029339373,0.5,0.5072848,0.00728482,1.0,1.0221407,0.022140741
13798,2.0,1.0378226,-0.9621774,0.0,0.082062766,0.082062766,0.3,0.113377936,-0.18662208,0.05,0.077369586,0.027369585,0.05,0.050492026,0.00049202517,0.2,0.20154038,0.0015403777,1.0,0.5162904,-0.48370957,0.1,0.026678601,-0.0733214,0.2,0.20324506,0.0032450557,0.05,0.052387875,0.0023878738,0.05,0.04747655,-0.002523452,0.5,1.0079957,0.5079957,1.0,0.9861561,-0.013843894
14359,2.0,0.2539571,-1.746043,0.2,0.23930576,0.03930576,0.1,0.21796119,0.11796119,0.05,0.05079766,0.00079765916,0.01,0.028508032,0.018508032,0.1,0.22740526,0.12740526,0.5,0.8520048,0.35200483,0.0,0.0009948671,0.0009948671,0.3,0.30329248,0.0032924712,0.05,0.050621986,0.00062198564,0.05,0.018289901,-0.0317101,1.0,0.5260231,-0.4739769,0.5,0.75612205,0.25612205
7842,1.05,1.0363848,-0.013615131,0.0,0.03036732,0.03036732,0.3,0.109264635,-0.19073537,0.1,0.058099248,-0.041900754,0.01,0.011591553,0.001591553,0.2,0.10838346,-0.09161654,0.5,0.9349473,0.4349473,0.1,0.043363474,-0.056636527,0.2,0.20415506,0.0041550547,0.05,0.051376604,0.0013766028,0.02,0.01950331,-0.00049668923,0.5,0.991719,0.491719,1.0,0.9835386,-0.016461372
5765,0.1,1.0594177,0.9594177,0.4,0.2542972,-0.14570281,0.3,0.10486586,-0.19513416,0.1,0.07593112,-0.024068885,0.01,0.04798322,0.037983224,0.2,0.21181412,0.011814117,0.5,0.97685975,0.47685975,0.0,0.027447194,0.027447194,0.2,0.29895326,0.09895326,0.05,0.05030944,0.0003094375,0.05,0.050742224,0.0007422231,0.5,1.0043983,0.50439835,0.5,0.9917296,0.49172962
14402,2.0,0.11338667,-1.8866134,0.2,0.19950895,-0.00049105287,0.1,0.22969572,0.12969571,0.05,0.05498758,0.004987579,0.01,0.014291701,0.004291701,0.1,0.09860785,-0.0013921484,1.0,0.55200195,-0.44799805,0.0,0.12313467,0.12313467,0.2,0.29363674,0.093636736,0.05,0.09220491,0.042204913,0.02,0.050284006,0.030284006,0.5,0.98046464,0.48046464,1.0,1.0410917,0.04109168
13377,2.0,1.1561947,-0.8438053,0.0,0.17076102,0.17076102,0.3,0.28861475,-0.011385262,0.05,0.07687717,0.026877169,0.01,0.05030606,0.04030606,0.1,0.15110663,0.051106624,1.0,1.0377433,0.03774333,0.0,0.07962916,0.07962916,0.2,0.20040828,0.00040827692,0.05,0.10323151,0.05323151,0.02,0.0206755,0.0006755013,0.5,0.9795705,0.4795705,0.5,0.5014528,0.0014528036
15569,2.0,0.95174795,-1.0482521,0.2,0.101261154,-0.09873885,0.3,0.093628585,-0.20637143,0.05,0.05672708,0.006727081,0.01,0.011141823,0.0011418229,0.2,0.098050565,-0.10194944,1.0,0.9530026,-0.046997428,0.0,0.08172701,0.08172701,0.3,0.20574035,-0.094259664,0.05,0.09895569,0.04895569,0.02,0.050323024,0.030323025,0.5,0.9793025,0.47930253,0.5,0.9964236,0.4964236
1158,0.1,0.12972502,0.029725023,0.0,0.18174705,0.18174705,0.3,0.28842556,-0.011574447,0.05,0.09681353,0.04681353,0.01,0.013420679,0.003420679,0.2,0.10534898,-0.09465102,0.5,0.56834275,0.068342745,0.0,0.012815732,0.012815732,0.2,0.30353677,0.10353677,0.05,0.051212203,0.001212202,0.05,0.049912963,-8.703768e-05,0.5,1.0069499,0.5069499,1.0,0.5234512,-0.4765488
15371,2.0,2.0382588,0.03825879,0.2,0.016332742,-0.18366726,0.3,0.3144984,0.014498383,0.05,0.05752616,0.0075261593,0.01,0.010946934,0.00094693433,0.1,0.13257506,0.032575063,0.5,1.0122359,0.5122359,0.0,0.06640229,0.06640229,0.2,0.20216271,0.0021627098,0.1,0.052084096,-0.047915906,0.02,0.021708941,0.0017089415,1.0,0.9910308,-0.008969188,0.5,0.5054503,0.0054503083
16937,2.0,0.8531152,-1.1468848,0.4,0.23699418,-0.16300583,0.1,0.25649518,0.15649518,0.1,0.074175134,-0.025824867,0.01,0.046541028,0.03654103,0.1,0.18756726,0.08756726,0.5,0.9535649,0.45356488,0.1,0.06631707,-0.033682935,0.2,0.3004095,0.10040949,0.1,0.09333352,-0.0066664815,0.02,0.045980304,0.025980305,0.5,0.5029877,0.0029876828,0.5,0.990363,0.490363
9735,1.05,1.0165734,-0.033426523,0.2,0.0380328,-0.1619672,0.3,0.29123613,-0.00876388,0.1,0.09918518,-0.00081481785,0.01,0.009645573,-0.0003544269,0.1,0.20074448,0.10074448,0.5,0.98251873,0.48251873,0.0,0.028074825,0.028074825,0.2,0.29999158,0.099991575,0.05,0.09749337,0.047493372,0.05,0.020342547,-0.029657453,1.0,0.5113887,-0.48861128,0.5,0.99225163,0.49225163
4706,0.1,1.8872916,1.7872915,0.4,0.118196025,-0.28180397,0.1,0.26292747,0.16292748,0.1,0.06338573,-0.03661427,0.01,0.051195156,0.041195154,0.1,0.19704035,0.09704035,1.0,0.50729734,-0.49270266,0.1,0.040653255,-0.059346747,0.2,0.2934115,0.09341149,0.05,0.049839664,-0.0001603365,0.02,0.019104734,-0.0008952655,0.5,0.99183255,0.49183255,1.0,0.50188625,-0.49811375
6206,1.05,0.21165662,-0.8383433,0.0,0.16932105,0.16932105,0.1,0.20229512,0.10229512,0.05,0.09744118,0.04744118,0.01,0.022313485,0.012313485,0.1,0.16514838,0.065148376,0.5,0.562149,0.06214899,0.1,0.04603424,-0.053965762,0.3,0.21033546,-0.08966455,0.1,0.051330518,-0.048669484,0.05,0.020283991,-0.02971601,0.5,1.0086739,0.5086739,1.0,0.5249493,-0.4750507
7051,1.05,0.12783934,-0.9221606,0.0,0.20149198,0.20149198,0.1,0.2668245,0.16682452,0.1,0.09912871,-0.00087129325,0.05,0.047753077,-0.0022469237,0.2,0.20667967,0.006679669,0.5,1.0546428,0.5546428,0.0,0.018739233,0.018739233,0.2,0.21281578,0.0128157735,0.1,0.10094465,0.00094465166,0.02,0.020068303,6.83032e-05,1.0,0.50005823,-0.49994177,0.5,0.50204283,0.00204283
